luts/athena.cube
TITLE "athena"
LUT_3D_SIZE 5
0.000000 0.000000 0.000000
0.205508 0.009490 0.036549
0.390203 0.017989 0.071418
0.586112 0.026991 0.113139
0.891658 0.041150 0.157899
0.007187 0.219776 0.007188
0.221102 0.235767 0.002232
0.464574 0.202027 0.005639
0.738625 0.168899 0.015332
0.999995 0.127653 0.031618
0.014282 0.436485 0.014285
0.185503 0.478492 0.007162
0.452138 0.482978 0.020441
0.718742 0.417454 0.006956
0.999995 0.366197 0.014513
0.022186 0.691784 0.034794
0.132127 0.749250 0.016699
0.405246 0.756664 0.024287
0.707404 0.755472 0.037247
0.999995 0.636878 0.009296
0.030228 1.000000 0.179970
0.097459 1.000000 0.102287
0.298434 1.000000 0.017954
0.576131 0.999999 0.011733
0.999994 0.999998 0.009664
0.016832 0.005172 0.185611
0.207584 0.010344 0.186377
0.377706 0.017622 0.212381
0.561226 0.025785 0.240400
0.840816 0.038449 0.282885
0.005296 0.198611 0.251241
0.207172 0.207171 0.207176
0.446829 0.176804 0.206096
0.722955 0.139129 0.207001
0.999997 0.070508 0.213627
0.010392 0.404547 0.256384
0.161547 0.440620 0.211785
0.428961 0.445913 0.213971
0.700462 0.402057 0.196366
0.999996 0.337602 0.178410
0.017442 0.649135 0.254340
0.107958 0.714336 0.224252
0.379918 0.715937 0.212994
0.683128 0.717889 0.222918
0.999996 0.627524 0.171546
0.028337 1.000000 0.323695
0.029099 1.000000 0.257135
0.267307 1.000000 0.191876
0.562094 0.999999 0.174394
0.999995 0.999997 0.115928
0.030566 0.009429 0.337866
0.211949 0.012450 0.318550
0.366949 0.018278 0.329128
0.533242 0.025251 0.349287
0.800106 0.036953 0.387485
0.006701 0.181369 0.439903
0.200993 0.192125 0.393198
0.439475 0.149994 0.405929
0.707499 0.106566 0.413974
0.999998 0.048092 0.430854
0.010027 0.373877 0.481485
0.163700 0.404226 0.441585
0.403311 0.403309 0.403334
0.673532 0.363299 0.396075
0.999997 0.291672 0.385445
0.015597 0.612253 0.496532
0.099765 0.676936 0.454022
0.352178 0.671594 0.408005
0.657037 0.676873 0.409519
0.999997 0.603521 0.378870
0.026568 1.000000 0.510938
0.027208 1.000000 0.460660
0.254673 1.000000 0.412933
0.544227 0.999999 0.374179
0.999904 0.999997 0.333689
0.044360 0.013534 0.485162
0.203267 0.014372 0.436152
0.360175 0.019743 0.454038
0.502083 0.025022 0.450195
0.741359 0.035046 0.478779
0.009846 0.158205 0.648937
0.190160 0.169954 0.605085
0.420463 0.129044 0.602601
0.705608 0.063580 0.634420
0.999999 0.048183 0.608119
0.010990 0.333912 0.689069
0.142553 0.373082 0.646330
0.383475 0.373508 0.604723
0.653010 0.320421 0.613608
0.999999 0.246520 0.620083
0.015140 0.562173 0.737349
0.099156 0.627008 0.705810
0.348776 0.623971 0.667789
0.628580 0.628578 0.628624
0.999998 0.560612 0.614865
0.024845 0.974853 0.767091
0.026187 1.000000 0.741075
0.253729 1.000000 0.681568
0.534188 0.999999 0.626670
0.994520 0.999997 0.581709
0.070576 0.017348 0.628490
0.184728 0.016737 0.566937
0.301078 0.019407 0.549147
0.463982 0.025571 0.594392
0.658366 0.032819 0.591374
0.019216 0.105744 0.997087
0.165030 0.121689 0.951708
0.385507 0.062925 0.923650
0.649441 0.037197 0.920297
0.908522 0.045284 0.815563
0.015264 0.261737 1.000000
0.096289 0.327381 0.975024
0.345437 0.316104 0.936117
0.598278 0.260301 0.912439
1.000000 0.168210 0.970368
0.015951 0.469214 1.000000
0.038580 0.562279 1.000000
0.298882 0.561408 0.990546
0.587902 0.571417 0.953258
1.000000 0.499575 0.982333
0.023686 0.907240 1.000000
0.025655 0.994293 1.000000
0.262443 0.999999 1.000000
0.550746 0.999998 1.000000
0.999969 0.999965 1.000000
