luts/athena.cube
TITLE "athena"
LUT_3D_SIZE 9
0.000000 0.000000 0.000000
0.112688 0.005203 0.020037
0.205508 0.009490 0.036549
0.297077 0.013701 0.053121
0.390203 0.017989 0.071418
0.483373 0.022276 0.090936
0.586112 0.026991 0.113139
0.725304 0.033368 0.144819
0.891658 0.041150 0.157899
0.003860 0.117845 0.003861
0.115311 0.122118 0.001162
0.235110 0.107300 0.002736
0.352329 0.095337 0.006430
0.478551 0.082488 0.012078
0.611609 0.066374 0.020075
0.764627 0.045606 0.033078
0.918116 0.043255 0.083817
0.999996 0.049725 0.081896
0.007187 0.219776 0.007188
0.096284 0.238605 0.003482
0.221102 0.235767 0.002232
0.338443 0.211260 0.003134
0.464574 0.202027 0.005639
0.593878 0.188462 0.009501
0.738625 0.168899 0.015332
0.947490 0.141371 0.026124
0.999995 0.127653 0.031618
0.010620 0.324529 0.010622
0.073014 0.352117 0.007342
0.202486 0.355138 0.004109
0.332996 0.356434 0.003379
0.453420 0.324925 0.003976
0.583807 0.308215 0.006038
0.730476 0.295442 0.009458
0.934748 0.270265 0.016160
0.999995 0.237152 0.020952
0.014282 0.436485 0.014285
0.048782 0.476784 0.012638
0.185503 0.478492 0.007162
0.312610 0.483055 0.010353
0.452138 0.482978 0.020441
0.574957 0.445912 0.005001
0.718742 0.417454 0.006956
0.926752 0.402438 0.011278
0.999995 0.366197 0.014513
0.017990 0.556589 0.024021
0.019928 0.608973 0.019931
0.160661 0.604089 0.011221
0.295352 0.610986 0.015755
0.428197 0.616738 0.024683
0.575949 0.614709 0.034909
0.709098 0.567313 0.006163
0.911203 0.525884 0.008852
0.999995 0.500203 0.011020
0.022186 0.691784 0.034794
0.024398 0.745282 0.024403
0.132127 0.749250 0.016699
0.270174 0.754070 0.015145
0.405246 0.756664 0.024287
0.545309 0.763805 0.035657
0.707404 0.755472 0.037247
0.895837 0.688362 0.007784
0.999995 0.636878 0.009296
0.028122 0.877227 0.044637
0.030395 0.928346 0.030401
0.086350 0.954026 0.026053
0.220231 0.944504 0.018700
0.363726 0.951247 0.014354
0.499959 0.949279 0.011594
0.651587 0.950773 0.009872
0.871224 0.930951 0.008822
0.999995 0.844294 0.008839
0.030228 1.000000 0.179970
0.030792 1.000000 0.148628
0.097459 1.000000 0.102287
0.188035 1.000000 0.043816
0.298434 1.000000 0.017954
0.432132 1.000000 0.014279
0.576131 0.999999 0.011733
0.773400 0.999999 0.009950
0.999994 0.999998 0.009664
0.009446 0.002884 0.103304
0.117357 0.005844 0.105350
0.205692 0.009627 0.119908
0.293598 0.013518 0.134742
0.382833 0.017546 0.148934
0.473090 0.021635 0.163875
0.572272 0.026167 0.180630
0.708291 0.032392 0.201110
0.866358 0.039654 0.224688
0.002915 0.109285 0.137439
0.112413 0.112413 0.112430
0.229342 0.099137 0.113150
0.348103 0.085998 0.115685
0.474309 0.071639 0.119517
0.607780 0.054548 0.124066
0.755410 0.034848 0.135283
0.892619 0.041180 0.159608
0.999996 0.048367 0.186771
0.005326 0.208225 0.140750
0.089128 0.223713 0.113056
0.213763 0.221758 0.108679
0.331684 0.205004 0.103981
0.453176 0.191010 0.101648
0.583091 0.176102 0.101147
0.729027 0.156463 0.100462
0.937693 0.128843 0.101426
0.999996 0.105039 0.115206
0.008194 0.308751 0.136326
0.065339 0.338430 0.116933
0.195162 0.339147 0.111197
0.322666 0.338719 0.113839
0.442800 0.311222 0.099024
0.574454 0.301211 0.100155
0.717873 0.283937 0.095946
0.922251 0.258148 0.091066
0.999996 0.220931 0.086642
0.011475 0.419333 0.139485
0.038758 0.461402 0.123113
0.170595 0.457725 0.108985
0.302067 0.462897 0.116388
0.440221 0.464377 0.122905
0.563727 0.431035 0.101895
0.709358 0.412022 0.095580
0.913981 0.391589 0.091250
0.999996 0.355806 0.078021
0.015015 0.535410 0.143774
0.016831 0.587946 0.131475
0.146638 0.586603 0.114219
0.281986 0.590219 0.117975
0.416264 0.595025 0.124507
0.563025 0.595192 0.131972
0.698479 0.552954 0.101090
0.901316 0.520803 0.085910
0.999995 0.494145 0.077900
0.019150 0.669979 0.151952
0.020981 0.723187 0.141364
0.119340 0.733609 0.121726
0.251224 0.729824 0.113702
0.393711 0.737086 0.125836
0.531331 0.740901 0.129424
0.694466 0.736169 0.133668
0.884699 0.676338 0.087253
0.999995 0.636436 0.066350
0.024933 0.855117 0.159537
0.026749 0.906066 0.148216
0.072861 0.939514 0.131050
0.208025 0.931000 0.115427
0.346805 0.929427 0.112789
0.489384 0.931486 0.117720
0.639609 0.929975 0.115037
0.859872 0.914670 0.107915
0.999995 0.842631 0.046056
0.029206 1.000000 0.248269
0.029618 1.000000 0.219262
0.061570 1.000000 0.178750
0.160097 1.000000 0.128869
0.275835 1.000000 0.087275
0.417714 1.000000 0.082013
0.568884 0.999999 0.073318
0.767662 0.999999 0.045763
0.999994 0.999998 0.009664
0.016832 0.005172 0.185611
0.123232 0.007110 0.177846
0.207584 0.010344 0.186377
0.291341 0.013884 0.200112
0.377706 0.017622 0.212381
0.464285 0.021452 0.225963
0.561226 0.025785 0.240400
0.691369 0.031659 0.259765
0.840816 0.038449 0.282885
0.003618 0.105226 0.230916
0.112765 0.108460 0.205221
0.230167 0.090958 0.213890
0.345159 0.077178 0.219507
0.470877 0.060729 0.226772
0.605720 0.040067 0.234495
0.724741 0.033139 0.244782
0.857401 0.039197 0.256427
0.999997 0.046307 0.272786
0.005296 0.198611 0.251241
0.093767 0.209751 0.227880
0.207172 0.207171 0.207176
0.323429 0.192141 0.205911
0.446829 0.176804 0.206096
0.576926 0.160325 0.206983
0.722955 0.139129 0.207001
0.930858 0.108244 0.209643
0.999997 0.070508 0.213627
0.007585 0.297536 0.258841
0.066149 0.323888 0.232962
0.184863 0.319889 0.208213
0.312763 0.320942 0.207101
0.434988 0.301272 0.200084
0.561896 0.285799 0.196622
0.706170 0.266679 0.193710
0.909847 0.237121 0.190264
0.999996 0.195815 0.182225
0.010392 0.404547 0.256384
0.035112 0.444327 0.231040
0.161547 0.440620 0.211785
0.293247 0.444754 0.209651
0.428961 0.445913 0.213971
0.552726 0.414372 0.196334
0.700462 0.402057 0.196366
0.900569 0.374698 0.187870
0.999996 0.337602 0.178410
0.013612 0.518822 0.253974
0.015199 0.569361 0.237784
0.136828 0.568658 0.216637
0.266376 0.567864 0.205592
0.405218 0.574379 0.214017
0.550299 0.575812 0.220122
0.688148 0.536948 0.196229
0.891977 0.510747 0.187015
0.999996 0.480121 0.178335
0.017442 0.649135 0.254340
0.019074 0.700482 0.243889
0.107958 0.714336 0.224252
0.238375 0.711742 0.209361
0.379918 0.715937 0.212994
0.519110 0.718928 0.216582
0.683128 0.717889 0.222918
0.874872 0.660652 0.184331
0.999996 0.627524 0.171546
0.023042 0.836180 0.262490
0.024674 0.885055 0.251504
0.063249 0.921188 0.236047
0.197390 0.915923 0.214885
0.331776 0.909026 0.202619
0.480383 0.914548 0.211090
0.629645 0.910871 0.206484
0.849603 0.898144 0.200963
0.999995 0.830256 0.153556
0.028337 1.000000 0.323695
0.028672 1.000000 0.291864
0.029099 1.000000 0.257135
0.130571 1.000000 0.211940
0.267307 1.000000 0.191876
0.406544 1.000000 0.177336
0.562094 0.999999 0.174394
0.761391 0.999998 0.150837
0.999995 0.999997 0.115928
0.023760 0.007324 0.262730
0.125705 0.008392 0.244787
0.211612 0.011412 0.254050
0.289631 0.014433 0.259912
0.372900 0.017927 0.273646
0.453970 0.021376 0.281673
0.547783 0.025465 0.295424
0.676035 0.031156 0.315110
0.821498 0.037686 0.334933
0.004793 0.101305 0.323187
0.112475 0.103562 0.298423
0.226292 0.088410 0.301782
0.347601 0.065887 0.315807
0.468910 0.049284 0.324110
0.602456 0.028074 0.334732
0.698877 0.032254 0.333207
0.830241 0.038083 0.337070
0.979779 0.044826 0.349173
0.005815 0.190097 0.345297
0.091647 0.201754 0.319526
0.204899 0.200640 0.298165
0.321401 0.181078 0.304683
0.440589 0.164841 0.307844
0.570076 0.146499 0.311965
0.716577 0.121962 0.314165
0.926373 0.086408 0.321019
0.999997 0.047909 0.328054
0.007631 0.285435 0.364264
0.072085 0.307225 0.342705
0.187092 0.303531 0.322152
0.302647 0.302646 0.302669
0.423788 0.285281 0.299665
0.552284 0.268023 0.298324
0.697259 0.247636 0.296876
0.899837 0.215469 0.294056
0.999997 0.173537 0.289480
0.009905 0.386664 0.371956
0.041185 0.427329 0.353539
0.160755 0.424247 0.327554
0.279835 0.422018 0.304179
0.416280 0.424948 0.304915
0.543068 0.402455 0.295760
0.686639 0.385180 0.291781
0.887187 0.354753 0.284963
0.999997 0.316483 0.277457
0.012850 0.503761 0.375207
0.014177 0.552453 0.355080
0.132571 0.549996 0.324778
0.255772 0.548774 0.307568
0.395345 0.554710 0.307082
0.537895 0.555991 0.311539
0.677132 0.519873 0.291476
0.881679 0.498830 0.287557
0.999997 0.465259 0.277335
0.016344 0.633417 0.374063
0.017763 0.680599 0.352853
0.101550 0.695125 0.330348
0.228061 0.692470 0.311917
0.363469 0.692133 0.300566
0.508124 0.697947 0.308014
0.669808 0.697595 0.312244
0.865748 0.645789 0.282248
0.999996 0.618064 0.273857
0.021608 0.817030 0.371225
0.023118 0.865508 0.357508
0.054826 0.902420 0.342433
0.188998 0.896941 0.321026
0.321751 0.892973 0.302717
0.464529 0.891675 0.298889
0.619194 0.890393 0.298084
0.839121 0.880810 0.294547
0.999996 0.817240 0.255471
0.027589 1.000000 0.406933
0.027803 1.000000 0.379161
0.028108 1.000000 0.346049
0.124498 1.000000 0.321667
0.259143 1.000000 0.296034
0.397695 1.000000 0.278732
0.553138 0.999999 0.271151
0.756188 0.999998 0.252447
0.999996 0.999997 0.222359
0.030566 0.009429 0.337866
0.127978 0.009841 0.313254
0.211949 0.012450 0.318550
0.291173 0.015334 0.324458
0.366949 0.018278 0.329128
0.445960 0.021559 0.339749
0.533242 0.025251 0.349287
0.652749 0.030423 0.363526
0.800106 0.036953 0.387485
0.006426 0.096742 0.419502
0.111362 0.097214 0.396157
0.221898 0.080520 0.390253
0.343817 0.061583 0.410687
0.473640 0.033186 0.425399
0.578393 0.027799 0.423416
0.670191 0.031507 0.409914
0.800030 0.037075 0.410786
0.951963 0.043774 0.420355
0.006701 0.181369 0.439903
0.087024 0.195879 0.414239
0.200993 0.192125 0.393198
0.314474 0.175431 0.394635
0.439475 0.149994 0.405929
0.564034 0.131545 0.410919
0.707499 0.106566 0.413974
0.916760 0.070584 0.424780
0.999998 0.048092 0.430854
0.008090 0.274052 0.463570
0.068545 0.295018 0.439035
0.181156 0.291721 0.415782
0.297643 0.293186 0.396054
0.418814 0.270769 0.401030
0.542443 0.252138 0.402421
0.687372 0.230500 0.405139
0.891308 0.194533 0.405432
0.999997 0.147763 0.404014
0.010027 0.373877 0.481485
0.043429 0.409110 0.462977
0.163700 0.404226 0.441585
0.280126 0.402730 0.422528
0.403311 0.403309 0.403334
0.529380 0.383778 0.398820
0.673532 0.363299 0.396075
0.875515 0.331880 0.391165
0.999997 0.291672 0.385445
0.012240 0.475135 0.486368
0.013522 0.529641 0.475215
0.135593 0.530404 0.452878
0.254247 0.530570 0.429197
0.379599 0.528968 0.405059
0.523353 0.532523 0.406298
0.665948 0.506993 0.395634
0.867580 0.481236 0.389319
0.999997 0.442477 0.379891
0.015597 0.612253 0.496532
0.016924 0.662943 0.480464
0.099765 0.676936 0.454022
0.224171 0.672740 0.426329
0.352178 0.671594 0.408005
0.497474 0.676889 0.406328
0.657037 0.676873 0.409519
0.856365 0.632911 0.387458
0.999997 0.603521 0.378870
0.020525 0.798292 0.497433
0.021898 0.845381 0.478863
0.048144 0.882583 0.455868
0.181171 0.875944 0.432860
0.311635 0.872633 0.412445
0.450598 0.870068 0.397325
0.610619 0.871685 0.398915
0.829646 0.863169 0.395455
0.999997 0.804056 0.363031
0.026568 1.000000 0.510938
0.027086 1.000000 0.478589
0.027208 1.000000 0.460660
0.120013 1.000000 0.437346
0.254673 1.000000 0.412933
0.390615 1.000000 0.389650
0.544227 0.999999 0.374179
0.752161 0.999998 0.360205
0.999904 0.999997 0.333689
0.037219 0.011505 0.412025
0.129612 0.011336 0.379952
0.206990 0.013289 0.374871
0.289419 0.016219 0.387645
0.365454 0.019011 0.390545
0.436957 0.021772 0.391904
0.519371 0.025175 0.401732
0.631799 0.029905 0.412660
0.769954 0.035901 0.431186
0.008578 0.089509 0.521707
0.109897 0.089905 0.498941
0.219228 0.070709 0.488720
0.337332 0.053404 0.502729
0.472741 0.025022 0.528611
0.555856 0.027692 0.498521
0.645808 0.031171 0.486574
0.765239 0.036023 0.475575
0.917143 0.042583 0.483772
0.007999 0.171220 0.539087
0.081882 0.188845 0.512644
0.195745 0.181627 0.492260
0.305059 0.162613 0.483213
0.433098 0.142945 0.503372
0.563195 0.111952 0.511827
0.702708 0.088193 0.518879
0.912244 0.047543 0.529045
0.999998 0.048519 0.524881
0.008746 0.256916 0.558207
0.059299 0.285312 0.536173
0.173711 0.282764 0.512783
0.290060 0.280872 0.492659
0.408821 0.262102 0.493073
0.538369 0.233750 0.502596
0.677867 0.211914 0.506169
0.878415 0.176009 0.508522
0.999998 0.129895 0.512521
0.010410 0.358694 0.585018
0.040057 0.394018 0.564860
0.156621 0.388326 0.540128
0.270406 0.386937 0.517882
0.395576 0.390919 0.499024
0.521447 0.365909 0.502673
0.660303 0.343706 0.503026
0.862866 0.310303 0.503563
0.999998 0.266449 0.501978
0.012454 0.463767 0.602260
0.013431 0.512963 0.588818
0.134495 0.508750 0.566007
0.254628 0.507041 0.546813
0.378501 0.507209 0.528123
0.509102 0.509100 0.509143
0.650751 0.486302 0.503255
0.853511 0.456699 0.498650
0.999998 0.416583 0.491038
0.014819 0.572931 0.605328
0.016101 0.628443 0.595685
0.099735 0.650385 0.579772
0.224797 0.650567 0.559555
0.350333 0.652078 0.535479
0.481987 0.650765 0.510746
0.643090 0.653588 0.511038
0.845378 0.620581 0.498421
0.999998 0.586614 0.489466
0.019717 0.773861 0.625059
0.020968 0.822232 0.608595
0.049151 0.863478 0.590972
0.179386 0.856382 0.560654
0.307837 0.852185 0.532640
0.441489 0.850308 0.512760
0.599480 0.850032 0.502783
0.819011 0.844218 0.500955
0.999997 0.793558 0.477672
0.025668 0.999208 0.632675
0.026477 1.000000 0.610381
0.026553 1.000000 0.588881
0.119358 1.000000 0.559647
0.252690 1.000000 0.536287
0.387167 0.999999 0.512439
0.537925 0.999999 0.488973
0.749399 0.999998 0.474236
0.996304 0.999997 0.449505
0.044360 0.013534 0.485162
0.131169 0.012969 0.449334
0.203267 0.014372 0.436152
0.280080 0.016829 0.442958
0.360175 0.019743 0.454038
0.428245 0.022169 0.449553
0.502083 0.025022 0.450195
0.610803 0.029508 0.463838
0.741359 0.035046 0.478779
0.011600 0.079804 0.637508
0.107976 0.080856 0.615246
0.216070 0.058272 0.600996
0.327995 0.037672 0.603454
0.451699 0.025465 0.614778
0.537683 0.028074 0.581958
0.618524 0.030820 0.554813
0.737957 0.035534 0.548223
0.876142 0.041256 0.545051
0.009846 0.158205 0.648937
0.075978 0.178560 0.624783
0.190160 0.169954 0.605085
0.297324 0.147309 0.590529
0.420463 0.129044 0.602601
0.556559 0.102278 0.623676
0.705608 0.063580 0.634420
0.877806 0.042080 0.632577
0.999999 0.048183 0.608119
0.009968 0.240451 0.667629
0.047581 0.273914 0.644940
0.164311 0.270984 0.620741
0.280295 0.265322 0.601028
0.393470 0.243059 0.588731
0.528772 0.223236 0.610080
0.673472 0.187271 0.617223
0.868878 0.151976 0.622124
0.999999 0.104474 0.627330
0.010990 0.333912 0.689069
0.018329 0.378088 0.669888
0.142553 0.373082 0.646330
0.259405 0.374074 0.624848
0.383475 0.373508 0.604723
0.507119 0.352695 0.603291
0.653010 0.320421 0.613608
0.848370 0.287201 0.614984
0.999999 0.246520 0.620083
0.012821 0.443168 0.717268
0.013538 0.489708 0.701949
0.126653 0.488379 0.677627
0.243292 0.486502 0.655137
0.364112 0.486410 0.632800
0.497888 0.492666 0.614796
0.639475 0.463948 0.618262
0.837643 0.433596 0.619852
0.999999 0.392504 0.619321
0.015140 0.562173 0.737349
0.016102 0.611261 0.724654
0.099156 0.627008 0.705810
0.221899 0.623956 0.686433
0.348776 0.623971 0.667789
0.480401 0.625603 0.649251
0.628580 0.628578 0.628624
0.829144 0.597144 0.621119
0.999998 0.560612 0.614865
0.018726 0.726146 0.746506
0.019993 0.781064 0.738281
0.043232 0.829465 0.727509
0.180593 0.828489 0.707369
0.308402 0.828961 0.683232
0.439964 0.828747 0.655798
0.588495 0.827022 0.629402
0.809109 0.824198 0.623043
0.999998 0.785515 0.609052
0.024845 0.974853 0.767091
0.026081 1.000000 0.758195
0.026187 1.000000 0.741075
0.120747 1.000000 0.712161
0.253729 1.000000 0.681568
0.386298 0.999999 0.652899
0.534188 0.999999 0.626670
0.746547 0.999998 0.602671
0.994520 0.999997 0.581709
0.054645 0.015685 0.564432
0.131230 0.014983 0.532008
0.197072 0.015730 0.509364
0.260641 0.017241 0.498989
0.339911 0.020063 0.516920
0.417228 0.022886 0.527633
0.487298 0.025373 0.522324
0.575509 0.028684 0.516451
0.705699 0.034131 0.538914
0.017369 0.060775 0.800642
0.102896 0.063217 0.777785
0.212225 0.038100 0.764770
0.316292 0.023420 0.730302
0.408562 0.025281 0.688097
0.507592 0.028424 0.678867
0.591822 0.031033 0.650287
0.692851 0.034527 0.621389
0.832486 0.040157 0.625663
0.013295 0.137742 0.806578
0.066594 0.162050 0.783477
0.180746 0.150269 0.763245
0.286506 0.124115 0.744645
0.400719 0.099990 0.741000
0.538554 0.081831 0.765875
0.696819 0.042889 0.793312
0.821088 0.040905 0.736169
0.974395 0.046871 0.718715
0.012318 0.215441 0.820738
0.028523 0.258533 0.798430
0.151250 0.251758 0.775254
0.268043 0.244524 0.756486
0.377495 0.216173 0.736026
0.503611 0.195541 0.742635
0.659130 0.170348 0.769874
0.865812 0.113705 0.781398
1.000000 0.068416 0.796598
0.012501 0.301212 0.838424
0.012593 0.349202 0.820220
0.121527 0.352528 0.794694
0.241538 0.352466 0.773561
0.366692 0.348728 0.755130
0.482645 0.321611 0.737554
0.635753 0.302644 0.760933
0.841367 0.253189 0.772975
1.000000 0.212340 0.779234
0.013554 0.400976 0.861496
0.013951 0.447348 0.844040
0.098424 0.462225 0.822084
0.219489 0.460593 0.801410
0.345451 0.464986 0.780187
0.477274 0.464437 0.760504
0.615703 0.440571 0.754891
0.824628 0.398531 0.773968
0.999999 0.362305 0.778898
0.015660 0.530845 0.897813
0.016286 0.575113 0.881746
0.080953 0.594719 0.859621
0.203055 0.591698 0.837238
0.327384 0.591957 0.815389
0.459131 0.596366 0.796119
0.610637 0.603323 0.775796
0.812787 0.565465 0.782971
0.999999 0.531681 0.787918
0.019017 0.705257 0.929889
0.019948 0.753475 0.918673
0.039601 0.795712 0.905215
0.174292 0.790569 0.883809
0.305901 0.790615 0.866171
0.439111 0.791346 0.847710
0.589274 0.793955 0.827174
0.797147 0.797128 0.797193
0.999999 0.763496 0.792298
0.023625 0.918212 0.922626
0.024800 0.967193 0.934681
0.026097 1.000000 0.933094
0.122580 1.000000 0.915136
0.259193 0.999999 0.893715
0.392937 0.999999 0.867959
0.539331 0.999998 0.836574
0.744396 0.999997 0.793516
0.994399 0.999996 0.769807
0.070576 0.017348 0.628490
0.128743 0.016799 0.605633
0.184728 0.016737 0.566937
0.241507 0.017821 0.554563
0.301078 0.019407 0.549147
0.381919 0.022489 0.578002
0.463982 0.025571 0.594392
0.553781 0.028791 0.590045
0.658366 0.032819 0.591374
0.029913 0.031829 1.000000
0.095389 0.038298 0.974886
0.201332 0.024778 0.888460
0.283531 0.023969 0.793748
0.361840 0.024961 0.745470
0.450891 0.027463 0.734408
0.554378 0.031049 0.741384
0.660076 0.034466 0.714346
0.777905 0.038769 0.698478
0.019216 0.105744 0.997087
0.050451 0.138627 0.973115
0.165030 0.121689 0.951708
0.270882 0.092208 0.932759
0.385507 0.062925 0.923650
0.515117 0.033047 0.931449
0.649441 0.037197 0.920297
0.778944 0.040935 0.862193
0.908522 0.045284 0.815563
0.016302 0.180376 1.000000
0.015035 0.228366 0.983155
0.132453 0.224229 0.959933
0.247582 0.211915 0.939503
0.358071 0.182434 0.917882
0.476878 0.154861 0.909949
0.628643 0.133650 0.930627
0.851149 0.089367 0.968779
1.000000 0.052547 0.952057
0.015264 0.261737 1.000000
0.014822 0.311665 0.999239
0.096289 0.327381 0.975024
0.221061 0.323566 0.955510
0.345437 0.316104 0.936117
0.459589 0.284913 0.911536
0.598278 0.260301 0.912439
0.821516 0.229842 0.954023
1.000000 0.168210 0.970368
0.015096 0.353734 1.000000
0.015356 0.404088 1.000000
0.067816 0.434515 1.000000
0.192954 0.433766 0.978047
0.322670 0.436025 0.958762
0.456492 0.433887 0.941262
0.586498 0.401721 0.919169
0.804212 0.377962 0.952192
1.000000 0.323837 0.971055
0.015951 0.469214 1.000000
0.016515 0.517173 1.000000
0.038580 0.562279 1.000000
0.169013 0.558311 1.000000
0.298882 0.561408 0.990546
0.433970 0.568671 0.970544
0.587902 0.571417 0.953258
0.788816 0.541951 0.953063
1.000000 0.499575 0.982333
0.018880 0.668864 1.000000
0.019643 0.710643 1.000000
0.020620 0.760815 1.000000
0.156638 0.754146 1.000000
0.284798 0.753154 1.000000
0.417612 0.755732 1.000000
0.568935 0.762994 1.000000
0.781644 0.772882 0.980057
1.000000 0.738533 0.999195
0.023686 0.907240 1.000000
0.024617 0.949340 1.000000
0.025655 0.994293 1.000000
0.127630 1.000000 1.000000
0.262443 0.999999 1.000000
0.399133 0.999999 1.000000
0.550746 0.999998 1.000000
0.758191 0.999997 1.000000
0.999969 0.999965 1.000000
