luts/athena.cube
TITLE "athena"
LUT_3D_SIZE 33
0.000000 0.000000 0.000000
0.034119 0.001572 0.006058
0.061997 0.002868 0.011033
0.087937 0.004059 0.015642
0.112688 0.005203 0.020037
0.136584 0.006301 0.024295
0.159975 0.007385 0.028445
0.182924 0.008437 0.032535
0.205508 0.009490 0.036549
0.228152 0.010528 0.040577
0.250979 0.011581 0.044637
0.273975 0.012649 0.048757
0.297077 0.013701 0.053121
0.320347 0.014785 0.057562
0.343770 0.015853 0.062079
0.367024 0.016921 0.066703
0.390203 0.017989 0.071418
0.413442 0.019057 0.076210
0.436711 0.020125 0.081078
0.460042 0.021193 0.085977
0.483373 0.022276 0.090936
0.506735 0.023344 0.095987
0.530234 0.024427 0.101099
0.556601 0.025633 0.106746
0.586112 0.026991 0.113139
0.618324 0.028471 0.120190
0.652840 0.030042 0.127850
0.689172 0.031720 0.136045
0.725304 0.033368 0.144819
0.763467 0.035123 0.152679
0.807825 0.037228 0.150620
0.851283 0.039288 0.151368
0.891658 0.041150 0.157899
0.001144 0.034989 0.001145
0.033341 0.035157 0.000336
0.068970 0.031281 0.000810
0.101411 0.028458 0.001802
0.132814 0.025558 0.003130
0.163713 0.022751 0.004718
0.194201 0.019943 0.006580
0.224536 0.017104 0.008747
0.255115 0.014083 0.011448
0.280307 0.013366 0.017888
0.302189 0.014296 0.024221
0.324452 0.015288 0.030035
0.346989 0.016295 0.035590
0.369771 0.017317 0.041037
0.392765 0.018355 0.046394
0.415791 0.019392 0.051765
0.438390 0.020415 0.057259
0.461095 0.021452 0.062752
0.483877 0.022474 0.068246
0.506735 0.023527 0.073740
0.529654 0.024565 0.079218
0.552619 0.025602 0.084742
0.575645 0.026655 0.090312
0.601692 0.027845 0.096340
0.631126 0.029188 0.103115
0.663292 0.030668 0.110563
0.697792 0.032239 0.118604
0.734246 0.033902 0.127181
0.770364 0.035550 0.136428
0.807474 0.037244 0.146210
0.851984 0.039380 0.143632
0.897411 0.041577 0.138841
0.937266 0.043423 0.145678
0.002090 0.063996 0.002091
0.026245 0.067918 0.001023
0.061585 0.065049 0.000612
0.095323 0.060380 0.000872
0.126710 0.057694 0.001482
0.156984 0.055222 0.002292
0.186495 0.052185 0.003314
0.215487 0.049164 0.004474
0.244586 0.046356 0.005802
0.274173 0.043533 0.007283
0.304294 0.040634 0.008947
0.334995 0.037627 0.010824
0.366398 0.034560 0.012915
0.398396 0.031325 0.015265
0.431096 0.027892 0.018012
0.464849 0.024092 0.021477
0.490255 0.023405 0.030114
0.512213 0.024290 0.038201
0.534323 0.025236 0.045694
0.556510 0.026182 0.052866
0.578803 0.027159 0.059748
0.601142 0.028150 0.066478
0.623558 0.029142 0.073131
0.648842 0.030271 0.080166
0.678123 0.031583 0.087796
0.710182 0.033033 0.096067
0.744592 0.034589 0.104887
0.780984 0.036237 0.114211
0.817285 0.037885 0.124237
0.853953 0.039532 0.134888
0.897517 0.041623 0.134019
0.943995 0.043911 0.127489
0.984661 0.045849 0.129977
0.002991 0.091371 0.002991
0.018967 0.098558 0.002122
0.054749 0.095918 0.001115
0.088685 0.093797 0.000887
0.121110 0.088929 0.001055
0.151780 0.084702 0.001513
0.181673 0.082978 0.002109
0.210833 0.080689 0.002872
0.239245 0.077500 0.003758
0.267932 0.074356 0.004781
0.297046 0.071197 0.005956
0.326862 0.068069 0.007253
0.357761 0.065124 0.008704
0.389164 0.062118 0.010306
0.421040 0.059005 0.012046
0.453389 0.055755 0.013939
0.486074 0.052184 0.016045
0.519171 0.048232 0.018411
0.552848 0.044035 0.021051
0.587210 0.039549 0.024088
0.622443 0.034696 0.027766
0.653892 0.031339 0.035701
0.675682 0.032163 0.045635
0.699867 0.033140 0.055249
0.728585 0.034360 0.064847
0.760095 0.035718 0.074858
0.793939 0.037213 0.085265
0.829859 0.038800 0.095977
0.866313 0.040418 0.107239
0.902370 0.042004 0.119309
0.944468 0.044003 0.121294
0.991665 0.046383 0.112856
0.999996 0.048474 0.109866
0.003860 0.117845 0.003861
0.011673 0.128527 0.003510
0.049622 0.126146 0.001863
0.082047 0.124651 0.001329
0.115311 0.122118 0.001162
0.146760 0.117098 0.001269
0.176698 0.112427 0.001621
0.206072 0.109132 0.002125
0.235110 0.107300 0.002736
0.264178 0.105118 0.003468
0.293033 0.101777 0.004339
0.322330 0.098450 0.005331
0.352329 0.095337 0.006430
0.383030 0.092377 0.007636
0.414326 0.089325 0.008979
0.446218 0.085922 0.010460
0.478551 0.082488 0.012078
0.511114 0.078765 0.013818
0.544150 0.074843 0.015726
0.577643 0.070723 0.017817
0.611609 0.066374 0.020075
0.646033 0.061827 0.022579
0.681038 0.057035 0.025341
0.719841 0.051496 0.028760
0.764627 0.045606 0.033078
0.813744 0.039121 0.041136
0.846826 0.040326 0.056335
0.881861 0.041745 0.070190
0.918116 0.043255 0.083817
0.953609 0.044751 0.098146
0.993770 0.046612 0.104144
0.999996 0.049069 0.094103
0.999996 0.049725 0.081896
0.004700 0.143755 0.004701
0.005157 0.157397 0.005158
0.043274 0.154925 0.002809
0.077119 0.153140 0.001925
0.108948 0.153521 0.001559
0.141710 0.150271 0.001422
0.172365 0.145144 0.001514
0.201647 0.139985 0.001789
0.230609 0.135301 0.002217
0.259830 0.133042 0.002751
0.289371 0.131028 0.003393
0.319156 0.128739 0.004141
0.348819 0.125428 0.005011
0.379261 0.122422 0.005973
0.410222 0.119416 0.007057
0.441686 0.116394 0.008232
0.473653 0.113342 0.009499
0.505545 0.109512 0.010919
0.537879 0.105117 0.012491
0.570898 0.100952 0.014170
0.604483 0.096786 0.015971
0.638541 0.092406 0.017925
0.673027 0.087844 0.020046
0.711098 0.082625 0.022534
0.754556 0.077101 0.025540
0.802834 0.071043 0.029112
0.855402 0.064145 0.033446
0.911936 0.056058 0.038925
0.972850 0.046811 0.048036
0.999996 0.047940 0.068620
0.999996 0.049557 0.080477
0.999996 0.050076 0.066988
0.999996 0.053464 0.048830
0.005539 0.169299 0.005540
0.005981 0.182834 0.005982
0.036743 0.183185 0.003877
0.072892 0.182620 0.002688
0.103730 0.180117 0.002078
0.135697 0.182544 0.001819
0.168092 0.178592 0.001697
0.198000 0.173189 0.001759
0.226687 0.167284 0.001973
0.255755 0.162477 0.002355
0.285327 0.158525 0.002843
0.315204 0.156465 0.003424
0.345523 0.154390 0.004096
0.376362 0.152376 0.004874
0.407078 0.149293 0.005744
0.438329 0.146225 0.006722
0.470067 0.143143 0.007790
0.501943 0.139694 0.008950
0.534033 0.135956 0.010217
0.566442 0.131989 0.011591
0.599280 0.127518 0.013117
0.632728 0.122589 0.014781
0.667015 0.118132 0.016536
0.704796 0.113066 0.018597
0.747704 0.107573 0.021054
0.795434 0.101836 0.023939
0.847238 0.095411 0.027297
0.902277 0.087782 0.031280
0.960765 0.079496 0.035935
0.999996 0.069302 0.041826
0.999996 0.057568 0.046968
0.999996 0.067258 0.043611
0.999996 0.079083 0.040422
0.006363 0.194598 0.006364
0.006805 0.208057 0.006807
0.030792 0.211505 0.005052
0.067078 0.210468 0.003542
0.099992 0.209567 0.002734
0.130708 0.208972 0.002292
0.162279 0.210666 0.002079
0.194536 0.207095 0.001957
0.223910 0.201433 0.002003
0.252231 0.194323 0.002187
0.281604 0.189394 0.002523
0.311496 0.184450 0.002981
0.341846 0.181887 0.003516
0.372806 0.180132 0.004142
0.404133 0.178285 0.004844
0.435674 0.176026 0.005653
0.467214 0.172883 0.006539
0.499090 0.169587 0.007531
0.531164 0.166001 0.008600
0.563528 0.162186 0.009775
0.596198 0.158158 0.011042
0.629233 0.153824 0.012431
0.662803 0.149291 0.013912
0.699928 0.143600 0.015713
0.742333 0.137771 0.017850
0.789772 0.132232 0.020292
0.841195 0.126052 0.023131
0.895640 0.118665 0.026443
0.953227 0.110593 0.030244
0.999996 0.101102 0.034730
0.999996 0.088666 0.038271
0.999996 0.094129 0.037157
0.999996 0.103513 0.035417
0.007187 0.219776 0.007188
0.007629 0.233173 0.007631
0.024628 0.239811 0.006349
0.061219 0.238010 0.004488
0.096284 0.238605 0.003482
0.126649 0.236957 0.002872
0.157472 0.237873 0.002521
0.188860 0.238743 0.002323
0.221102 0.235767 0.002232
0.250522 0.229815 0.002263
0.278628 0.221789 0.002416
0.308093 0.216158 0.002722
0.338443 0.211260 0.003134
0.369449 0.207644 0.003654
0.400807 0.205874 0.004234
0.432500 0.204012 0.004906
0.464574 0.202027 0.005639
0.496755 0.199464 0.006479
0.528875 0.196015 0.007395
0.561239 0.192353 0.008402
0.593878 0.188462 0.009501
0.626761 0.184205 0.010692
0.660072 0.179642 0.011989
0.696907 0.174591 0.013501
0.738625 0.168899 0.015332
0.785530 0.163146 0.017485
0.836358 0.156555 0.019988
0.890497 0.149383 0.022857
0.947490 0.141371 0.026124
0.999995 0.132276 0.029909
0.999995 0.120451 0.032671
0.999995 0.121137 0.032564
0.999995 0.127653 0.031618
0.008026 0.245274 0.008028
0.008469 0.258640 0.008470
0.017929 0.268589 0.007829
0.055146 0.265751 0.005541
0.090760 0.266423 0.004306
0.123277 0.266453 0.003543
0.153062 0.265217 0.003055
0.184038 0.267277 0.002766
0.215426 0.267552 0.002583
0.248218 0.265063 0.002508
0.277865 0.258853 0.002539
0.305819 0.250049 0.002661
0.335422 0.243548 0.002936
0.366337 0.238848 0.003318
0.397679 0.234194 0.003807
0.429417 0.232089 0.004372
0.461492 0.230181 0.004998
0.493872 0.228105 0.005700
0.526662 0.226015 0.006479
0.559377 0.223009 0.007334
0.592032 0.219255 0.008281
0.624869 0.215150 0.009319
0.657935 0.210481 0.010449
0.694496 0.205353 0.011777
0.735909 0.199570 0.013395
0.782524 0.194427 0.015257
0.833276 0.189041 0.017394
0.886744 0.181366 0.019943
0.942820 0.172606 0.022874
0.999995 0.163756 0.026170
0.999995 0.152388 0.028474
0.999996 0.149077 0.028856
0.999995 0.152891 0.028413
0.008880 0.271229 0.008882
0.009323 0.284581 0.009325
0.009765 0.298207 0.009767
0.049545 0.294697 0.006686
0.085023 0.294560 0.005237
0.119584 0.296056 0.004306
0.149873 0.295232 0.003696
0.179735 0.295094 0.003285
0.210467 0.297276 0.003026
0.242465 0.297139 0.002859
0.275988 0.295093 0.002798
0.305941 0.288654 0.002814
0.334049 0.279300 0.002921
0.363575 0.271762 0.003166
0.394825 0.267001 0.003532
0.426488 0.262286 0.003990
0.458577 0.258884 0.004525
0.490911 0.256777 0.005121
0.523519 0.254488 0.005793
0.556677 0.252382 0.006525
0.590384 0.250414 0.007335
0.623450 0.246782 0.008220
0.656257 0.242021 0.009213
0.692573 0.236786 0.010388
0.733696 0.230912 0.011823
0.779930 0.225510 0.013487
0.830392 0.220047 0.015395
0.884027 0.213822 0.017593
0.939647 0.205657 0.020142
0.998545 0.196059 0.023103
0.999995 0.184829 0.025118
0.999995 0.178252 0.025743
0.999995 0.179702 0.025606
0.009750 0.297642 0.009752
0.010177 0.310979 0.010179
0.010620 0.324560 0.010622
0.043717 0.324193 0.007937
0.079056 0.323049 0.006244
0.114045 0.324605 0.005161
0.146638 0.325582 0.004414
0.176286 0.324895 0.003895
0.206347 0.325719 0.003530
0.237292 0.327901 0.003316
0.270174 0.327473 0.003149
0.304263 0.325566 0.003089
0.334598 0.318897 0.003089
0.362949 0.309254 0.003196
0.392307 0.300541 0.003410
0.423863 0.295704 0.003746
0.455861 0.290912 0.004174
0.488104 0.285998 0.004694
0.520513 0.283511 0.005259
0.553503 0.281207 0.005900
0.587042 0.279070 0.006618
0.621100 0.277087 0.007381
0.655006 0.274218 0.008221
0.691063 0.268877 0.009259
0.731910 0.262864 0.010526
0.777748 0.257173 0.012007
0.827935 0.251603 0.013732
0.881464 0.245499 0.015701
0.937053 0.237945 0.017976
0.995616 0.229599 0.020540
0.999995 0.218307 0.022310
0.999995 0.208770 0.023058
0.999995 0.207748 0.023134
0.010620 0.324529 0.010622
0.011062 0.337851 0.011065
0.011505 0.351386 0.011507
0.037476 0.354284 0.009310
0.073014 0.352117 0.007342
0.108185 0.353368 0.006076
0.142442 0.355520 0.005207
0.173006 0.355535 0.004582
0.202486 0.355138 0.004109
0.233309 0.356847 0.003805
0.264956 0.359472 0.003592
0.298617 0.358586 0.003440
0.332996 0.356434 0.003379
0.363788 0.349721 0.003380
0.392384 0.339817 0.003472
0.421544 0.329808 0.003670
0.453420 0.324925 0.003976
0.485525 0.319828 0.004388
0.517751 0.314303 0.004877
0.550451 0.310534 0.005427
0.583807 0.308215 0.006038
0.617697 0.306048 0.006725
0.651771 0.303424 0.007473
0.689155 0.300357 0.008359
0.730476 0.295442 0.009458
0.775917 0.289430 0.010786
0.825814 0.283723 0.012344
0.879206 0.277650 0.014114
0.934748 0.270265 0.016160
0.993205 0.262115 0.018480
0.999995 0.251877 0.019991
0.999995 0.241226 0.020677
0.999995 0.237152 0.020952
0.011520 0.351859 0.011522
0.011947 0.365165 0.011950
0.012390 0.378654 0.012392
0.030792 0.384971 0.010821
0.067398 0.382513 0.008533
0.102128 0.382513 0.007084
0.136476 0.384451 0.006077
0.169298 0.386191 0.005330
0.199007 0.385855 0.004781
0.228991 0.385855 0.004354
0.260882 0.388647 0.004080
0.293276 0.391714 0.005118
0.327426 0.389852 0.006767
0.362049 0.387319 0.007683
0.393452 0.381063 0.003685
0.422307 0.370900 0.003747
0.451665 0.360539 0.003930
0.483250 0.354497 0.004221
0.515447 0.349063 0.004603
0.547872 0.343265 0.005061
0.580664 0.337833 0.005611
0.614386 0.335498 0.006206
0.648505 0.332889 0.006863
0.685936 0.329868 0.007657
0.728004 0.326282 0.008619
0.774361 0.322252 0.009779
0.823983 0.316393 0.011169
0.877161 0.310243 0.012772
0.932704 0.303041 0.014619
0.991099 0.295060 0.016725
0.999995 0.284806 0.018068
0.999995 0.273880 0.018679
0.999995 0.268234 0.018999
0.012420 0.379630 0.012423
0.012863 0.392936 0.012865
0.013305 0.406364 0.013308
0.023422 0.416267 0.012515
0.061493 0.413428 0.009799
0.095994 0.412177 0.008167
0.130494 0.413901 0.007008
0.164201 0.416159 0.006154
0.195284 0.416907 0.005514
0.225375 0.416800 0.005010
0.256380 0.417807 0.004629
0.289004 0.421027 0.005561
0.322040 0.424017 0.010627
0.356647 0.421407 0.011299
0.391560 0.418691 0.011727
0.423421 0.412542 0.006661
0.452703 0.402563 0.004037
0.482182 0.392003 0.004206
0.513433 0.384542 0.004465
0.545827 0.378818 0.004832
0.578451 0.372730 0.005275
0.611319 0.366306 0.005794
0.645286 0.362812 0.006375
0.682777 0.359806 0.007077
0.724876 0.356250 0.007948
0.771355 0.352541 0.008986
0.822244 0.349307 0.010192
0.875269 0.343233 0.011643
0.930842 0.336214 0.013307
0.989207 0.328385 0.015215
0.999995 0.318162 0.016451
0.999995 0.306824 0.016970
0.999995 0.300477 0.017275
0.013351 0.407844 0.013354
0.013778 0.421135 0.013781
0.014221 0.434547 0.014224
0.014679 0.448311 0.014682
0.055313 0.444863 0.011173
0.090165 0.443030 0.009327
0.124452 0.443885 0.008015
0.158235 0.445930 0.007039
0.191332 0.448264 0.006307
0.221606 0.448203 0.005712
0.252245 0.448325 0.005240
0.284335 0.450416 0.005225
0.317523 0.453528 0.010811
0.351413 0.456213 0.015343
0.386280 0.453390 0.015572
0.421513 0.450506 0.015726
0.454030 0.444540 0.011652
0.483662 0.434973 0.004343
0.513173 0.423956 0.004481
0.544027 0.415028 0.004726
0.576605 0.409016 0.005077
0.609397 0.402623 0.005489
0.642585 0.395787 0.005993
0.679649 0.390186 0.006620
0.721794 0.386646 0.007383
0.768181 0.382831 0.008315
0.818795 0.379336 0.009429
0.873117 0.375888 0.010697
0.929102 0.369769 0.012208
0.987452 0.362063 0.013933
0.999995 0.351900 0.015047
0.999995 0.340501 0.015490
0.999995 0.333131 0.015795
0.014282 0.436485 0.014285
0.014725 0.449761 0.014727
0.015167 0.463158 0.015170
0.015610 0.476845 0.015612
0.048782 0.476784 0.012638
0.084336 0.474769 0.010548
0.118348 0.474342 0.009098
0.152208 0.476204 0.008000
0.185503 0.478492 0.007162
0.217593 0.479912 0.006475
0.248384 0.480049 0.005942
0.279559 0.480339 0.005500
0.312610 0.483055 0.010353
0.346561 0.486609 0.015755
0.380985 0.488654 0.019586
0.416218 0.485694 0.019723
0.452138 0.482978 0.020441
0.485173 0.477103 0.016703
0.514928 0.467596 0.006053
0.544530 0.456335 0.004771
0.574957 0.445912 0.005001
0.607596 0.439427 0.005322
0.640540 0.432484 0.005719
0.677101 0.424870 0.006254
0.718742 0.417454 0.006956
0.765038 0.413533 0.007781
0.815377 0.409748 0.008773
0.869425 0.406009 0.009934
0.926752 0.402438 0.011278
0.985774 0.396045 0.012835
0.999995 0.386004 0.013842
0.999995 0.374530 0.014224
0.999995 0.366197 0.014513
0.015243 0.465523 0.015246
0.015671 0.478783 0.015674
0.016113 0.492150 0.016116
0.016555 0.505761 0.016559
0.041901 0.509195 0.014209
0.078186 0.506997 0.011875
0.112046 0.505562 0.010243
0.146180 0.507149 0.009023
0.179689 0.509331 0.008077
0.213213 0.511833 0.007315
0.244509 0.512291 0.006690
0.275637 0.512337 0.007316
0.307299 0.512688 0.008964
0.341190 0.516074 0.014458
0.375538 0.519706 0.019692
0.410511 0.521064 0.023080
0.446446 0.518302 0.023737
0.483037 0.515769 0.024898
0.516622 0.509986 0.021449
0.546362 0.500083 0.010891
0.576208 0.489019 0.005062
0.605841 0.476675 0.005261
0.638557 0.469610 0.005582
0.674857 0.461889 0.006010
0.716117 0.453237 0.006590
0.761894 0.444600 0.007354
0.811959 0.440510 0.008239
0.865717 0.436481 0.009293
0.922952 0.432850 0.010515
0.983256 0.428837 0.011919
0.999995 0.420429 0.012820
0.999995 0.408832 0.013140
0.999995 0.399616 0.013415
0.016159 0.494897 0.016894
0.016632 0.508203 0.016635
0.017074 0.521539 0.017078
0.017517 0.535059 0.017520
0.034546 0.542093 0.015949
0.071839 0.539636 0.013264
0.106049 0.538095 0.011479
0.139833 0.538476 0.010121
0.173708 0.540658 0.009054
0.207552 0.543191 0.008200
0.240724 0.545052 0.009391
0.271776 0.544854 0.009956
0.303195 0.544793 0.010566
0.335681 0.545907 0.012856
0.370014 0.549400 0.018182
0.404744 0.553093 0.023386
0.440312 0.553764 0.026423
0.476902 0.551170 0.027492
0.514135 0.548774 0.029033
0.548284 0.543098 0.025845
0.577902 0.532722 0.014767
0.607459 0.521216 0.005353
0.636985 0.508017 0.005536
0.672614 0.499288 0.005872
0.713615 0.490499 0.006346
0.759163 0.481069 0.006972
0.808526 0.471638 0.007797
0.861993 0.467305 0.008744
0.919107 0.463581 0.009859
0.979350 0.459553 0.011141
0.999995 0.453480 0.011981
0.999995 0.443394 0.012225
0.999995 0.433368 0.012469
0.017059 0.525491 0.020496
0.017639 0.538660 0.017642
0.018051 0.551493 0.018054
0.018478 0.564707 0.018482
0.026382 0.575556 0.017902
0.065231 0.572687 0.014744
0.099885 0.571024 0.012776
0.133134 0.570092 0.011281
0.167360 0.572244 0.010107
0.201510 0.574777 0.009146
0.235750 0.577340 0.010505
0.267946 0.577890 0.012916
0.299273 0.577646 0.012993
0.330966 0.577508 0.013161
0.364322 0.579431 0.016381
0.399037 0.582985 0.021616
0.434132 0.586693 0.026774
0.470311 0.586678 0.029506
0.507527 0.584206 0.030925
0.545293 0.581887 0.032681
0.579565 0.576012 0.028973
0.608939 0.565010 0.016996
0.638740 0.553351 0.005643
0.671103 0.538550 0.005842
0.711051 0.528082 0.006193
0.756508 0.518728 0.006728
0.805688 0.508413 0.007416
0.858209 0.498418 0.008301
0.915201 0.494603 0.009309
0.975382 0.490559 0.010485
0.999995 0.484593 0.011310
0.999995 0.476536 0.011477
0.999995 0.467411 0.011676
0.017990 0.556589 0.024021
0.018661 0.570048 0.018665
0.019073 0.582850 0.019077
0.019500 0.595713 0.019504
0.019928 0.608973 0.019931
0.058487 0.606272 0.016300
0.093522 0.604319 0.014134
0.126863 0.603053 0.012502
0.160661 0.604089 0.011221
0.195101 0.606577 0.010153
0.229692 0.609384 0.009421
0.264116 0.611383 0.016136
0.295352 0.610986 0.015755
0.326938 0.610666 0.015450
0.358890 0.610422 0.015191
0.393147 0.613198 0.019541
0.428197 0.616738 0.024683
0.463612 0.620431 0.029765
0.500539 0.619805 0.032390
0.538183 0.617318 0.033841
0.575949 0.614709 0.034909
0.610510 0.608742 0.030973
0.640067 0.597358 0.018614
0.672736 0.584281 0.005949
0.709098 0.567313 0.006163
0.753837 0.556708 0.006576
0.802926 0.546439 0.007156
0.855142 0.535055 0.007920
0.911203 0.525884 0.008852
0.971323 0.521810 0.009921
0.999995 0.515920 0.010745
0.999995 0.507924 0.010882
0.999995 0.500203 0.011020
0.018921 0.588099 0.027500
0.019561 0.601512 0.022419
0.020111 0.614573 0.020130
0.020538 0.627391 0.020542
0.020965 0.640331 0.020969
0.051941 0.640666 0.017948
0.087326 0.638316 0.015553
0.120683 0.636714 0.013799
0.153566 0.636179 0.012396
0.188311 0.638621 0.011221
0.223161 0.641382 0.010261
0.257967 0.643671 0.015388
0.291400 0.644770 0.018746
0.322909 0.644297 0.018075
0.354770 0.643900 0.017480
0.387196 0.643870 0.017420
0.422336 0.647363 0.022929
0.457890 0.650995 0.028285
0.493855 0.654718 0.033550
0.531133 0.653192 0.035367
0.568777 0.650415 0.036115
0.606543 0.647500 0.036497
0.641440 0.641411 0.032271
0.673865 0.628654 0.018309
0.710731 0.613563 0.006270
0.751320 0.595420 0.006530
0.800088 0.584693 0.006989
0.852212 0.573324 0.007630
0.907800 0.561910 0.008455
0.967142 0.553289 0.009448
0.999995 0.547475 0.010257
0.999995 0.539510 0.010364
0.999995 0.531667 0.010486
0.019897 0.619639 0.030460
0.020507 0.633357 0.026203
0.021164 0.646724 0.021183
0.021591 0.659450 0.021595
0.022003 0.672176 0.022007
0.045090 0.675640 0.019703
0.081024 0.672863 0.017049
0.114487 0.670925 0.015142
0.146821 0.669460 0.013632
0.181139 0.670954 0.012366
0.216234 0.673640 0.011298
0.251345 0.676204 0.013710
0.286562 0.678447 0.020119
0.318896 0.678523 0.020882
0.350772 0.678111 0.020395
0.383015 0.677760 0.019983
0.416447 0.678644 0.021449
0.451969 0.682047 0.026698
0.487874 0.685541 0.031841
0.524160 0.689096 0.036877
0.561590 0.686548 0.037580
0.599219 0.683466 0.037626
0.637061 0.680230 0.037321
0.674903 0.672967 0.031676
0.711936 0.658806 0.016250
0.752724 0.641945 0.006622
0.797097 0.623207 0.006928
0.849130 0.611839 0.007447
0.904519 0.600195 0.008135
0.963221 0.588293 0.009036
0.999995 0.579245 0.009845
0.999995 0.571325 0.009937
0.999995 0.563345 0.010044
0.020965 0.653575 0.032551
0.021560 0.667186 0.028507
0.022216 0.680935 0.023792
0.022720 0.694225 0.022724
0.023147 0.707241 0.023152
0.037109 0.714352 0.021779
0.073990 0.711041 0.018758
0.107636 0.708737 0.016683
0.139955 0.706951 0.015051
0.172884 0.706433 0.013663
0.208253 0.709026 0.012488
0.243715 0.711910 0.011497
0.279055 0.714046 0.018120
0.314197 0.716014 0.023309
0.346103 0.715572 0.022913
0.378345 0.715175 0.022547
0.410923 0.714839 0.022242
0.445148 0.716273 0.024638
0.480992 0.719508 0.029613
0.517186 0.722804 0.034466
0.553732 0.726130 0.039213
0.591162 0.723048 0.039045
0.628837 0.719614 0.038359
0.670325 0.715860 0.037643
0.712943 0.707406 0.031128
0.753700 0.691766 0.013245
0.797570 0.672784 0.007004
0.845544 0.653893 0.007356
0.900644 0.641914 0.007921
0.959040 0.629706 0.008670
0.999995 0.616461 0.009464
0.999995 0.606146 0.009555
0.999995 0.598044 0.009647
0.022186 0.691784 0.034794
0.022766 0.705273 0.030934
0.023391 0.718869 0.026554
0.023971 0.732251 0.023976
0.024398 0.745282 0.024403
0.024810 0.757932 0.024815
0.065170 0.753797 0.020818
0.099533 0.751264 0.018499
0.132127 0.749250 0.016699
0.164201 0.747510 0.015204
0.198793 0.748792 0.013908
0.234483 0.751507 0.012794
0.270174 0.754070 0.015145
0.305957 0.756252 0.021447
0.340442 0.757534 0.024912
0.372684 0.757076 0.024592
0.405246 0.756664 0.024287
0.438145 0.756298 0.023998
0.472844 0.757854 0.026638
0.508946 0.760829 0.031262
0.545309 0.763805 0.035657
0.581824 0.766673 0.039671
0.619162 0.763698 0.039015
0.660529 0.759746 0.037994
0.707404 0.755472 0.037247
0.754051 0.745783 0.029389
0.798165 0.728860 0.008103
0.844644 0.707589 0.007402
0.895837 0.688362 0.007784
0.953913 0.675773 0.008395
0.999995 0.662117 0.009128
0.999995 0.647483 0.009220
0.999995 0.636878 0.009296
0.023514 0.733746 0.037282
0.024093 0.747113 0.033436
0.024704 0.760556 0.029210
0.025329 0.773969 0.025349
0.025756 0.786893 0.025761
0.026168 0.799513 0.026173
0.054245 0.800688 0.023275
0.089752 0.797773 0.020605
0.122926 0.795515 0.018606
0.155412 0.793592 0.016974
0.188065 0.792249 0.015556
0.223726 0.794614 0.014320
0.259523 0.797253 0.013253
0.295367 0.799588 0.016641
0.331409 0.801724 0.022684
0.365452 0.802411 0.024912
0.397998 0.801862 0.024455
0.430866 0.801358 0.023998
0.464054 0.800870 0.023510
0.498860 0.802105 0.025631
0.534902 0.804638 0.029538
0.571173 0.807186 0.033262
0.607749 0.809719 0.036803
0.648733 0.807369 0.036804
0.695426 0.802806 0.035614
0.747047 0.797907 0.034669
0.797204 0.787013 0.025056
0.843834 0.767679 0.007616
0.893197 0.745401 0.007815
0.947641 0.725655 0.008243
0.999995 0.711525 0.008869
0.999995 0.696724 0.008945
0.999995 0.682258 0.009006
0.024963 0.778974 0.039937
0.025528 0.792173 0.036107
0.026123 0.805448 0.031926
0.026809 0.818846 0.026814
0.027221 0.831587 0.027226
0.027633 0.844191 0.027638
0.040908 0.851531 0.026296
0.078323 0.848006 0.023046
0.112260 0.845442 0.020804
0.145219 0.843260 0.018973
0.177872 0.841307 0.017417
0.211839 0.841231 0.016045
0.247499 0.843381 0.014870
0.283312 0.845747 0.013833
0.319232 0.847959 0.015741
0.355274 0.849775 0.021464
0.389026 0.849928 0.022654
0.421894 0.849256 0.021938
0.455067 0.848600 0.021191
0.488545 0.847943 0.020382
0.523336 0.848721 0.021787
0.559347 0.850873 0.025251
0.595633 0.853024 0.028471
0.635427 0.855313 0.031707
0.681281 0.853177 0.031906
0.732673 0.847927 0.030259
0.788002 0.841960 0.027849
0.841057 0.829738 0.015230
0.890344 0.808207 0.008014
