luts/film.cube
TITLE "film"
LUT_3D_SIZE 5
0 0 0
0.236423 0 0
0.544015 0 0
0.808743 0 0
1 0 0
0 0.220737 0
0.233951 0.233951 0
0.54023 0.244205 0
0.776638 0.267918 0.0280003
0.966567 0.301122 0.0673991
0 0.540795 0
0.2804 0.541146 0.0350042
0.546914 0.546914 0.0556497
0.756481 0.563195 0.0895094
0.925582 0.586526 0.134279
0.122011 0.777188 0.122011
0.385748 0.773541 0.148531
0.607324 0.77911 0.17792
0.793256 0.793256 0.203021
0.955749 0.811887 0.221515
0.249348 0.975509 0.249348
0.469154 0.979126 0.240452
0.656916 0.992218 0.196628
0.84033 1 0.145312
1 1 0.0880293
0 0 0.245899
0.230259 0 0.230259
0.540887 0 0.212161
0.808423 0 0.215976
1 0 0.245747
0 0.223804 0.223804
0.24097 0.24097 0.24097
0.54023 0.251408 0.251408
0.773877 0.276036 0.276036
0.96144 0.308797 0.308797
0.000183108 0.540642 0.267506
0.288869 0.543221 0.288869
0.548943 0.548943 0.310201
0.754116 0.565332 0.342473
0.922347 0.588754 0.379828
0.132876 0.775158 0.373281
0.39202 0.772808 0.39202
0.609461 0.779461 0.413397
0.793606 0.793606 0.432731
0.956649 0.811826 0.445563
0.250172 0.976043 0.47393
0.461784 0.98117 0.461784
0.649317 0.991806 0.431571
0.833173 1 0.391363
1 1 0.332708
0 0 0.560891
0.224613 0 0.545815
0.538674 0 0.538674
0.807767 0 0.550729
1 0 0.574548
0 0.226001 0.539178
0.244373 0.244373 0.541817
0.539452 0.255818 0.539452
0.770779 0.281163 0.549874
0.955962 0.314519 0.568017
0.0069276 0.542199 0.542199
0.295964 0.544915 0.544915
0.551614 0.551614 0.551614
0.75375 0.568902 0.568902
0.92166 0.593164 0.593164
0.142626 0.776226 0.59469
0.399802 0.774456 0.600671
0.613397 0.782559 0.613397
0.796353 0.796353 0.628382
0.960235 0.813611 0.639933
0.250202 0.979553 0.667933
0.453391 0.98584 0.658549
0.642618 0.992935 0.642618
0.826932 0.998352 0.618357
1 1 0.585
0 0 0.815198
0.223529 0 0.802457
0.542107 0 0.798779
0.811612 0 0.811612
1 0 0.827848
0 0.23331 0.791669
0.25185 0.25185 0.782803
0.542809 0.264332 0.770275
0.771176 0.289616 0.771176
0.953613 0.32369 0.77847
0.0214389 0.546441 0.762295
0.305852 0.54963 0.753033
0.55729 0.55729 0.749874
0.756786 0.575357 0.756786
0.923491 0.599802 0.773678
0.154742 0.779934 0.779934
0.409354 0.778729 0.778729
0.618952 0.787411 0.787411
0.800778 0.800778 0.800778
0.96556 0.816068 0.816068
0.246921 0.985748 0.841062
0.444999 0.991577 0.83888
0.636301 0.995407 0.832715
0.821775 0.998535 0.821775
1 1 0.808179
0 0 1
0.226169 0 1
0.550103 0 1
0.81796 0 1
1 0 1
0 0.244129 0.995758
0.262531 0.262531 0.977417
0.549081 0.275685 0.959518
0.774151 0.30106 0.954208
0.953231 0.335149 0.953231
0.0432441 0.551965 0.942458
0.318303 0.556832 0.927108
0.565042 0.565042 0.915587
0.762509 0.583535 0.916808
0.927382 0.607889 0.927382
0.169131 0.785214 0.937346
0.419059 0.785122 0.931838
0.625818 0.793698 0.937697
0.806653 0.806653 0.951324
0.972335 0.819776 0.972335
0.239994 0.994522 0.994522
0.437949 0.998581 0.998581
0.630762 0.999847 0.999847
0.81828 1 1
1 1 1
