luts/film.cube
TITLE "film"
LUT_3D_SIZE 33
0 0 0
0.0192111 0.00108339 0.00108339
0.0357977 0.00149538 0.00149538
0.0587472 0 0
0.0865644 0 0
0.118624 0 0
0.154971 0 0
0.195193 0 0
0.236423 0 0
0.27718 0 0
0.317342 0 0
0.357397 0 0
0.39649 0 0
0.434623 0 0
0.471839 0 0
0.5084 0 0
0.544015 0 0
0.57879 0 0
0.613031 0 0
0.646677 0 0
0.680186 0 0
0.713191 0 0
0.745663 0 0
0.777447 0 0
0.808743 0 0
0.839841 0 0
0.870481 0 0
0.899825 0 0
0.928054 0 0
0.955474 0 0
0.982071 0 0
1 0 0
1 0 0
0.00047303 0.0186007 0.00047303
0.0179294 0.0179294 0
0.0334173 0.0180056 0
0.0549477 0.016434 0
0.0822766 0.0131685 0
0.117586 0.00726329 0
0.156115 0.00106813 0
0.198093 0 0
0.241093 0 0
0.283375 0 0
0.324559 0 0
0.36527 0 0
0.405051 0 0
0.444282 0 0
0.482322 0 0
0.519249 0 0
0.555215 0 0
0.590494 0 0
0.625574 0 0
0.659983 0 0
0.693599 0 0
0.726802 0 0
0.75964 0 0
0.791959 0 0
0.823636 0 0
0.85481 0 0
0.884825 0 0
0.913466 0 0
0.9411 0 0
0.967971 0 0
0.994049 0 0
1 0 0
1 0 0
0 0.0342718 0
0.0178531 0.0333257 0
0.0332952 0.0332952 0
0.0548867 0.0323339 0
0.0821088 0.0307164 0
0.114366 0.028275 0
0.151873 0.0246281 0
0.195239 0.0189975 0
0.243549 0.0119936 0
0.287816 0.00715648 0
0.330587 0.00314336 0
0.372442 0 0
0.413092 0 0
0.45275 0 0
0.491569 0 0
0.529351 0 0
0.565896 0 0
0.60148 0 0
0.637003 0 0
0.671702 0 0
0.705806 0 0
0.739193 0 0
0.771832 0 0
0.803861 0 0
0.834913 0.00161746 0
0.865034 0.00514229 0
0.894255 0.00883497 0
0.922499 0.0127871 0
0.949401 0.0173342 0
0.975586 0.022385 0.00178531
1 0.0273899 0.00643931
1 0.0324407 0.0111086
1 0.037644 0.0159152
0 0.0535744 0
0.0140993 0.0534676 0
0.0320897 0.0547189 0
0.0547799 0.0547799 0
0.0822003 0.0538949 0
0.114519 0.0525521 0
0.1514 0.0502632 0
0.192676 0.046952 0
0.235645 0.0430457 0
0.278782 0.0392615 0
0.322118 0.0361639 0
0.366171 0.0330053 0
0.411933 0.0290837 0
0.453727 0.0265965 0
0.493721 0.0249943 0
0.532372 0.0243839 0
0.569863 0.0249485 0
0.606119 0.0255436 0
0.641688 0.0263218 0
0.676249 0.0277256 0
0.709743 0.0299229 0
0.742443 0.0327001 0
0.774639 0.0361181 0
0.80557 0.0393378 0
0.835599 0.0428779 0
0.864927 0.0467231 0.00187686
0.893004 0.0509651 0.00534066
0.919905 0.0555428 0.00891127
0.945205 0.0607919 0.0127108
0.969162 0.0660105 0.0161746
0.991485 0.0717021 0.0194247
1 0.0778363 0.0220035
1 0.0851759 0.021912
0 0.0788739 0
0.00761425 0.07953 0
0.0288548 0.080827 0
0.0534676 0.0818341 0
0.0819409 0.0819409 0
0.114397 0.0809949 0
0.151217 0.0793317 0
0.192355 0.0770886 0
0.235035 0.0747845 0
0.277485 0.0727703 0
0.319219 0.0708171 0
0.360739 0.0692149 0
0.401495 0.0683452 0
0.441505 0.0679789 0
0.480491 0.0678416 0
0.518502 0.0684367 0
0.555108 0.0695201 0
0.590646 0.0713359 0
0.625071 0.0737011 0
0.658656 0.0762493 0
0.691493 0.0789502 0
0.723613 0.082414 0
0.754604 0.085832 0
0.784756 0.0894636 0
0.813993 0.0932631 0
0.8421 0.0972763 0
0.869566 0.101869 0.00161746
0.895674 0.106355 0.00550851
0.920409 0.111131 0.00962844
0.944076 0.116091 0.0141756
0.966644 0.121233 0.0192721
0.98851 0.126574 0.0244907
1 0.132311 0.0304417
0 0.108629 0
0 0.111208 0
0.0237583 0.111711 0
0.0502785 0.112886 0
0.0800488 0.113634 0
0.113664 0.113664 0
0.150973 0.112764 0
0.192111 0.111086 0
0.234958 0.109819 0
0.277378 0.108782 0
0.319112 0.10808 0
0.360296 0.107454 0
0.400427 0.107332 0
0.439796 0.108141 0
0.478126 0.109514 0
0.515236 0.111162 0
0.551278 0.113008 0
0.585901 0.115251 0
0.619654 0.117845 0
0.65301 0.120958 0
0.68513 0.124071 0
0.71632 0.12726 0
0.746792 0.130587 0
0.77612 0.134173 0
0.804685 0.137911 0.00311284
0.832227 0.14226 0.00759899
0.858839 0.146349 0.01178
0.884459 0.150637 0.0162814
0.90869 0.155215 0.0215
0.932052 0.159945 0.0273442
0.954376 0.164843 0.0337987
0.976028 0.170001 0.0432746
0.99704 0.174853 0.0525978
0 0.142184 0
0 0.146319 0
0.0160678 0.147555 0
0.0457465 0.14847 0
0.0768292 0.149371 0
0.111559 0.149905 0
0.150042 0.150042 0
0.19202 0.149462 0
0.23476 0.148501 0
0.277104 0.147982 0
0.31873 0.148119 0
0.359854 0.148684 0
0.399863 0.149798 0
0.438727 0.151095 0
0.476402 0.152575 0
0.513176 0.154391 0
0.548424 0.156634 0
0.582483 0.159091 0
0.615961 0.161913 0
0.648142 0.164858 0
0.679393 0.16788 0
0.709895 0.171069 0.000793469
0.739239 0.174456 0.0043946
0.767819 0.177966 0.00816358
0.795712 0.182025 0.0129244
0.822309 0.185946 0.0174411
0.848249 0.18996 0.0224613
0.87332 0.194064 0.0283513
0.897246 0.198093 0.0376135
0.920409 0.202899 0.0449683
0.942779 0.207645 0.0511177
0.964477 0.212497 0.0569467
0.985687 0.217472 0.0624552
0 0.180117 0
0 0.184771 0
0.000991836 0.188357 0
0.0395056 0.18819 0
0.0728466 0.18941 0
0.108827 0.190234 0
0.148196 0.190784 0
0.190738 0.190738 0
0.234058 0.190738 0
0.276463 0.19089 0
0.317968 0.191302 0
0.358816 0.192386 0
0.39826 0.193515 0
0.436591 0.194919 0
0.47396 0.196475 0
0.509789 0.198367 0
0.544411 0.200717 0
0.577981 0.203326 0
0.610239 0.205966 0
0.641703 0.208713 0
0.672114 0.211719 0.00202945
0.701778 0.214862 0.0055848
0.73051 0.218448 0.0100252
0.758541 0.222019 0.0146792
0.785641 0.225574 0.0197299
0.811673 0.229145 0.027039
0.837278 0.232944 0.0329442
0.862333 0.236866 0.0386358
0.886671 0.241276 0.0445563
0.90985 0.245731 0.0498054
0.932296 0.250278 0.0550088
0.954025 0.254948 0.0602121
0.975311 0.259724 0.0652476
0 0.220737 0
0 0.226032 0
0 0.230365 0
0.0342107 0.230106 0
0.0709392 0.231907 0
0.108354 0.233234 0
0.148257 0.233875 0
0.190845 0.233906 0
0.233951 0.233951 0
0.276234 0.234363 0
0.317754 0.235187 0
0.357748 0.235996 0
0.396551 0.237049 0
0.434226 0.238376 0
0.470893 0.239933 0
0.506096 0.241917 0
0.54023 0.244205 0
0.572656 0.246632 0
0.604212 0.249256 0
0.635019 0.251957 0.00209049
0.664988 0.254841 0.00590524
0.694026 0.258076 0.0106661
0.722454 0.261311 0.016144
0.749935 0.264454 0.0227665
0.776638 0.267918 0.0280003
0.802869 0.271489 0.0326238
0.828443 0.275196 0.0372778
0.853681 0.279286 0.0429236
0.877806 0.283284 0.0476234
0.901152 0.287449 0.0523384
0.923613 0.291798 0.0571908
0.945327 0.2963 0.0620127
0.966567 0.301122 0.0673991
0 0.262562 0
0 0.268605 0
0 0.273487 0
0.0347143 0.273503 0
0.07187 0.274784 0
0.109636 0.276066 0
0.14992 0.276738 0
0.192538 0.276783 0
0.235325 0.276799 0
0.277302 0.277302 0
0.317983 0.27779 0
0.357397 0.278538 0
0.395529 0.279545 0
0.432715 0.280735 0
0.468681 0.282597 0
0.503151 0.284428 0
0.536492 0.286473 0
0.568322 0.288808 0
0.599466 0.291295 0.00263981
0.629755 0.293996 0.00691234
0.659327 0.296727 0.0145571
0.688121 0.299565 0.0195621
0.716121 0.302617 0.0239567
0.743465 0.305791 0.0283207
0.770214 0.309102 0.0325628
0.796445 0.312688 0.0369726
0.821866 0.316457 0.0416419
0.846738 0.320119 0.0459907
0.870939 0.323873 0.0504768
0.894011 0.327901 0.0550088
0.916167 0.332097 0.0597696
0.937697 0.336645 0.0649577
0.958541 0.341207 0.0702983
0 0.305486 0
0 0.311711 0
0 0.316518 0
0.0372625 0.316091 0
0.0748913 0.317205 0
0.112764 0.318227 0
0.152789 0.318685 0
0.195773 0.318807 0
0.238117 0.318669 0
0.279255 0.318761 0
0.319158 0.319158 0
0.358083 0.319799 0
0.395575 0.320775 0
0.43238 0.32224 0
0.467445 0.323705 0
0.501549 0.325399 0
0.534157 0.327382 0.00138857
0.565759 0.329534 0.00517281
0.596155 0.331853 0.0111391
0.62623 0.334539 0.016556
0.655314 0.337194 0.0207065
0.68397 0.339895 0.0251164
0.71191 0.342809 0.0289464
0.738979 0.345892 0.0328679
0.76556 0.349203 0.0369421
0.791501 0.352712 0.0412451
0.816602 0.356161 0.045304
0.841016 0.359731 0.0493935
0.864759 0.363348 0.0542916
0.887419 0.367254 0.0590677
0.909468 0.371588 0.0644694
0.93048 0.375753 0.0696422
0.950805 0.380041 0.0748913
0 0.348196 0
0 0.353979 0
0 0.358236 0
0.0421302 0.357275 0
0.0798199 0.35816 0
0.117739 0.358923 0
0.158007 0.359411 0
0.2 0.359136 0
0.242008 0.358877 0
0.28249 0.358968 0
0.321675 0.359335 0
0.35993 0.35993 0
0.397024 0.36112 0
0.433005 0.362188 0
0.467613 0.363485 0.00239567
0.501167 0.365042 0.00561532
0.533165 0.366781 0.0107118
0.564584 0.3691 0.0154726
0.594705 0.37142 0.0191043
0.624338 0.373846 0.0226444
0.653269 0.376394 0.0261387
0.681315 0.379141 0.0296788
0.708949 0.381918 0.0336919
0.736004 0.385092 0.0381781
0.762081 0.388174 0.0419776
0.787274 0.391424 0.0462196
0.811917 0.39472 0.0505684
0.835843 0.398154 0.0549477
0.859159 0.40174 0.0598611
0.881849 0.4056 0.0652934
0.90338 0.409461 0.0703441
0.924132 0.413489 0.0753033
0.944228 0.417578 0.0804608
0 0.389395 0
0 0.394736 0
0.00427253 0.398245 0
0.0494392 0.396826 0
0.0869306 0.397726 0
0.124849 0.398398 0
0.164813 0.398398 0
0.206302 0.398001 0
0.247318 0.397757 0
0.287236 0.397757 0
0.325994 0.398322 0.000396735
0.363302 0.398947 0.00270085
0.399695 0.399695 0.00527962
0.434638 0.400671 0.0090486
0.468818 0.401907 0.0117342
0.501839 0.403449 0.0144198
0.533928 0.405478 0.0185397
0.564843 0.407431 0.021912
0.594553 0.409674 0.0251774
0.623713 0.412009 0.0285191
0.652171 0.414466 0.0318608
0.679789 0.41709 0.0355993
0.706981 0.420096 0.0401465
0.733333 0.422889 0.0442206
0.758999 0.425757 0.0487526
0.783886 0.428794 0.0531319
0.808103 0.431983 0.0574655
0.83154 0.435355 0.0621958
0.854582 0.439002 0.0670481
0.876844 0.442435 0.0720226
0.898253 0.446067 0.0768292
0.9187 0.449866 0.0820478
0.938613 0.453758 0.0873884
0 0.429191 0
0 0.434119 0
0.0134737 0.436606 0
0.0586709 0.435187 0
0.0955062 0.435935 0
0.133181 0.436286 0
0.172564 0.436194 0
0.213413 0.435752 0.0018616
0.253986 0.435355 0.00381476
0.293065 0.435386 0.00860609
0.33109 0.435645 0.0112764
0.367712 0.43621 0.0132143
0.40354 0.436973 0.0150912
0.438041 0.438041 0.0172122
0.471702 0.439277 0.0192111
0.504295 0.441062 0.0225376
0.535698 0.442756 0.0252842
0.565896 0.444709 0.028336
0.595193 0.446815 0.0319066
0.623987 0.448951 0.0359655
0.652155 0.451545 0.040177
0.679316 0.454017 0.0442054
0.705669 0.456641 0.0482185
0.731487 0.459342 0.0524147
0.756634 0.462165 0.0565499
0.781308 0.464988 0.0611276
0.805402 0.468254 0.0659495
0.828611 0.471366 0.0702983
0.851179 0.474571 0.0750286
0.873014 0.477913 0.0798047
0.894209 0.481254 0.0853132
0.914443 0.484855 0.0904707
0.934173 0.488792 0.0963607
0 0.467521 0
0 0.471977 0
0.0302129 0.472343 0
0.0692454 0.472129 0
0.105455 0.472648 0
0.142672 0.472877 0.00419623
0.181689 0.472557 0.00885023
0.222049 0.471977 0.0138552
0.261585 0.471855 0.0162814
0.299992 0.471839 0.0178225
0.337057 0.47216 0.0194553
0.373327 0.472663 0.0208438
0.408301 0.473426 0.0227207
0.442756 0.474479 0.025391
0.475746 0.475746 0.0281834
0.507713 0.477134 0.0308843
0.538537 0.478737 0.0338903
0.568002 0.480583 0.0374762
0.596826 0.482536 0.0412146
0.625162 0.484886 0.0453346
0.652644 0.487144 0.0493172
0.679438 0.489448 0.0534829
0.705409 0.49189 0.0574502
0.730816 0.494438 0.0613413
0.75555 0.497093 0.0656138
0.779889 0.50013 0.070634
0.803555 0.502876 0.0753948
0.826383 0.505776 0.0801099
0.848569 0.508782 0.0847334
0.870039 0.511925 0.0897688
0.890639 0.515267 0.0949111
0.910796 0.518929 0.101274
0.929839 0.522545 0.107012
0 0.504768 0
0.00221256 0.508797 0
0.0440375 0.507637 0
0.0801862 0.507942 0.00112917
0.115724 0.508354 0.00816358
0.152529 0.508125 0.0170443
0.191913 0.507683 0.021561
0.231662 0.507362 0.0240177
0.270573 0.507073 0.0252689
0.308034 0.507103 0.0267948
0.344717 0.507317 0.0281834
0.380087 0.507805 0.0300908
0.414832 0.508583 0.0325322
0.448218 0.509606 0.035172
0.480613 0.510643 0.0378882
0.511925 0.511925 0.0407721
0.541985 0.513451 0.0443427
0.571237 0.515114 0.0481117
0.599832 0.51725 0.052079
0.627436 0.519219 0.0557259
0.654185 0.521355 0.0594492
0.680446 0.523568 0.0634928
0.706127 0.525856 0.0676432
0.73138 0.528359 0.0726024
0.755749 0.530892 0.0769818
0.779416 0.533455 0.0815137
0.802457 0.536171 0.0860761
0.824887 0.538933 0.0912337
0.846662 0.541848 0.0963455
0.867811 0.545129 0.102358
0.887999 0.548379 0.108156
0.907408 0.551736 0.114427
0.926665 0.555077 0.120745
0 0.540795 0
0.0153506 0.543557 0
0.0577859 0.54197 0.00416571
0.0922408 0.542397 0.0125429
0.126909 0.542412 0.023743
0.164141 0.542535 0.0297246
0.203296 0.54197 0.0319829
0.242222 0.541482 0.0334936
0.2804 0.541146 0.0350042
0.317174 0.541115 0.0368811
0.353231 0.541329 0.0388495
0.388357 0.541833 0.0414588
0.422187 0.542351 0.0440986
0.455024 0.54313 0.0466926
0.486549 0.544182 0.0493629
0.517205 0.545388 0.0523232
0.546914 0.546914 0.0556497
0.575631 0.548669 0.0594034
0.603204 0.550454 0.0633249
0.630488 0.552239 0.0674449
0.656916 0.554147 0.071519
0.682704 0.556176 0.0754711
0.708003 0.558495 0.0800946
0.732555 0.560861 0.0845808
0.756481 0.563195 0.0895094
0.77969 0.565667 0.0944686
0.802167 0.568261 0.0998703
0.824048 0.570993 0.105318
0.845579 0.574014 0.111513
0.86659 0.576944 0.117418
0.886748 0.580026 0.123125
0.906355 0.583246 0.128618
0.925582 0.586526 0.134279
0 0.575509 0
0.0354009 0.57554 0.00770581
0.0715801 0.575204 0.0168002
0.104967 0.575235 0.0300603
0.140291 0.575616 0.0374151
0.177462 0.575296 0.0413977
0.216083 0.57467 0.043473
0.254322 0.57409 0.0453346
0.291722 0.573678 0.0471504
0.328038 0.573602 0.0490272
0.363256 0.573968 0.0516213
0.397436 0.574273 0.0535744
0.430426 0.574807 0.0558938
0.46244 0.575525 0.0582742
0.493492 0.57644 0.0611582
0.523644 0.577646 0.0646372
0.552621 0.57911 0.0687114
0.580575 0.580575 0.0724193
0.607813 0.582177 0.0761273
0.634379 0.583902 0.0801556
0.660288 0.585763 0.0842603
0.685908 0.58793 0.0892958
0.710552 0.58996 0.0941939
0.734478 0.592142 0.0992905
0.757794 0.594446 0.104616
0.780575 0.596872 0.10988
0.803128 0.599451 0.115831
0.825055 0.602197 0.121019
0.846403 0.604929 0.126238
0.867247 0.607782 0.131258
0.887602 0.610681 0.137026
0.907149 0.613764 0.142565
0.926375 0.617151 0.148409
0.0130312 0.608515 0.0130312
0.0528725 0.606867 0.0227665
0.0856031 0.606775 0.0374609
0.119554 0.607309 0.0454719
0.154559 0.607324 0.0506142
0.191608 0.606882 0.0536812
0.22974 0.606134 0.0557412
0.267445 0.605493 0.0573892
0.304021 0.605432 0.0596628
0.339422 0.605264 0.0614633
0.373571 0.605371 0.0634623
0.407126 0.605539 0.0661021
0.439551 0.605982 0.0685893
0.470695 0.606683 0.0715801
0.501244 0.607721 0.0748608
0.530526 0.608743 0.0782177
0.558801 0.609995 0.0817121
0.586221 0.611383 0.0857404
0.612909 0.612909 0.0899977
0.638972 0.614603 0.095079
0.664515 0.616541 0.100145
0.68925 0.618433 0.105318
0.713436 0.620462 0.110262
0.737133 0.622553 0.11545
0.760372 0.624781 0.120256
0.783123 0.627253 0.125353
0.805493 0.629847 0.130251
0.827176 0.632395 0.135348
0.848753 0.634913 0.140444
0.869383 0.637644 0.145785
0.889387 0.640543 0.151125
0.908873 0.643702 0.157244
0.927871 0.646845 0.163256
0.0315099 0.638636 0.0315099
0.0687724 0.6374 0.0455329
0.100816 0.637949 0.0538186
0.134051 0.638239 0.0598611
0.169482 0.638025 0.0636759
0.206546 0.637339 0.0661479
0.244083 0.63653 0.0677043
0.281102 0.636118 0.0702525
0.316655 0.635721 0.0724041
0.351232 0.635523 0.074403
0.384512 0.635554 0.0768597
0.417105 0.635721 0.0791638
0.448753 0.636088 0.0819257
0.479744 0.636896 0.0852674
0.509209 0.63772 0.088777
0.538079 0.638605 0.0928054
0.565698 0.63975 0.097261
0.592538 0.641093 0.101793
0.618723 0.642649 0.10663
0.644465 0.644465 0.111696
0.669429 0.646235 0.116152
0.694026 0.648051 0.121004
0.717952 0.650065 0.125368
0.74136 0.652171 0.130053
0.764492 0.654612 0.135271
0.787045 0.656855 0.140078
0.809049 0.65919 0.14522
0.830518 0.661662 0.150195
0.851469 0.664225 0.155535
0.871992 0.666957 0.161013
0.89192 0.669886 0.166873
0.911086 0.672831 0.172259
0.929931 0.675807 0.177874
0.0532692 0.66688 0.0532692
0.0848402 0.667384 0.061799
0.116625 0.667826 0.068452
0.149905 0.667903 0.0734112
0.185275 0.66746 0.0769207
0.222141 0.666636 0.0791333
0.259236 0.66601 0.0814527
0.294697 0.665415 0.0834669
0.329427 0.664958 0.0854963
0.363226 0.664698 0.0877241
0.395911 0.664683 0.0903792
0.428168 0.665049 0.0935378
0.459327 0.665278 0.0971847
0.489403 0.665766 0.100938
0.518257 0.666529 0.105226
0.546136 0.667536 0.109438
0.573129 0.668742 0.113893
0.599664 0.67039 0.118379
0.625498 0.671839 0.122957
0.65066 0.673503 0.127062
0.675258 0.675258 0.131518
0.699367 0.677134 0.13576
0.722972 0.679088 0.140459
0.746471 0.681285 0.145739
0.76907 0.683421 0.150622
0.79118 0.685634 0.155642
0.812833 0.687953 0.160494
0.834287 0.690257 0.165835
0.855161 0.692805 0.170871
0.875547 0.695583 0.176303
0.895247 0.698329 0.18114
0.914656 0.701076 0.186175
0.933562 0.703975 0.190814
0.0702983 0.695842 0.0702983
0.100832 0.696422 0.0775921
0.132509 0.696757 0.0832685
0.166125 0.696529 0.087541
0.201617 0.69604 0.0906844
0.238178 0.695109 0.092958
0.27422 0.694209 0.0948501
0.309087 0.693553 0.097261
0.343206 0.693049 0.0996872
0.376257 0.692729 0.102861
0.408789 0.69279 0.106737
0.440024 0.692927 0.110491
0.470237 0.693294 0.114015
0.499397 0.693904 0.117754
0.52752 0.694804 0.12134
0.554635 0.695933 0.125246
0.58146 0.697398 0.129809
0.607233 0.698802 0.134005
0.632486 0.700343 0.138033
0.657206 0.701946 0.142458
0.681544 0.703639 0.146899
0.705394 0.705394 0.151781
0.728908 0.707546 0.156649
0.75169 0.709514 0.161471
0.774182 0.711574 0.165988
0.796231 0.713664 0.171145
0.8177 0.715908 0.175921
0.839078 0.718502 0.180499
0.859846 0.720913 0.184787
0.880217 0.723384 0.189181
0.899977 0.726085 0.19295
0.91928 0.728832 0.196963
0.938277 0.731685 0.201007
0.0868696 0.723995 0.0868696
0.116793 0.724544 0.0932021
0.148714 0.724575 0.0982986
0.182849 0.724239 0.102251
0.219074 0.723262 0.105074
0.255039 0.722194 0.1075
0.290364 0.721218 0.110307
0.324742 0.72047 0.113344
0.358022 0.719997 0.116564
0.390311 0.720073 0.120302
0.421515 0.720134 0.123278
0.451713 0.720439 0.126452
0.481025 0.720989 0.129534
0.509422 0.721721 0.133104
0.537209 0.722774 0.137362
0.563821 0.72398 0.141268
0.589715 0.725261 0.14548
0.615122 0.72665 0.149599
0.639963 0.728115 0.154223
0.664469 0.729656 0.158602
0.688685 0.731502 0.163455
0.712184 0.733272 0.167803
0.735149 0.735149 0.172381
0.757839 0.737041 0.176944
0.779995 0.739101 0.18088
0.801785 0.741222 0.184771
0.823468 0.743694 0.188663
0.844755 0.745937 0.192309
0.865461 0.748302 0.195834
0.885588 0.75079 0.199374
0.905196 0.753399 0.202701
0.924559 0.756024 0.206668
0.943648 0.758968 0.210636
0.103578 0.751202 0.103578
0.134478 0.751446 0.109422
0.167346 0.751247 0.114626
0.202014 0.750378 0.118257
0.237675 0.749203 0.12166
0.27306 0.748119 0.124453
0.307164 0.747356 0.127306
0.340078 0.747097 0.130098
0.372274 0.747005 0.133089
0.403418 0.747036 0.135744
0.433692 0.747234 0.138827
0.463127 0.747646 0.141833
0.491829 0.74815 0.145525
0.519783 0.749081 0.149248
0.546822 0.750088 0.153399
0.572854 0.751247 0.157427
0.598444 0.752453 0.1617
0.623575 0.753735 0.166079
0.648081 0.755199 0.17023
0.672267 0.756985 0.174823
0.695872 0.758709 0.178607
0.719142 0.760418 0.182635
0.741878 0.762295 0.186145
0.764279 0.764279 0.189181
0.786313 0.766308 0.192447
0.808392 0.768582 0.196185
0.829725 0.770718 0.199298
0.850721 0.772961 0.202136
0.871199 0.77528 0.205402
0.891356 0.77763 0.208865
0.911086 0.780392 0.212375
0.930236 0.783001 0.215076
0.949187 0.785626 0.217853
0.122011 0.777188 0.122011
0.153429 0.777279 0.128099
0.186358 0.776745 0.132464
0.221241 0.775708 0.135637
0.255909 0.774777 0.137942
0.289693 0.774075 0.140337
0.322469 0.773754 0.142977
0.354604 0.773602 0.145937
0.385748 0.773541 0.148531
0.416266 0.773526 0.151843
0.445899 0.77377 0.154894
0.474754 0.774182 0.158389
0.50309 0.775006 0.162112
0.530266 0.775769 0.165942
0.556664 0.776745 0.169665
0.582406 0.777813 0.173938
0.607324 0.77911 0.17792
0.632044 0.780667 0.181491
0.656184 0.782284 0.185077
0.680003 0.783825 0.18851
0.703288 0.785565 0.191241
0.726192 0.787366 0.194186
0.74876 0.789212 0.197055
0.771328 0.791226 0.200107
0.793256 0.793256 0.203021
0.814801 0.795285 0.205905
0.836103 0.797345 0.208774
0.857069 0.799466 0.211322
0.877424 0.801755 0.213687
0.897536 0.804349 0.216327
0.917113 0.806836 0.218433
0.936568 0.809308 0.220356
0.955749 0.811887 0.221515
0.14081 0.802731 0.14081
0.172107 0.802548 0.145464
0.204898 0.80206 0.148592
0.23888 0.801221 0.151217
0.272328 0.800534 0.153735
0.305394 0.800183 0.156435
0.337392 0.799771 0.159197
0.368872 0.799481 0.162112
0.399451 0.79939 0.165255
0.429282 0.799481 0.168154
0.458351 0.799817 0.171588
0.486732 0.800443 0.175036
0.514214 0.801053 0.178729
0.540566 0.801968 0.182071
0.566247 0.803067 0.185229
0.591272 0.804303 0.188296
0.61593 0.805829 0.191089
0.640345 0.807355 0.194217
0.664088 0.808896 0.196872
0.687495 0.810498 0.199481
0.710597 0.812177 0.201755
0.733486 0.81384 0.204608
0.756039 0.815778 0.207416
0.778195 0.8177 0.209934
0.800031 0.819593 0.211978
0.821546 0.821546 0.21413
0.84271 0.823606 0.2159
0.863554 0.825742 0.21735
0.884321 0.828153 0.218997
0.904295 0.830533 0.219608
0.924056 0.83299 0.219638
0.943725 0.835508 0.218982
0.963531 0.838026 0.217639
0.158114 0.828122 0.158114
0.189242 0.827955 0.161746
0.222141 0.827283 0.164767
0.255604 0.826474 0.167193
0.288869 0.825971 0.170245
0.321126 0.825391 0.172915
0.352636 0.824964 0.175845
0.383246 0.824781 0.178683
0.413016 0.824811 0.181567
0.441993 0.825086 0.184665
0.470237 0.825742 0.187671
0.497612 0.826337 0.190463
0.524193 0.827161 0.192935
0.550011 0.828229 0.195071
0.575158 0.829419 0.197635
0.600092 0.8309 0.200488
0.624308 0.832273 0.202731
0.648219 0.833707 0.204883
0.671778 0.835203 0.207263
0.695155 0.836698 0.209766
0.718135 0.838407 0.211887
0.740856 0.840253 0.213794
0.76318 0.841978 0.215595
0.785199 0.843793 0.217075
0.806897 0.845716 0.218067
0.828336 0.8477 0.21854
0.849821 0.849821 0.21886
0.870802 0.852094 0.218326
0.891402 0.854398 0.216938
0.911711 0.856809 0.214862
0.931975 0.859205 0.212573
0.952117 0.861692 0.20911
0.972503 0.864302 0.205631
0.175113 0.853132 0.175113
0.206668 0.852705 0.178775
0.240101 0.852079 0.181643
0.27306 0.851255 0.184237
0.30544 0.850553 0.186862
0.336568 0.850187 0.189593
0.366842 0.850019 0.192203
0.396277 0.850126 0.194339
0.425254 0.850599 0.196933
