luts/film.cube
TITLE "film"
LUT_3D_SIZE 9
0 0 0
0.0865644 0 0
0.236423 0 0
0.39649 0 0
0.544015 0 0
0.680186 0 0
0.808743 0 0
0.928054 0 0
1 0 0
0 0.0788739 0
0.0819409 0.0819409 0
0.235035 0.0747845 0
0.401495 0.0683452 0
0.555108 0.0695201 0
0.691493 0.0789502 0
0.813993 0.0932631 0
0.920409 0.111131 0.00962844
1 0.132311 0.0304417
0 0.220737 0
0.0709392 0.231907 0
0.233951 0.233951 0
0.396551 0.237049 0
0.54023 0.244205 0
0.664988 0.254841 0.00590524
0.776638 0.267918 0.0280003
0.877806 0.283284 0.0476234
0.966567 0.301122 0.0673991
0 0.389395 0
0.0869306 0.397726 0
0.247318 0.397757 0
0.399695 0.399695 0.00527962
0.533928 0.405478 0.0185397
0.652171 0.414466 0.0318608
0.758999 0.425757 0.0487526
0.854582 0.439002 0.0670481
0.938613 0.453758 0.0873884
0 0.540795 0
0.126909 0.542412 0.023743
0.2804 0.541146 0.0350042
0.422187 0.542351 0.0440986
0.546914 0.546914 0.0556497
0.656916 0.554147 0.071519
0.756481 0.563195 0.0895094
0.845579 0.574014 0.111513
0.925582 0.586526 0.134279
0.0532692 0.66688 0.0532692
0.185275 0.66746 0.0769207
0.329427 0.664958 0.0854963
0.459327 0.665278 0.0971847
0.573129 0.668742 0.113893
0.675258 0.675258 0.131518
0.76907 0.683421 0.150622
0.855161 0.692805 0.170871
0.933562 0.703975 0.190814
0.122011 0.777188 0.122011
0.255909 0.774777 0.137942
0.385748 0.773541 0.148531
0.50309 0.775006 0.162112
0.607324 0.77911 0.17792
0.703288 0.785565 0.191241
0.793256 0.793256 0.203021
0.877424 0.801755 0.213687
0.955749 0.811887 0.221515
0.19266 0.87744 0.19266
0.319799 0.875425 0.202564
0.436042 0.87628 0.209415
0.542672 0.878981 0.215793
0.640284 0.884016 0.221515
0.732525 0.890532 0.221393
0.821164 0.898512 0.2103
0.907012 0.907012 0.190661
0.989715 0.915557 0.17116
0.249348 0.975509 0.249348
0.364141 0.97586 0.248554
0.469154 0.979126 0.240452
0.56495 0.985183 0.221393
0.656916 0.992218 0.196628
0.74931 0.997986 0.172015
0.84033 1 0.145312
0.928191 1 0.116762
1 1 0.0880293
0.000167849 0.000167849 0.087068
0.0852522 0 0.0852522
0.23444 0 0.0665751
0.397375 0 0.0279393
0.546685 0 0.00749218
0.683833 0 0.000396735
0.813123 0 0.0019379
0.932174 0 0.0121157
1 0 0.0315709
0 0.0792554 0.0792554
0.0838483 0.0838483 0.0838483
0.236637 0.0781109 0.0781109
0.402472 0.0734875 0.0734875
0.554528 0.0765545 0.0765545
0.689525 0.0865797 0.0865797
0.81059 0.100938 0.100938
0.916106 0.118471 0.118471
1 0.139132 0.139132
0 0.224262 0.0554665
0.0787671 0.236149 0.0787671
0.239521 0.239521 0.0855726
0.399939 0.242741 0.0902571
0.541634 0.249928 0.099321
0.665049 0.260594 0.11284
0.776501 0.274037 0.128481
0.877379 0.289342 0.14612
0.965194 0.306706 0.166308
0 0.392645 0.0674296
0.0959793 0.400366 0.0959793
0.253391 0.401343 0.106081
0.403647 0.403647 0.113909
0.536355 0.409323 0.124926
0.653346 0.418524 0.14023
0.758862 0.429618 0.158511
0.853788 0.442451 0.178378
0.936858 0.456825 0.201083
0 0.541527 0.113878
0.134981 0.544366 0.134981
0.28629 0.543481 0.145006
0.426123 0.544625 0.156603
0.548821 0.548821 0.171176
0.657481 0.555886 0.189761
0.755688 0.564691 0.211032
0.844053 0.57525 0.234592
0.923949 0.587625 0.257801
0.0622721 0.666728 0.171908
0.19202 0.668025 0.19202
0.334142 0.665339 0.203815
0.462135 0.665446 0.219989
0.574441 0.669032 0.237873
0.675578 0.675578 0.255924
0.768688 0.683742 0.274769
0.8542 0.693111 0.293767
0.932952 0.704326 0.31075
0.128054 0.776242 0.245228
0.260548 0.774166 0.260548
0.3888 0.773007 0.272389
0.504662 0.774502 0.285618
0.608057 0.779049 0.299474
0.703395 0.785641 0.310979
0.793164 0.793164 0.321675
0.877226 0.801663 0.331014
0.95584 0.811643 0.336965
0.196658 0.876524 0.314565
0.322011 0.875044 0.322011
0.437201 0.876066 0.327672
0.542977 0.878859 0.333455
0.640177 0.883925 0.337987
0.731777 0.890517 0.336522
0.820081 0.89807 0.325414
0.906004 0.906004 0.309331
0.988708 0.913817 0.293355
0.249729 0.975464 0.365057
0.363012 0.97615 0.363012
0.46566 0.979995 0.353841
0.560739 0.985824 0.336461
0.65304 0.991974 0.31545
0.745647 0.996963 0.293553
0.836957 1 0.266667
0.925811 1 0.234012
1 1 0.196063
0 0 0.245899
0.0808423 0 0.241642
0.230259 0 0.230259
0.391852 0 0.218921
0.540887 0 0.212161
0.678508 0 0.211017
0.808423 0 0.215976
0.926589 0 0.227726
1 0 0.245747
0 0.0762798 0.236133
0.0815595 0.0815595 0.238376
0.235767 0.0765698 0.235767
0.401816 0.0730144 0.236164
0.553017 0.0777142 0.24184
0.686931 0.0885176 0.250935
0.806912 0.10312 0.262104
0.911086 0.121065 0.275486
0.999695 0.141909 0.29099
0 0.223804 0.223804
0.0807355 0.237034 0.237034
0.24097 0.24097 0.24097
0.4 0.244373 0.244373
0.54023 0.251408 0.251408
0.662837 0.262623 0.262623
0.773877 0.276036 0.276036
0.874052 0.291188 0.291188
0.96144 0.308797 0.308797
0 0.39202 0.233326
0.0995804 0.400519 0.249241
0.255711 0.401907 0.255711
0.40444 0.40444 0.261906
0.535958 0.410239 0.271443
0.651926 0.419577 0.284749
0.756588 0.430808 0.300084
0.850599 0.443351 0.316869
0.933455 0.458076 0.335897
0.000183108 0.540642 0.267506
0.138308 0.544015 0.281575
0.288869 0.543221 0.288869
0.427451 0.544549 0.298177
0.548943 0.548943 0.310201
0.656687 0.556207 0.325017
0.754116 0.565332 0.342473
0.842252 0.576028 0.360922
0.922347 0.588754 0.379828
0.0657054 0.665522 0.314595
0.196063 0.667002 0.328695
0.33727 0.664576 0.33727
0.464103 0.664881 0.34905
0.575708 0.669169 0.362936
0.676066 0.676066 0.37734
0.768765 0.684413 0.393271
0.854261 0.693904 0.40885
0.932982 0.705165 0.423224
0.132876 0.775158 0.373281
0.264714 0.773602 0.383139
0.39202 0.772808 0.39202
0.507027 0.774456 0.402502
0.609461 0.779461 0.413397
0.704341 0.78613 0.423194
0.793606 0.793606 0.432731
0.87776 0.80206 0.440787
0.956649 0.811826 0.445563
0.200565 0.876249 0.429633
0.324437 0.875242 0.43444
0.43888 0.87628 0.43888
0.543954 0.879194 0.443626
0.640238 0.884413 0.446891
0.731212 0.891051 0.444663
0.819333 0.898146 0.435477
0.905272 0.905272 0.423819
0.987884 0.912184 0.412589
0.250172 0.976043 0.47393
0.361181 0.977234 0.470787
0.461784 0.98117 0.461784
0.556329 0.98674 0.447395
0.649317 0.991806 0.431571
0.741924 0.995926 0.413748
0.833173 1 0.391363
0.922148 1 0.364187
1 1 0.332708
0 0 0.412436
0.0738994 0 0.406897
0.226963 0 0.397131
0.389349 0 0.389349
0.538766 0 0.386419
0.676768 0 0.388708
0.807126 0 0.396155
0.924819 0 0.408011
1 0 0.422873
0 0.0728161 0.401816
0.0792096 0.0792096 0.402655
0.235828 0.0750896 0.400885
0.402243 0.0725719 0.402243
0.552682 0.078294 0.406973
0.685649 0.0900435 0.413993
0.804074 0.105089 0.421653
0.907271 0.123308 0.430442
0.995636 0.144411 0.441428
0 0.224201 0.390906
0.0818647 0.23798 0.399237
0.242054 0.242054 0.399817
0.400046 0.245686 0.400046
0.539239 0.25301 0.403632
0.661082 0.264546 0.410849
0.771771 0.278065 0.420523
0.871397 0.293309 0.431571
0.958206 0.311208 0.445197
0 0.392294 0.392294
0.102098 0.401007 0.401007
0.257847 0.402655 0.402655
0.405341 0.405341 0.405341
0.536019 0.411536 0.411536
0.651301 0.421042 0.421042
0.755001 0.432532 0.432532
0.848463 0.445243 0.445243
0.93077 0.46009 0.46009
0.00283818 0.540932 0.41265
0.14197 0.544228 0.420706
0.29218 0.543511 0.423911
0.42887 0.544961 0.42887
0.549828 0.549828 0.43743
0.656886 0.557321 0.448661
0.753368 0.566629 0.461875
0.841596 0.577722 0.47628
0.921538 0.59057 0.491981
0.0698711 0.665385 0.445441
0.20061 0.666789 0.454337
0.341253 0.664591 0.459297
0.466957 0.6654 0.466957
0.577325 0.670222 0.477043
0.677287 0.677287 0.488884
0.769207 0.685573 0.501625
0.855039 0.695369 0.514229
0.933654 0.7066 0.526848
0.137423 0.775235 0.489769
0.269078 0.773877 0.495827
0.395727 0.773342 0.5019
0.509529 0.775418 0.509529
0.611078 0.780682 0.518029
0.705745 0.787305 0.526497
0.794614 0.794614 0.534707
0.878706 0.803098 0.541878
0.95819 0.812497 0.546166
0.204196 0.876905 0.535332
0.326772 0.876249 0.538155
0.440497 0.87715 0.541329
0.545113 0.880308 0.545113
0.64036 0.885649 0.547585
0.730861 0.892103 0.545541
0.81912 0.898543 0.539467
0.904891 0.904891 0.532418
0.987442 0.911101 0.524758
0.250294 0.977432 0.574685
0.358892 0.979156 0.571206
0.457496 0.98323 0.563256
0.552361 0.987991 0.552361
0.645777 0.992096 0.540856
0.738354 0.995483 0.526818
0.82974 0.998871 0.509178
0.918959 1 0.487602
1 1 0.463478
0 0 0.560891
0.0665293 0 0.555398
0.224613 0 0.545815
0.388464 0 0.539788
0.538674 0 0.538674
0.677424 0 0.542702
0.807767 0 0.550729
0.924468 0 0.561624
1 0 0.574548
0 0.0701762 0.550942
0.0782483 0.0782483 0.550851
0.237476 0.0753796 0.549355
0.404089 0.0744335 0.550454
0.55378 0.0807813 0.55378
0.685435 0.092958 0.558373
0.802396 0.108354 0.563195
0.904341 0.126665 0.568002
0.992737 0.148119 0.575509
0 0.226001 0.539178
0.0845197 0.240299 0.544244
0.244373 0.244373 0.541817
0.401236 0.248142 0.539101
0.539452 0.255818 0.539452
0.660578 0.267536 0.543389
0.770779 0.281163 0.549874
0.869688 0.296437 0.5579
0.955962 0.314519 0.568017
0 0.393957 0.532876
0.105928 0.402686 0.536278
0.260746 0.404593 0.534325
0.407279 0.407279 0.534005
0.537148 0.41387 0.537148
0.651484 0.42356 0.543221
0.754543 0.434989 0.551156
0.847501 0.447913 0.560372
0.92903 0.462989 0.571633
0.0069276 0.542199 0.542199
0.146441 0.54548 0.54548
0.295964 0.544915 0.544915
0.431724 0.546548 0.546548
0.551614 0.551614 0.551614
0.657755 0.559411 0.559411
0.75375 0.568902 0.568902
0.842084 0.580148 0.580148
0.92166 0.593164 0.593164
0.074815 0.66627 0.562585
0.206134 0.667491 0.567163
0.346105 0.665354 0.568292
0.470283 0.666957 0.572549
0.579904 0.672038 0.579904
0.679301 0.679301 0.589242
0.770825 0.687755 0.599313
0.856443 0.697551 0.610086
0.934966 0.708659 0.621637
0.142626 0.776226 0.59469
0.274556 0.774884 0.597436
0.399802 0.774456 0.600671
0.512673 0.777111 0.606378
0.613397 0.782559 0.613397
0.707393 0.788983 0.620813
0.796353 0.796353 0.628382
0.880385 0.804623 0.635111
0.960235 0.813611 0.639933
0.208209 0.878355 0.631342
0.329839 0.877852 0.632944
0.442878 0.878813 0.635294
0.546624 0.882048 0.638575
0.64094 0.887434 0.64094
0.73077 0.893446 0.639902
0.819165 0.899382 0.636591
0.904967 0.904967 0.633234
0.987808 0.910506 0.62858
0.250202 0.979553 0.667933
0.355795 0.981903 0.664637
0.453391 0.98584 0.658549
0.548714 0.989731 0.650874
0.642618 0.992935 0.642618
0.735271 0.99556 0.631983
0.826932 0.998352 0.618357
0.916396 1 0.602319
1 1 0.585
0 0 0.693599
0.0594644 0 0.689616
0.223438 0 0.679316
0.388556 0 0.674083
0.539925 0 0.674357
0.679576 0 0.679576
0.809308 0 0.687251
0.925521 0 0.696788
1 0 0.707332
0 0.0694591 0.68571
0.0787823 0.0787823 0.684459
0.24004 0.0769513 0.682612
0.406668 0.0775158 0.682094
0.555688 0.0848249 0.68397
0.685908 0.0972915 0.685908
0.801526 0.113008 0.68748
0.902861 0.131395 0.689677
0.99115 0.152834 0.694347
0 0.229175 0.671031
0.0885023 0.243671 0.673121
0.247822 0.247822 0.667979
0.403464 0.251514 0.66212
0.54078 0.259724 0.659876
0.661448 0.271458 0.661448
0.770489 0.284916 0.665095
0.869032 0.300618 0.670497
0.954376 0.318868 0.677531
0 0.39678 0.65684
0.110918 0.405432 0.656245
0.264881 0.407477 0.651774
0.410361 0.410361 0.648905
0.539269 0.417121 0.649317
0.652613 0.426963 0.652613
0.754711 0.4383 0.657267
0.847074 0.451423 0.663996
0.927733 0.466758 0.672251
0.0128634 0.544274 0.657191
0.152163 0.54757 0.656764
0.30074 0.547051 0.653346
0.435508 0.548943 0.652155
0.554192 0.554192 0.654521
0.659373 0.56228 0.659373
0.754879 0.571908 0.666392
0.843107 0.5832 0.675456
0.92224 0.596323 0.686473
0.0807355 0.667842 0.667842
0.212787 0.668879 0.668879
0.351385 0.667033 0.667033
0.47451 0.669093 0.669093
0.582956 0.674479 0.674479
0.681712 0.681712 0.681712
0.773144 0.690303 0.690303
0.858564 0.700038 0.700038
0.936706 0.71104 0.71104
0.148623 0.777829 0.690455
0.280247 0.776486 0.691127
0.404578 0.776318 0.692775
0.515953 0.779324 0.697002
0.616236 0.784741 0.70309
0.70985 0.791058 0.70985
0.798413 0.798413 0.717128
0.88249 0.806409 0.724025
0.962798 0.814664 0.729961
0.212192 0.880323 0.721553
0.332906 0.879698 0.72224
0.445472 0.880827 0.724147
0.547738 0.884276 0.727169
0.641169 0.889662 0.729931
0.7308 0.895277 0.7308
0.819425 0.90045 0.730327
0.905303 0.905303 0.729732
0.98819 0.909957 0.727916
0.249073 0.982376 0.756497
0.351904 0.984863 0.754299
0.44918 0.988602 0.750546
0.545586 0.991516 0.745769
0.639445 0.993881 0.740001
0.732296 0.996124 0.732296
0.824231 0.99826 0.722469
0.914366 1 0.711223
1 1 0.699489
0 0 0.815198
0.0484474 0 0.814862
0.223529 0 0.802457
0.389914 0 0.797757
0.542107 0 0.798779
0.682353 0 0.804623
0.811612 0 0.811612
0.927382 0 0.819715
1 0 0.827848
0 0.0701305 0.810132
0.0809491 0.0809491 0.807797
0.243519 0.0800641 0.80502
0.409857 0.0817884 0.802853
0.557946 0.0897383 0.802777
0.6869 0.10248 0.802213
0.800793 0.118288 0.800793
0.901762 0.13698 0.800687
0.990051 0.158251 0.803449
0 0.23331 0.791669
0.0934005 0.247745 0.790936
0.25185 0.25185 0.782803
0.406531 0.255924 0.774868
0.542809 0.264332 0.770275
0.662898 0.276066 0.769802
0.771176 0.289616 0.771176
0.868681 0.30547 0.774075
0.953613 0.32369 0.77847
0 0.40032 0.770001
0.11635 0.408896 0.766552
0.269474 0.410666 0.759411
0.414038 0.414038 0.75465
0.542077 0.420874 0.752682
0.654322 0.430915 0.753231
0.755611 0.442313 0.755611
0.84715 0.455482 0.759731
0.927306 0.470924 0.765423
0.0214389 0.546441 0.762295
0.158663 0.550179 0.759396
0.305852 0.54963 0.753033
0.439445 0.551888 0.749996
0.55729 0.55729 0.749874
0.661509 0.565301 0.751888
0.756786 0.575357 0.756786
0.844587 0.586709 0.764202
0.923491 0.599802 0.773678
0.0870527 0.669963 0.765103
0.220096 0.67071 0.762982
0.357137 0.669352 0.758663
0.47863 0.671824 0.759121
0.586557 0.677333 0.762692
0.684565 0.684565 0.768063
0.775601 0.693294 0.775601
0.860929 0.702892 0.784558
0.938842 0.71371 0.794949
0.154742 0.779934 0.779934
0.286183 0.778546 0.778546
0.409354 0.778729 0.778729
0.519356 0.78201 0.78201
0.618952 0.787411 0.787411
0.712428 0.793576 0.793576
0.800778 0.800778 0.800778
0.884962 0.808438 0.808438
0.96556 0.816068 0.816068
0.216281 0.882719 0.806287
0.336294 0.882063 0.806317
0.447852 0.88336 0.807935
0.548806 0.886915 0.811124
0.641108 0.892073 0.814878
0.731044 0.897231 0.817868
0.819898 0.901732 0.819898
0.905898 0.905898 0.821485
0.98912 0.909941 0.822522
0.246921 0.985748 0.841062
0.347341 0.988647 0.840314
0.444999 0.991577 0.83888
0.54229 0.993637 0.836118
0.636301 0.995407 0.832715
0.729351 0.997086 0.828016
0.821775 0.998535 0.821775
0.912444 1 0.814939
1 1 0.808179
0 0 0.924666
0.0420386 0 0.926741
0.224552 0 0.913466
0.392493 0 0.909453
0.545632 0 0.911177
0.685908 0 0.916732
0.814374 0 0.922637
0.92961 0 0.92961
1 0 0.935775
0 0.0717784 0.922225
0.0844587 0.0844587 0.918914
0.247929 0.085069 0.914183
0.413581 0.0874037 0.91107
0.560479 0.0956741 0.909224
0.68806 0.108629 0.906706
0.800656 0.124605 0.902998
0.90135 0.143313 0.90135
0.989746 0.16434 0.902541
0 0.238346 0.900267
0.099382 0.252598 0.897032
0.256733 0.256733 0.886564
0.410208 0.261097 0.876905
0.545495 0.269596 0.87097
0.664759 0.281239 0.868849
0.772427 0.294896 0.868254
0.868971 0.310857 0.868971
0.953155 0.329122 0.87097
0 0.404501 0.87245
0.122713 0.41297 0.866789
0.275029 0.414755 0.858274
0.418326 0.418326 0.851423
0.545037 0.425345 0.847288
0.656428 0.435035 0.845777
0.757244 0.446677 0.846174
0.847837 0.460014 0.847837
0.927062 0.475563 0.850752
0.0330358 0.548547 0.857633
0.165255 0.553277 0.853147
0.311498 0.552972 0.845014
0.444038 0.555276 0.839811
0.560906 0.560906 0.837278
0.664469 0.56907 0.837293
0.759426 0.579141 0.840955
0.846662 0.590585 0.846662
0.924895 0.603494 0.854246
0.0941024 0.672587 0.854398
0.227771 0.672801 0.849042
0.362951 0.672251 0.84361
0.48333 0.674968 0.842603
0.590509 0.680629 0.844587
0.687938 0.687938 0.84863
0.778668 0.696605 0.855375
0.863584 0.706142 0.863584
0.941405 0.716609 0.873228
0.161898 0.78233 0.86276
0.292531 0.780926 0.859571
0.414099 0.781628 0.858915
0.523033 0.785061 0.861524
0.621973 0.790234 0.86598
0.715114 0.796582 0.871962
0.803494 0.803494 0.879194
0.887861 0.810727 0.887861
0.968841 0.817746 0.897047
0.220493 0.885542 0.885542
0.339849 0.884901 0.884901
0.45008 0.886381 0.886381
0.549783 0.890028 0.890028
0.64123 0.894942 0.894942
0.731334 0.89955 0.89955
0.820676 0.903349 0.903349
0.906889 0.906889 0.906889
0.990646 0.910384 0.910384
0.243854 0.989807 0.920714
0.342962 0.992706 0.921767
0.441108 0.99498 0.921675
0.539147 0.996155 0.920531
0.633616 0.997345 0.919097
0.72697 0.998459 0.917098
0.819883 0.999313 0.914168
0.911208 1 0.911208
1 1 0.908873
0 0 1
0.0398413 0 1
0.226169 0 1
0.39588 0 1
0.550103 0 1
0.690089 0 1
0.81796 0 1
0.932097 0 1
1 0 1
0 0.074815 1
0.0889448 0.0889448 1
0.252796 0.0909895 1
0.417762 0.094255 1
0.563317 0.102754 1
0.689418 0.115969 0.99762
0.801511 0.131884 0.992538
0.90193 0.150439 0.989914
0.990066 0.171283 0.990066
0 0.244129 0.995758
0.106554 0.258305 0.989746
0.262531 0.262531 0.977417
0.41471 0.267185 0.966415
0.549081 0.275685 0.959518
0.667231 0.287129 0.95613
0.774151 0.30106 0.954208
0.869718 0.317067 0.95288
0.953231 0.335149 0.953231
0 0.409384 0.96228
0.129931 0.417746 0.955261
0.281132 0.419715 0.945449
0.423377 0.423377 0.937026
0.548898 0.430488 0.931426
0.65919 0.440177 0.9281
0.759243 0.451774 0.926879
0.848844 0.465324 0.926329
0.927703 0.480812 0.927703
0.0432441 0.551965 0.942458
0.172946 0.557061 0.93666
0.318303 0.556832 0.927108
0.449393 0.559319 0.920043
0.565042 0.565042 0.915587
0.667979 0.573449 0.914427
0.762509 0.583535 0.916808
0.849241 0.595071 0.920974
0.927382 0.607889 0.927382
0.102281 0.675731 0.934051
0.236057 0.675868 0.92665
0.369558 0.675669 0.920317
0.488518 0.678706 0.917967
0.594644 0.684245 0.918425
0.691814 0.691814 0.921828
0.782483 0.700343 0.927855
0.866987 0.709636 0.935286
0.944778 0.720088 0.944778
0.169131 0.785214 0.937346
0.299428 0.784039 0.933043
0.419059 0.785122 0.931838
0.527108 0.788632 0.933852
0.625818 0.793698 0.937697
0.718578 0.799939 0.943526
0.806653 0.806653 0.951324
0.891051 0.813153 0.961349
0.972335 0.819776 0.972335
0.225071 0.888609 0.957351
0.343771 0.888273 0.95642
0.452293 0.889982 0.958053
0.550408 0.893751 0.96289
0.641459 0.898375 0.969345
0.732006 0.902281 0.97557
0.821775 0.905348 0.980972
0.908202 0.908202 0.986404
0.992508 0.911208 0.992508
0.239994 0.994522 0.994522
0.338323 0.997253 0.997253
0.437949 0.998581 0.998581
0.536309 0.998947 0.998947
0.630762 0.999847 0.999847
0.724422 1 1
0.81828 1 1
0.910506 1 1
1 1 1
