luts/HLG3 for Rec709.cube
TITLE "HLG3 for Rec709"
LUT_3D_SIZE 9
0.000000 0.000000 0.000000
0.075230 0.000000 0.007567
0.151041 0.000000 0.015191
0.231607 0.000000 0.023492
0.317775 0.000000 0.033426
0.407395 0.000000 0.044730
0.509458 0.000000 0.058186
0.652344 0.000000 0.078449
0.828761 0.000000 0.082777
0.000000 0.080533 0.000000
0.080672 0.086284 0.000000
0.183986 0.072871 0.000000
0.291884 0.060380 0.000000
0.412923 0.046078 0.000000
0.543878 0.028335 0.000000
0.695933 0.006242 0.000000
0.856366 0.000000 0.024270
1.000000 0.000000 0.018540
0.000000 0.165942 0.000000
0.063460 0.186532 0.000000
0.171646 0.185059 0.000000
0.281540 0.161919 0.000000
0.405177 0.151378 0.000000
0.536268 0.135922 0.000000
0.686784 0.113807 0.000000
0.909389 0.081586 0.000000
1.000000 0.066027 0.000000
0.000000 0.260788 0.000000
0.042488 0.290769 0.000000
0.153154 0.296900 0.000000
0.276007 0.298896 0.000000
0.395476 0.267594 0.000000
0.529237 0.249534 0.000000
0.684276 0.234097 0.000000
0.906227 0.204123 0.000000
1.000000 0.169236 0.000000
0.000000 0.367790 0.000000
0.021259 0.410526 0.000000
0.135372 0.417900 0.000000
0.254793 0.424865 0.002339
0.394142 0.425782 0.008518
0.520950 0.386785 0.000000
0.674123 0.356017 0.000000
0.902659 0.336644 0.000000
1.000000 0.297557 0.000000
0.000000 0.487844 0.002663
0.000000 0.541221 0.000000
0.110266 0.545317 0.000000
0.235792 0.556565 0.003790
0.368124 0.564769 0.010082
0.522172 0.563493 0.017162
0.664401 0.511621 0.000000
0.887674 0.465275 0.000000
1.000000 0.436331 0.000000
0.000000 0.627980 0.006265
0.000000 0.684112 0.000000
0.081722 0.696970 0.000000
0.208198 0.707842 0.001400
0.342159 0.714190 0.008095
0.487789 0.724069 0.016386
0.662614 0.715575 0.017877
0.871368 0.639958 0.000000
1.000000 0.582535 0.000000
0.000000 0.827186 0.008567
0.000000 0.882628 0.000000
0.038482 0.916939 0.000000
0.155990 0.914468 0.000000
0.295290 0.927193 0.000000
0.435476 0.928104 0.000000
0.597784 0.931807 0.000000
0.842232 0.910261 0.000000
1.000000 0.811790 0.000000
0.000000 1.000000 0.110498
0.000000 1.000000 0.083687
0.047341 1.000000 0.051023
0.124979 1.000000 0.012109
0.228874 1.000000 0.000000
0.363425 1.000000 0.000000
0.515052 1.000000 0.000000
0.731205 1.000000 0.000000
1.000000 1.000000 0.000000
0.002937 0.000000 0.069533
0.078507 0.000000 0.068790
0.151080 0.000000 0.077502
0.228483 0.000000 0.086484
0.310942 0.000000 0.094958
0.397514 0.000000 0.104108
0.495739 0.000000 0.114563
0.634833 0.000000 0.126906
0.801896 0.000000 0.141251
0.000000 0.074335 0.097602
0.079253 0.079252 0.079256
0.179777 0.067253 0.078575
0.288726 0.053860 0.077486
0.409228 0.038426 0.075725
0.539745 0.020090 0.072357
0.683763 0.000000 0.069524
0.829829 0.000000 0.084167
1.000000 0.000000 0.100846
0.000000 0.157206 0.098362
0.059252 0.174565 0.078430
0.166681 0.173935 0.075895
0.276708 0.157895 0.071316
0.395331 0.143138 0.067405
0.526501 0.126479 0.063803
0.677659 0.104294 0.058427
0.899115 0.072044 0.050417
1.000000 0.047261 0.055074
0.000000 0.247974 0.092249
0.038333 0.279466 0.078654
0.148623 0.283473 0.076744
0.268255 0.283843 0.079554
0.386769 0.256393 0.066893
0.521548 0.244867 0.066180
0.672590 0.225080 0.060026
0.893837 0.194413 0.050778
1.000000 0.155163 0.042974
0.000000 0.353336 0.092139
0.016003 0.397000 0.079447
0.124394 0.399035 0.072569
0.247005 0.406645 0.080436
0.384216 0.408865 0.086368
0.511562 0.374088 0.068601
0.666309 0.352831 0.061936
0.890460 0.327919 0.055027
1.000000 0.288785 0.041932
0.000000 0.468755 0.092754
0.000000 0.522172 0.081075
0.100412 0.529278 0.073566
0.225463 0.537027 0.079616
0.358438 0.544037 0.086436
0.510726 0.544895 0.093175
0.655528 0.499099 0.067133
0.878925 0.462276 0.052857
1.000000 0.431966 0.044781
0.000000 0.607619 0.096158
0.000000 0.663597 0.085794
0.073356 0.682517 0.075280
0.192952 0.683906 0.072874
0.333168 0.695333 0.085332
0.475523 0.701239 0.089578
0.650936 0.696750 0.093653
0.861371 0.629421 0.054820
1.000000 0.583966 0.037392
0.000000 0.805831 0.097665
0.000000 0.861414 0.086694
0.030402 0.903073 0.075165
0.147398 0.901978 0.068656
0.281530 0.905450 0.070224
0.427758 0.911248 0.076651
0.588233 0.911553 0.075903
0.832746 0.895024 0.070843
1.000000 0.811399 0.022889
0.000000 1.000000 0.171813
0.000000 1.000000 0.145351
0.020398 1.000000 0.112506
0.101619 1.000000 0.075702
0.208943 1.000000 0.046297
0.350759 1.000000 0.045418
0.509403 1.000000 0.040843
0.726233 1.000000 0.021894
1.000000 1.000000 0.000000
0.005715 0.000000 0.137197
0.082288 0.000000 0.128675
0.152132 0.000000 0.133313
0.226014 0.000000 0.142324
0.305801 0.000000 0.149908
0.388729 0.000000 0.158652
0.484520 0.000000 0.167774
0.617233 0.000000 0.180068
0.774590 0.000000 0.195094
0.000000 0.070490 0.179339
0.079245 0.075728 0.158960
0.180000 0.060299 0.165188
0.285191 0.046580 0.166691
0.404491 0.029629 0.167372
0.534422 0.008866 0.164877
0.652004 0.000000 0.165075
0.792376 0.000000 0.170131
0.960581 0.000000 0.178562
0.000000 0.148618 0.196513
0.063300 0.162337 0.178820
0.161046 0.161045 0.161053
0.269078 0.146733 0.159048
0.389123 0.130844 0.156830
0.519998 0.112865 0.153822
0.670622 0.089456 0.148030
0.889785 0.054658 0.139463
1.000000 0.017861 0.131717
0.000000 0.237856 0.201445
0.039675 0.266332 0.180640
0.140193 0.265566 0.161048
0.259468 0.267353 0.160762
0.379735 0.247710 0.153782
0.509171 0.231007 0.148845
0.660583 0.209566 0.142992
0.880209 0.175503 0.133494
1.000000 0.132230 0.120366
0.000000 0.339619 0.196562
0.014387 0.380795 0.174269
0.117517 0.382750 0.161903
0.239643 0.389241 0.161998
0.373858 0.391072 0.166483
0.501157 0.358406 0.149986
0.657962 0.344111 0.148297
0.876521 0.312361 0.136716
1.000000 0.271869 0.124695
0.000000 0.452932 0.191339
0.000000 0.504231 0.175032
0.093258 0.511627 0.162831
0.211917 0.514582 0.156114
0.348621 0.523432 0.165363
0.498579 0.525568 0.171419
0.645764 0.483746 0.149209
0.870097 0.453467 0.138554
1.000000 0.418956 0.128522
0.000000 0.586930 0.188142
0.000000 0.640845 0.177057
0.065317 0.662857 0.164907
0.182438 0.665611 0.156093
0.320852 0.673606 0.162131
0.464250 0.678613 0.166802
0.640087 0.678167 0.173118
0.852155 0.614242 0.137353
1.000000 0.576412 0.124490
0.000000 0.786656 0.190494
0.000000 0.839945 0.178907
0.024698 0.883901 0.167159
0.139401 0.886623 0.154970
0.268507 0.883982 0.148106
0.420265 0.893870 0.158491
0.579407 0.891717 0.155962
0.823150 0.878215 0.151812
1.000000 0.800162 0.109386
0.000000 1.000000 0.243002
0.000000 1.000000 0.212566
0.000000 1.000000 0.180006
0.076921 1.000000 0.146491
0.202628 1.000000 0.134254
0.341232 1.000000 0.125044
0.504332 1.000000 0.125034
0.721943 1.000000 0.106091
1.000000 1.000000 0.076743
0.008513 0.000000 0.205297
0.083260 0.000000 0.187673
0.154782 0.000000 0.193444
0.223871 0.000000 0.196070
0.300772 0.000000 0.205597
0.378331 0.000000 0.209872
0.470762 0.000000 0.218919
0.601152 0.000000 0.232130
0.753849 0.000000 0.244795
0.000000 0.066398 0.265134
0.078238 0.071014 0.244697
0.175770 0.057708 0.246361
0.285798 0.036766 0.254997
0.400123 0.020060 0.256252
0.525635 0.000000 0.253812
0.624760 0.000000 0.248344
0.763199 0.000000 0.246465
0.924956 0.000000 0.251593
0.000000 0.140607 0.285604
0.061328 0.154812 0.264748
0.158800 0.154975 0.245474
0.266772 0.136624 0.250672
0.382365 0.120066 0.251108
0.512066 0.100548 0.250772
0.662233 0.074320 0.246048
0.881159 0.035839 0.239140
1.000000 0.000000 0.228527
0.000000 0.226331 0.302408
0.044503 0.250789 0.285097
0.142442 0.250119 0.268046
0.249976 0.249972 0.249986
0.368638 0.232699 0.246388
0.499171 0.214376 0.243036
0.650781 0.191826 0.238001
0.868277 0.155490 0.227998
1.000000 0.111667 0.216163
0.000000 0.322274 0.307736
0.019179 0.364785 0.291418
0.117453 0.366886 0.271129
0.227463 0.366764 0.250639
0.361622 0.370382 0.251953
0.491654 0.347086 0.242575
0.643509 0.327885 0.236931
0.861834 0.293204 0.226008
1.000000 0.251438 0.214395
0.000000 0.438099 0.308039
0.000000 0.487507 0.286979
0.090492 0.492943 0.264971
0.202814 0.495333 0.251769
0.339581 0.503524 0.253050
0.486391 0.505445 0.257867
0.634697 0.466787 0.237993
0.859494 0.442104 0.231710
1.000000 0.404414 0.219223
0.000000 0.571203 0.303466
0.000000 0.620631 0.281317
0.061095 0.643023 0.265344
0.173978 0.645682 0.252499
0.305557 0.648607 0.244513
0.453909 0.656760 0.253227
0.626705 0.657016 0.257834
0.843121 0.599391 0.228101
1.000000 0.567512 0.218406
0.000000 0.766817 0.295515
0.000000 0.819586 0.280624
0.019636 0.863733 0.267995
0.133213 0.866561 0.255038
0.260084 0.867175 0.241830
0.405244 0.869190 0.241099
0.569605 0.869895 0.242150
0.812838 0.860018 0.239615
1.000000 0.787244 0.202002
0.000000 1.000000 0.324861
0.000000 1.000000 0.297212
0.000000 1.000000 0.264684
0.072847 1.000000 0.249080
0.196093 1.000000 0.230667
0.333641 1.000000 0.218218
0.496269 1.000000 0.213906
0.717953 1.000000 0.198195
0.999588 1.000000 0.170581
0.011406 0.000000 0.274850
0.083945 0.000000 0.250702
0.154150 0.000000 0.253283
0.224471 0.000000 0.256183
0.294575 0.000000 0.257831
0.370018 0.000000 0.264918
0.455815 0.000000 0.270566
0.576840 0.000000 0.279366
0.730845 0.000000 0.296398
0.000000 0.061489 0.358604
0.076146 0.064768 0.338869
0.170463 0.050474 0.331400
0.280683 0.032556 0.346765
0.399923 0.006695 0.351033
0.500468 0.000000 0.341078
0.594495 0.000000 0.323911
0.730653 0.000000 0.319250
0.894308 0.000000 0.322089
0.000000 0.132127 0.378936
0.057028 0.148795 0.357367
0.154724 0.146798 0.337792
0.259562 0.131170 0.338229
0.380045 0.106307 0.346196
0.504290 0.086925 0.346564
0.650424 0.060642 0.342093
0.866769 0.022426 0.337496
1.000000 0.000000 0.328241
0.000000 0.215186 0.401644
0.041523 0.238718 0.380644
0.136928 0.238554 0.360281
0.245028 0.240777 0.341336
0.363338 0.218728 0.345451
0.488466 0.199243 0.344628
0.639436 0.175630 0.343316
0.857307 0.135873 0.335273
1.000000 0.087587 0.324275
0.000000 0.309519 0.418024
0.020938 0.346826 0.401369
0.120275 0.347058 0.384778
0.227972 0.347612 0.367535
0.348786 0.348782 0.348801
0.477493 0.328632 0.343628
0.629331 0.306309 0.338821
0.848446 0.270795 0.329010
1.000000 0.227006 0.317839
0.000000 0.409214 0.420758
0.000000 0.464304 0.407992
0.093659 0.473210 0.393091
0.201960 0.476862 0.372410
0.324389 0.476975 0.349803
0.471671 0.481273 0.351601
0.623111 0.453925 0.340257
0.844088 0.424463 0.331242
1.000000 0.381242 0.318423
0.000000 0.549337 0.427787
0.000000 0.602414 0.409887
0.060391 0.624175 0.389079
0.171246 0.625153 0.366163
0.295220 0.627057 0.350624
0.443639 0.634613 0.350586
0.613641 0.635203 0.354360
0.833423 0.586385 0.331188
1.000000 0.552672 0.320641
0.000000 0.747117 0.423626
0.000000 0.798302 0.403161
0.015733 0.842141 0.381375
0.127266 0.843892 0.366380
0.251380 0.845285 0.350386
0.392028 0.845785 0.338254
0.561564 0.849862 0.341820
0.803363 0.841214 0.339242
1.000000 0.773719 0.306251
0.000000 0.986633 0.431326
0.000000 1.000000 0.397560
0.000000 1.000000 0.379196
0.069852 1.000000 0.363711
0.192858 1.000000 0.345702
0.327562 1.000000 0.326601
0.487930 1.000000 0.314239
0.714874 1.000000 0.302536
0.996229 1.000000 0.276868
0.014317 0.000000 0.345984
0.084060 0.000000 0.314200
0.148959 0.000000 0.307273
0.221994 0.000000 0.317000
0.292394 0.000000 0.317094
0.360707 0.000000 0.315703
0.441490 0.000000 0.322078
0.554928 0.000000 0.328222
0.698610 0.000000 0.340723
0.000000 0.054138 0.461174
0.073332 0.057421 0.441498
0.166042 0.041374 0.429081
0.272199 0.025150 0.438282
0.393914 0.000049 0.451447
0.476890 0.000000 0.417364
0.568606 0.000000 0.401558
0.693294 0.000000 0.385376
0.856023 0.000000 0.387035
0.000000 0.122138 0.479968
0.052066 0.141439 0.456899
0.149071 0.136564 0.437496
0.249521 0.119108 0.427161
0.372512 0.099441 0.444545
0.500772 0.068912 0.447009
0.641877 0.044122 0.445969
0.853327 0.003419 0.436090
1.000000 0.000000 0.423055
0.000000 0.198576 0.499252
0.033912 0.228501 0.479805
0.129782 0.229412 0.459020
0.237304 0.228583 0.439182
0.352812 0.210176 0.438792
0.483196 0.181418 0.445864
0.627932 0.157829 0.445272
0.841109 0.118502 0.438720
1.000000 0.070758 0.431527
0.000000 0.294206 0.525869
0.018358 0.331290 0.506849
0.113847 0.330821 0.486301
0.218554 0.331558 0.465239
0.340882 0.336229 0.446348
0.468948 0.310677 0.449377
0.614656 0.286819 0.447555
0.833509 0.249502 0.442726
1.000000 0.201959 0.434380
0.000000 0.397372 0.542038
0.000000 0.447040 0.526701
0.092889 0.450820 0.510840
0.202551 0.452575 0.494179
0.323518 0.454488 0.476303
0.456988 0.456982 0.457007
0.606820 0.432651 0.450200
0.828207 0.399304 0.442471
1.000000 0.354592 0.430465
0.000000 0.508397 0.542784
0.000000 0.566153 0.531162
0.060937 0.596202 0.520613
0.172405 0.601822 0.504538
0.293981 0.606487 0.482151
0.428109 0.606742 0.457919
0.599049 0.610408 0.458796
0.821600 0.573681 0.444609
1.000000 0.534985 0.433035
0.000000 0.720855 0.558639
0.000000 0.773369 0.539708
0.017144 0.821802 0.522923
0.126527 0.822824 0.499330
0.248609 0.823177 0.474645
0.383597 0.824356 0.456915
0.550494 0.826248 0.448578
0.792315 0.820699 0.447608
1.000000 0.762905 0.422702
0.000000 0.969374 0.560404
0.000000 1.000000 0.535733
0.000000 1.000000 0.512842
0.069884 1.000000 0.490496
0.191699 1.000000 0.472863
0.324942 1.000000 0.452391
0.482168 1.000000 0.431185
0.712885 1.000000 0.418338
0.993383 1.000000 0.393454
0.017670 0.000000 0.418198
0.083992 0.000000 0.382126
0.144685 0.000000 0.367360
0.212640 0.000000 0.371766
0.286530 0.000000 0.380036
0.351547 0.000000 0.373028
0.423795 0.000000 0.370787
0.532954 0.000000 0.380052
0.668091 0.000000 0.389627
0.000000 0.044389 0.580701
0.069517 0.048252 0.561118
0.160194 0.029844 0.543466
0.258976 0.011757 0.539560
0.371885 0.000000 0.541511
0.457515 0.000000 0.503930
0.539803 0.000000 0.472509
0.663825 0.000000 0.460705
0.811141 0.000000 0.451449
0.000000 0.109343 0.594922
0.046158 0.130766 0.573645
0.142652 0.124895 0.554541
0.240459 0.104491 0.537862
0.358019 0.086384 0.547189
0.491630 0.059603 0.562882
0.638745 0.022156 0.561776
0.812068 0.000000 0.542758
0.977114 0.000000 0.510308
0.000000 0.182262 0.615027
0.024387 0.216188 0.593795
0.120625 0.217243 0.572101
0.227116 0.213020 0.552237
0.336498 0.191591 0.538294
0.472134 0.170942 0.558180
0.620859 0.134042 0.560178
0.827310 0.095758 0.555554
1.000000 0.046997 0.547015
0.000000 0.269501 0.637220
0.003572 0.313145 0.616816
0.101069 0.314761 0.598500
0.207643 0.318143 0.577956
0.328328 0.318429 0.557268
0.453551 0.297243 0.555021
0.605777 0.263352 0.563321
0.815975 0.226539 0.559108
1.000000 0.181977 0.556889
0.000000 0.376048 0.666059
0.000000 0.422881 0.648502
0.085996 0.429245 0.630148
0.191693 0.430899 0.609514
0.309021 0.432646 0.587299
0.445168 0.439756 0.568591
0.594369 0.409392 0.571506
0.809953 0.375480 0.570090
1.000000 0.329628 0.564627
0.000000 0.496704 0.685566
0.000000 0.547761 0.670567
0.060630 0.571235 0.656682
0.169939 0.573327 0.640966
0.292688 0.576424 0.623794
0.426699 0.579824 0.605332
0.583584 0.583574 0.583612
0.803492 0.548745 0.574415
1.000000 0.507228 0.564946
0.000000 0.669310 0.691707
0.000000 0.728540 0.681239
0.013580 0.784042 0.670874
0.128323 0.792378 0.657991
0.249856 0.797855 0.636425
0.382732 0.800815 0.609709
0.539382 0.800957 0.583182
0.781828 0.798782 0.577302
1.000000 0.754570 0.561440
0.000000 0.942257 0.707685
0.000000 0.995705 0.696495
0.000000 1.000000 0.677513
0.071456 1.000000 0.654840
0.193189 1.000000 0.628637
0.324664 1.000000 0.602115
0.478928 1.000000 0.577125
0.710552 1.000000 0.553928
0.992379 1.000000 0.532225
0.023173 0.000000 0.498501
0.082393 0.000000 0.465232
0.137987 0.000000 0.440901
0.194140 0.000000 0.428604
0.266531 0.000000 0.444241
0.339790 0.000000 0.452439
0.408229 0.000000 0.444341
0.496491 0.000000 0.434828
0.630120 0.000000 0.452463
0.000000 0.026284 0.753262
0.061157 0.031138 0.732689
0.150506 0.011515 0.714020
0.240641 0.000000 0.668746
0.328762 0.000000 0.620614
0.425972 0.000000 0.607191
0.511227 0.000000 0.573553
0.615738 0.000000 0.538895
0.763360 0.000000 0.537429
0.000000 0.089180 0.764450
0.036634 0.113522 0.743658
0.131595 0.105273 0.723541
0.226925 0.082217 0.701394
0.334238 0.059695 0.693094
0.468469 0.040778 0.713408
0.620648 0.004194 0.726615
0.749805 0.000000 0.655970
0.916438 0.000000 0.630400
0.000000 0.157416 0.781388
0.009680 0.198744 0.758804
0.107518 0.197254 0.738732
0.213700 0.191815 0.719392
0.318490 0.165062 0.695763
0.443704 0.144129 0.700056
0.602792 0.117269 0.724143
0.816876 0.059561 0.722417
1.000000 0.014040 0.720091
0.000000 0.236678 0.801030
0.000000 0.282806 0.780499
0.081931 0.292658 0.759492
0.189741 0.295452 0.739183
0.310454 0.292800 0.719845
0.426908 0.265765 0.699656
0.585832 0.245115 0.722728
0.805121 0.192294 0.728632
1.000000 0.147645 0.726336
0.000000 0.332891 0.825862
0.000000 0.379143 0.805714
0.061616 0.400420 0.787805
0.168802 0.403044 0.769332
0.289847 0.409716 0.747985
0.423137 0.409950 0.726978
0.568103 0.384894 0.719998
0.793889 0.338923 0.737235
1.000000 0.297992 0.737042
0.000000 0.463333 0.864645
0.000000 0.509171 0.845692
0.045632 0.535429 0.826500
0.152274 0.538030 0.807399
0.271315 0.541555 0.786266
0.404447 0.548061 0.766578
0.564050 0.556222 0.744634
0.784671 0.514661 0.751312
1.000000 0.476000 0.753550
0.000000 0.646120 0.897362
0.000000 0.698045 0.883504
0.011312 0.746373 0.869685
0.122985 0.750137 0.855036
0.247803 0.755284 0.840234
0.382251 0.759318 0.822606
0.540601 0.764270 0.801517
0.768751 0.768736 0.768792
1.000000 0.730275 0.762340
0.000000 0.878781 0.883814
0.000000 0.933489 0.896230
0.000000 0.994457 0.892947
0.073066 1.000000 0.881964
0.198628 1.000000 0.865310
0.331789 1.000000 0.841000
0.484925 1.000000 0.809069
0.708842 1.000000 0.763449
0.993161 1.000000 0.737890
0.033296 0.000000 0.564836
0.078864 0.000000 0.540989
0.126282 0.000000 0.500019
0.176039 0.000000 0.485882
0.229984 0.000000 0.478522
0.305153 0.000000 0.505628
0.384212 0.000000 0.519708
0.473571 0.000000 0.511704
0.580304 0.000000 0.508848
0.000000 0.000717 0.966628
0.047524 0.007823 0.944374
0.133770 0.000000 0.843692
0.209182 0.000000 0.738232
0.283051 0.000000 0.683705
0.369042 0.000000 0.668799
0.471842 0.000000 0.672514
0.580397 0.000000 0.639176
0.704249 0.000000 0.617222
0.000000 0.058504 0.974391
0.021211 0.089010 0.952305
0.113384 0.077074 0.930466
0.206521 0.051906 0.906189
0.311179 0.025971 0.889151
0.428960 0.000000 0.883137
0.566025 0.000000 0.865701
0.703003 0.000000 0.795781
0.843177 0.000000 0.738765
0.000000 0.122886 0.985331
0.000000 0.166626 0.963127
0.088600 0.168634 0.943664
0.191394 0.158878 0.921942
0.295638 0.131644 0.895861
0.411669 0.104989 0.883071
0.564955 0.082407 0.900048
0.793532 0.036397 0.927136
1.000000 0.000000 0.884387
0.000000 0.197004 1.000000
0.000000 0.244434 0.981961
0.059084 0.265097 0.960678
0.168694 0.264880 0.942319
0.287290 0.258846 0.921433
0.400705 0.228317 0.892384
0.542956 0.202781 0.890461
0.779788 0.168429 0.930167
1.000000 0.103507 0.934946
0.000000 0.284772 1.000000
0.000000 0.334196 1.000000
0.035850 0.369031 0.988337
0.143069 0.373557 0.967787
0.266037 0.378432 0.948484
0.400250 0.377242 0.929466
0.535247 0.344131 0.903349
0.769361 0.317015 0.937244
1.000000 0.257457 0.951015
0.000000 0.399381 1.000000
0.000000 0.448203 1.000000
0.013067 0.497160 1.000000
0.120544 0.500558 1.000000
0.242544 0.507649 0.984394
0.377702 0.517473 0.963612
0.538803 0.521293 0.944683
0.756951 0.489031 0.943188
1.000000 0.440896 0.972617
0.000000 0.606691 1.000000
0.000000 0.651335 1.000000
0.000000 0.705437 1.000000
0.107183 0.708909 1.000000
0.227165 0.712995 1.000000
0.359986 0.719123 1.000000
0.518522 0.729300 1.000000
0.751126 0.741372 0.976572
1.000000 0.702114 0.997499
0.000000 0.866238 1.000000
0.000000 0.913225 1.000000
0.000000 0.963722 1.000000
0.077538 0.984255 1.000000
0.201793 0.989258 1.000000
0.338090 0.994606 1.000000
0.497095 1.000000 1.000000
0.724375 1.000000 1.000000
0.999972 0.999956 0.999989
