luts/HLG3 for Rec709.cube
TITLE "HLG3 for Rec709"
LUT_3D_SIZE 5
0.000000 0.000000 0.000000
0.151041 0.000000 0.015191
0.317775 0.000000 0.033426
0.509458 0.000000 0.058186
0.828761 0.000000 0.082777
0.000000 0.165942 0.000000
0.171646 0.185059 0.000000
0.405177 0.151378 0.000000
0.686784 0.113807 0.000000
1.000000 0.066027 0.000000
0.000000 0.367790 0.000000
0.135372 0.417900 0.000000
0.394142 0.425782 0.008518
0.674123 0.356017 0.000000
1.000000 0.297557 0.000000
0.000000 0.627980 0.006265
0.081722 0.696970 0.000000
0.342159 0.714190 0.008095
0.662614 0.715575 0.017877
1.000000 0.582535 0.000000
0.000000 1.000000 0.110498
0.047341 1.000000 0.051023
0.228874 1.000000 0.000000
0.515052 1.000000 0.000000
1.000000 1.000000 0.000000
0.005715 0.000000 0.137197
0.152132 0.000000 0.133313
0.305801 0.000000 0.149908
0.484520 0.000000 0.167774
0.774590 0.000000 0.195094
0.000000 0.148618 0.196513
0.161046 0.161045 0.161053
0.389123 0.130844 0.156830
0.670622 0.089456 0.148030
1.000000 0.017861 0.131717
0.000000 0.339619 0.196562
0.117517 0.382750 0.161903
0.373858 0.391072 0.166483
0.657962 0.344111 0.148297
1.000000 0.271869 0.124695
0.000000 0.586930 0.188142
0.065317 0.662857 0.164907
0.320852 0.673606 0.162131
0.640087 0.678167 0.173118
1.000000 0.576412 0.124490
0.000000 1.000000 0.243002
0.000000 1.000000 0.180006
0.202628 1.000000 0.134254
0.504332 1.000000 0.125034
1.000000 1.000000 0.076743
0.011406 0.000000 0.274850
0.154150 0.000000 0.253283
0.294575 0.000000 0.257831
0.455815 0.000000 0.270566
0.730845 0.000000 0.296398
0.000000 0.132127 0.378936
0.154724 0.146798 0.337792
0.380045 0.106307 0.346196
0.650424 0.060642 0.342093
1.000000 0.000000 0.328241
0.000000 0.309519 0.418024
0.120275 0.347058 0.384778
0.348786 0.348782 0.348801
0.629331 0.306309 0.338821
1.000000 0.227006 0.317839
0.000000 0.549337 0.427787
0.060391 0.624175 0.389079
0.295220 0.627057 0.350624
0.613641 0.635203 0.354360
1.000000 0.552672 0.320641
0.000000 0.986633 0.431326
0.000000 1.000000 0.379196
0.192858 1.000000 0.345702
0.487930 1.000000 0.314239
0.996229 1.000000 0.276868
0.017670 0.000000 0.418198
0.144685 0.000000 0.367360
0.286530 0.000000 0.380036
0.423795 0.000000 0.370787
0.668091 0.000000 0.389627
0.000000 0.109343 0.594922
0.142652 0.124895 0.554541
0.358019 0.086384 0.547189
0.638745 0.022156 0.561776
0.977114 0.000000 0.510308
0.000000 0.269501 0.637220
0.101069 0.314761 0.598500
0.328328 0.318429 0.557268
0.605777 0.263352 0.563321
1.000000 0.181977 0.556889
0.000000 0.496704 0.685566
0.060630 0.571235 0.656682
0.292688 0.576424 0.623794
0.583584 0.583574 0.583612
1.000000 0.507228 0.564946
0.000000 0.942257 0.707685
0.000000 1.000000 0.677513
0.193189 1.000000 0.628637
0.478928 1.000000 0.577125
0.992379 1.000000 0.532225
0.033296 0.000000 0.564836
0.126282 0.000000 0.500019
0.229984 0.000000 0.478522
0.384212 0.000000 0.519708
0.580304 0.000000 0.508848
0.000000 0.058504 0.974391
0.113384 0.077074 0.930466
0.311179 0.025971 0.889151
0.566025 0.000000 0.865701
0.843177 0.000000 0.738765
0.000000 0.197004 1.000000
0.059084 0.265097 0.960678
0.287290 0.258846 0.921433
0.542956 0.202781 0.890461
1.000000 0.103507 0.934946
0.000000 0.399381 1.000000
0.013067 0.497160 1.000000
0.242544 0.507649 0.984394
0.538803 0.521293 0.944683
1.000000 0.440896 0.972617
0.000000 0.866238 1.000000
0.000000 0.963722 1.000000
0.201793 0.989258 1.000000
0.497095 1.000000 1.000000
0.999972 0.999956 0.999989
