luts/HLG3 for Rec709.cube
TITLE "HLG3 for Rec709"
LUT_3D_SIZE 33
0.000000 0.000000 0.000000
0.018818 0.000000 0.001892
0.037625 0.000000 0.003784
0.056427 0.000000 0.005675
0.075230 0.000000 0.007567
0.094040 0.000000 0.009458
0.112964 0.000000 0.011361
0.131959 0.000000 0.013272
0.151041 0.000000 0.015191
0.170514 0.000000 0.017149
0.190455 0.000000 0.019155
0.210842 0.000000 0.021226
0.231607 0.000000 0.023492
0.252777 0.000000 0.025836
0.274336 0.000000 0.028258
0.295977 0.000000 0.030792
0.317775 0.000000 0.033426
0.339832 0.000000 0.036144
0.362130 0.000000 0.038947
0.384660 0.000000 0.041802
0.407395 0.000000 0.044730
0.430314 0.000000 0.047742
0.453556 0.000000 0.050836
0.479826 0.000000 0.054261
0.509458 0.000000 0.058186
0.542086 0.000000 0.062580
0.577351 0.000000 0.067413
0.614785 0.000000 0.072663
0.652344 0.000000 0.078449
0.692332 0.000000 0.083445
0.739129 0.000000 0.080029
0.785394 0.000000 0.078953
0.828761 0.000000 0.082777
0.000000 0.019692 0.000000
0.019136 0.020365 0.000000
0.044369 0.017441 0.000000
0.068885 0.014942 0.000000
0.093559 0.012234 0.000000
0.118508 0.009499 0.000000
0.143603 0.006716 0.000000
0.168900 0.003909 0.000000
0.194455 0.001035 0.000000
0.216120 0.000000 0.001895
0.235918 0.000000 0.004729
0.256255 0.000000 0.007503
0.277076 0.000000 0.010255
0.298323 0.000000 0.013026
0.319983 0.000000 0.015823
0.341871 0.000000 0.018689
0.363550 0.000000 0.021714
0.385504 0.000000 0.024792
0.407710 0.000000 0.027930
0.430158 0.000000 0.031109
0.452832 0.000000 0.034319
0.475701 0.000000 0.037598
0.498784 0.000000 0.040953
0.525069 0.000000 0.044591
0.555000 0.000000 0.048712
0.587966 0.000000 0.053309
0.623605 0.000000 0.058348
0.661569 0.000000 0.063795
0.699482 0.000000 0.069875
0.738743 0.000000 0.076416
0.786106 0.000000 0.072593
0.834809 0.000000 0.066975
0.877969 0.000000 0.070984
0.000000 0.039675 0.000000
0.014013 0.043410 0.000000
0.038979 0.041556 0.000000
0.064761 0.037897 0.000000
0.089830 0.035483 0.000000
0.114764 0.033088 0.000000
0.139637 0.030170 0.000000
0.164514 0.027185 0.000000
0.189902 0.024300 0.000000
0.216057 0.021339 0.000000
0.243004 0.018251 0.000000
0.270748 0.015044 0.000000
0.299350 0.011748 0.000000
0.328657 0.008315 0.000000
0.358661 0.004744 0.000000
0.389349 0.001031 0.000000
0.413306 0.000000 0.002995
0.435020 0.000000 0.006999
0.456987 0.000000 0.010970
0.479177 0.000000 0.014928
0.501590 0.000000 0.018824
0.524176 0.000000 0.022733
0.546980 0.000000 0.026671
0.572829 0.000000 0.030872
0.602983 0.000000 0.035440
0.636214 0.000000 0.040480
0.672156 0.000000 0.045952
0.710463 0.000000 0.051815
0.748961 0.000000 0.058342
0.788120 0.000000 0.065450
0.834864 0.000000 0.063102
0.885067 0.000000 0.056155
0.929404 0.000000 0.056596
0.000000 0.059955 0.000000
0.008770 0.066349 0.000000
0.033598 0.065044 0.000000
0.059499 0.063540 0.000000
0.085529 0.059564 0.000000
0.110981 0.055901 0.000000
0.136437 0.054088 0.000000
0.161774 0.051741 0.000000
0.186852 0.048607 0.000000
0.212540 0.045428 0.000000
0.238950 0.042165 0.000000
0.266297 0.038864 0.000000
0.294965 0.035633 0.000000
0.324388 0.032288 0.000000
0.354502 0.028805 0.000000
0.385295 0.025180 0.000000
0.416567 0.021258 0.000000
0.448334 0.017026 0.000000
0.480733 0.012595 0.000000
0.513748 0.007961 0.000000
0.547299 0.003157 0.000000
0.577108 0.000000 0.001808
0.599732 0.000000 0.006751
0.624883 0.000000 0.012000
0.654872 0.000000 0.017422
0.687972 0.000000 0.023286
0.723747 0.000000 0.029554
0.761971 0.000000 0.036155
0.801020 0.000000 0.043327
0.839929 0.000000 0.051298
0.885508 0.000000 0.051288
0.936832 0.000000 0.043053
0.983249 0.000000 0.039256
0.000000 0.080533 0.000000
0.003787 0.089656 0.000000
0.029367 0.089029 0.000000
0.053974 0.088247 0.000000
0.080672 0.086284 0.000000
0.106886 0.082050 0.000000
0.132494 0.077943 0.000000
0.158155 0.074846 0.000000
0.183986 0.072871 0.000000
0.210260 0.070522 0.000000
0.236662 0.067151 0.000000
0.263787 0.063710 0.000000
0.291884 0.060380 0.000000
0.320943 0.057111 0.000000
0.350828 0.053686 0.000000
0.381537 0.049920 0.000000
0.412923 0.046078 0.000000
0.444725 0.041948 0.000000
0.477163 0.037615 0.000000
0.510220 0.033077 0.000000
0.543878 0.028335 0.000000
0.578093 0.023402 0.000000
0.612909 0.018268 0.000000
0.651470 0.012449 0.000000
0.695933 0.006242 0.000000
0.743640 0.000000 0.000731
0.779250 0.000000 0.008248
0.817053 0.000000 0.016075
0.856366 0.000000 0.024270
0.895085 0.000000 0.033391
0.938989 0.000000 0.036406
0.990813 0.000000 0.027396
1.000000 0.000000 0.018540
0.000000 0.101415 0.000000
0.000000 0.112670 0.000000
0.024242 0.112557 0.000000
0.049711 0.111779 0.000000
0.075161 0.112423 0.000000
0.102468 0.109753 0.000000
0.128785 0.105313 0.000000
0.154490 0.100706 0.000000
0.180345 0.096391 0.000000
0.206877 0.094049 0.000000
0.234076 0.091832 0.000000
0.261868 0.089300 0.000000
0.289842 0.085838 0.000000
0.318846 0.082564 0.000000
0.348643 0.079217 0.000000
0.379207 0.075794 0.000000
0.410525 0.072291 0.000000
0.441959 0.068072 0.000000
0.473997 0.063317 0.000000
0.506955 0.058711 0.000000
0.540671 0.054061 0.000000
0.575023 0.049178 0.000000
0.609969 0.044097 0.000000
0.648666 0.038339 0.000000
0.693087 0.032110 0.000000
0.742640 0.025271 0.000000
0.796605 0.017606 0.000000
0.854328 0.008975 0.000000
0.914752 0.000000 0.000401
0.953305 0.000000 0.011099
0.995661 0.000000 0.017707
1.000000 0.000000 0.008789
1.000000 0.001986 0.000000
0.000000 0.122604 0.000000
0.000000 0.134047 0.000000
0.019034 0.136206 0.000000
0.045914 0.136770 0.000000
0.070522 0.135099 0.000000
0.097065 0.137458 0.000000
0.124900 0.134084 0.000000
0.151247 0.129302 0.000000
0.176970 0.123950 0.000000
0.203453 0.119459 0.000000
0.230762 0.115628 0.000000
0.258754 0.113355 0.000000
0.287499 0.110992 0.000000
0.317074 0.108613 0.000000
0.346809 0.105247 0.000000
0.377331 0.101815 0.000000
0.408617 0.098312 0.000000
0.440267 0.094440 0.000000
0.472349 0.090251 0.000000
0.504954 0.085822 0.000000
0.538176 0.080891 0.000000
0.572167 0.075512 0.000000
0.607251 0.070485 0.000000
0.646086 0.064789 0.000000
0.690477 0.058506 0.000000
0.740157 0.051803 0.000000
0.794327 0.044336 0.000000
0.851992 0.035704 0.000000
0.913366 0.026414 0.000000
0.978063 0.015485 0.000000
1.000000 0.005151 0.000000
1.000000 0.013014 0.000000
1.000000 0.022989 0.000000
0.000000 0.144103 0.000000
0.000000 0.155722 0.000000
0.014336 0.160410 0.000000
0.040893 0.160836 0.000000
0.066997 0.160751 0.000000
0.092494 0.160616 0.000000
0.119530 0.162345 0.000000
0.147965 0.159216 0.000000
0.174416 0.154093 0.000000
0.200321 0.147577 0.000000
0.227554 0.142898 0.000000
0.255615 0.138130 0.000000
0.284483 0.135384 0.000000
0.314278 0.133297 0.000000
0.344747 0.131049 0.000000
0.375724 0.128387 0.000000
0.406960 0.124864 0.000000
0.438784 0.121142 0.000000
0.471043 0.117105 0.000000
0.503810 0.112816 0.000000
0.537087 0.108281 0.000000
0.570937 0.103415 0.000000
0.605523 0.098336 0.000000
0.643934 0.092050 0.000000
0.688096 0.085440 0.000000
0.737906 0.078872 0.000000
0.792210 0.071548 0.000000
0.849941 0.063005 0.000000
0.911246 0.053701 0.000000
0.976127 0.043026 0.000000
1.000000 0.031271 0.000000
1.000000 0.036048 0.000000
1.000000 0.044327 0.000000
0.000000 0.165942 0.000000
0.000000 0.177737 0.000000
0.009641 0.184995 0.000000
0.035854 0.185040 0.000000
0.063460 0.186532 0.000000
0.088624 0.185576 0.000000
0.115005 0.186740 0.000000
0.142604 0.187720 0.000000
0.171646 0.185059 0.000000
0.198656 0.179575 0.000000
0.224833 0.172098 0.000000
0.252602 0.166718 0.000000
0.281540 0.161919 0.000000
0.311448 0.158195 0.000000
0.342031 0.156084 0.000000
0.373275 0.153809 0.000000
0.405177 0.151378 0.000000
0.437455 0.148340 0.000000
0.469902 0.144463 0.000000
0.502837 0.140321 0.000000
0.536268 0.135922 0.000000
0.570154 0.131136 0.000000
0.604664 0.126005 0.000000
0.643039 0.120295 0.000000
0.686784 0.113807 0.000000
0.736319 0.107045 0.000000
0.790316 0.099334 0.000000
0.848175 0.090926 0.000000
0.909389 0.081586 0.000000
0.974391 0.071115 0.000000
1.000000 0.059509 0.000000
1.000000 0.060123 0.000000
1.000000 0.066027 0.000000
0.000000 0.188474 0.000000
0.000000 0.200447 0.000000
0.004840 0.210310 0.000000
0.030685 0.209790 0.000000
0.058436 0.211573 0.000000
0.085263 0.212321 0.000000
0.110751 0.211623 0.000000
0.137942 0.213821 0.000000
0.166172 0.214249 0.000000
0.196293 0.211991 0.000000
0.224010 0.206170 0.000000
0.250473 0.197850 0.000000
0.278786 0.191587 0.000000
0.308694 0.186891 0.000000
0.339335 0.182164 0.000000
0.370684 0.179737 0.000000
0.402682 0.177421 0.000000
0.435273 0.174885 0.000000
0.468563 0.172263 0.000000
0.502001 0.168759 0.000000
0.535593 0.164500 0.000000
0.569587 0.159854 0.000000
0.604002 0.154651 0.000000
0.642288 0.148872 0.000000
0.685920 0.142293 0.000000
0.735448 0.136097 0.000000
0.789756 0.129492 0.000000
0.847225 0.120586 0.000000
0.907775 0.110532 0.000000
0.972823 0.100205 0.000000
1.000000 0.088746 0.000000
1.000000 0.085680 0.000000
1.000000 0.089210 0.000000
0.000000 0.211798 0.000000
0.000000 0.223944 0.000000
0.000000 0.236421 0.000000
0.025900 0.236005 0.000000
0.053252 0.237260 0.000000
0.081592 0.239570 0.000000
0.107470 0.239360 0.000000
0.133708 0.239635 0.000000
0.161292 0.241950 0.000000
0.190652 0.241977 0.000000
0.221986 0.240100 0.000000
0.250439 0.233960 0.000000
0.277463 0.224990 0.000000
0.306135 0.217666 0.000000
0.336765 0.212858 0.000000
0.368122 0.208014 0.000000
0.400198 0.204350 0.000000
0.432808 0.201835 0.000000
0.465990 0.199086 0.000000
0.500015 0.196438 0.000000
0.534859 0.193878 0.000000
0.569231 0.189694 0.000000
0.603531 0.184398 0.000000
0.641707 0.178531 0.000000
0.685234 0.171865 0.000000
0.734546 0.165453 0.000000
0.788777 0.158793 0.000000
0.846800 0.151241 0.000000
0.907273 0.141708 0.000000
0.971600 0.130649 0.000000
1.000000 0.119116 0.000000
1.000000 0.112910 0.000000
1.000000 0.114275 0.000000
0.000000 0.235907 0.000000
0.000000 0.248218 0.000000
0.000000 0.260832 0.000000
0.021009 0.263072 0.000000
0.047893 0.263586 0.000000
0.076379 0.266151 0.000000
0.104109 0.267815 0.000000
0.130139 0.267655 0.000000
0.157133 0.268798 0.000000
0.185470 0.271126 0.000000
0.216181 0.270868 0.000000
0.248575 0.269077 0.000000
0.277832 0.262628 0.000000
0.305487 0.253264 0.000000
0.334369 0.244700 0.000000
0.365708 0.239774 0.000000
0.397768 0.234810 0.000000
0.430351 0.229660 0.000000
0.463410 0.226764 0.000000
0.497323 0.223984 0.000000
0.532069 0.221305 0.000000
0.567624 0.218711 0.000000
0.603245 0.215227 0.000000
0.641290 0.209249 0.000000
0.684689 0.202476 0.000000
0.733755 0.195812 0.000000
0.787887 0.189073 0.000000
0.846041 0.181637 0.000000
0.906781 0.172669 0.000000
0.971175 0.162773 0.000000
1.000000 0.151044 0.000000
1.000000 0.141888 0.000000
1.000000 0.140911 0.000000
0.000000 0.260788 0.000000
0.000000 0.273258 0.000000
0.000000 0.285995 0.000000
0.015926 0.290983 0.000000
0.042488 0.290769 0.000000
0.070885 0.293237 0.000000
0.099889 0.296209 0.000000
0.126675 0.296830 0.000000
0.153154 0.296900 0.000000
0.181369 0.298884 0.000000
0.210879 0.301666 0.000000
0.242840 0.300944 0.000000
0.276007 0.298896 0.000000
0.306120 0.292304 0.000000
0.334393 0.282548 0.000000
0.363442 0.272640 0.000000
0.395476 0.267594 0.000000
0.428006 0.262293 0.000000
0.460923 0.256496 0.000000
0.494605 0.252349 0.000000
0.529237 0.249534 0.000000
0.564689 0.246817 0.000000
0.600565 0.243586 0.000000
0.640204 0.239817 0.000000
0.684276 0.234097 0.000000
0.733066 0.227149 0.000000
0.787076 0.220306 0.000000
0.845282 0.212917 0.000000
0.906227 0.204123 0.000000
0.970765 0.194398 0.000000
1.000000 0.183564 0.000000
1.000000 0.173194 0.000000
1.000000 0.169236 0.000000
0.000000 0.286431 0.000000
0.000000 0.299051 0.000000
0.000000 0.311899 0.000000
0.010685 0.319705 0.000000
0.037427 0.319541 0.000000
0.065230 0.320972 0.000000
0.094148 0.323900 0.000000
0.122795 0.326363 0.000000
0.149442 0.326583 0.000000
0.176907 0.326997 0.000000
0.206620 0.330052 0.000000
0.237381 0.333362 0.000440
0.270386 0.331734 0.001263
0.304294 0.329320 0.001738
0.335248 0.322922 0.000000
0.364130 0.312782 0.000000
0.393729 0.302393 0.000000
0.425827 0.296174 0.000000
0.458813 0.290481 0.000000
0.492277 0.284356 0.000000
0.526357 0.278548 0.000000
0.561693 0.275693 0.000000
0.597691 0.272530 0.000000
0.637457 0.268831 0.000000
0.682477 0.264432 0.000000
0.732461 0.259435 0.000000
0.786325 0.252462 0.000000
0.844493 0.245036 0.000000
0.905648 0.236417 0.000000
0.970369 0.226862 0.000000
1.000000 0.215925 0.000000
1.000000 0.205146 0.000000
1.000000 0.199585 0.000000
0.000000 0.312823 0.000000
0.000000 0.325585 0.000000
0.000000 0.338530 0.000000
0.005298 0.349218 0.000000
0.032197 0.349105 0.000000
0.059528 0.349491 0.000000
0.088378 0.352387 0.000000
0.117661 0.355516 0.000000
0.145479 0.356907 0.000000
0.173023 0.357320 0.000000
0.201924 0.358711 0.000000
0.232869 0.362270 0.000434
0.264864 0.365672 0.003011
0.298756 0.363234 0.003459
0.333377 0.360567 0.003731
0.365155 0.354197 0.001094
0.394687 0.343993 0.000000
0.424759 0.333276 0.000000
0.456848 0.325583 0.000000
0.490368 0.319548 0.000000
0.524365 0.313094 0.000000
0.558838 0.306240 0.000000
0.594740 0.302218 0.000000
0.634636 0.298588 0.000000
0.679782 0.294252 0.000000
0.730007 0.289601 0.000000
0.785463 0.285261 0.000000
0.843624 0.277929 0.000000
0.905014 0.269504 0.000000
0.969915 0.260095 0.000000
1.000000 0.249108 0.000000
1.000000 0.237779 0.000000
1.000000 0.231464 0.000000
0.000000 0.339948 0.000000
0.000000 0.352843 0.000000
0.000000 0.365912 0.000000
0.000000 0.379384 0.000000
0.026806 0.379441 0.000000
0.054073 0.379459 0.000000
0.082559 0.381647 0.000000
0.111760 0.384723 0.000000
0.141270 0.387856 0.000000
0.168950 0.388393 0.000000
0.197501 0.388988 0.000000
0.227908 0.391492 0.000097
0.260053 0.395155 0.002860
0.293295 0.398233 0.005498
0.327884 0.395530 0.005730
0.363237 0.392642 0.005854
0.396102 0.386431 0.003523
0.426141 0.376340 0.000000
0.456564 0.365062 0.000000
0.488576 0.355814 0.000000
0.522617 0.349430 0.000000
0.557112 0.342595 0.000000
0.592233 0.335264 0.000000
0.631730 0.329061 0.000000
0.677002 0.324790 0.000000
0.727217 0.320079 0.000000
0.782472 0.315519 0.000000
0.842249 0.310856 0.000000
0.904293 0.303338 0.000000
0.969371 0.294066 0.000000
1.000000 0.283065 0.000000
1.000000 0.271555 0.000000
1.000000 0.264132 0.000000
0.000000 0.367790 0.000000
0.000000 0.380807 0.000000
0.000000 0.393992 0.000000
0.000000 0.407533 0.000000
0.021259 0.410526 0.000000
0.048634 0.410589 0.000000
0.076675 0.411655 0.000000
0.105805 0.414683 0.000000
0.135372 0.417900 0.000000
0.164616 0.420059 0.000000
0.193287 0.420763 0.000000
0.222819 0.421523 0.000000
0.254793 0.424865 0.002339
0.288099 0.428972 0.005474
0.322293 0.431386 0.007868
0.357665 0.428503 0.008045
0.394142 0.425782 0.008518
0.427925 0.419605 0.006245
0.458306 0.409371 0.000522
0.489077 0.397644 0.000000
0.520950 0.386785 0.000000
0.555361 0.379863 0.000000
0.590322 0.372417 0.000000
0.629354 0.364198 0.000000
0.674123 0.356017 0.000000
0.724331 0.351245 0.000000
0.779370 0.346448 0.000000
0.838934 0.341550 0.000000
0.902659 0.336644 0.000000
0.968699 0.328722 0.000000
1.000000 0.317752 0.000000
1.000000 0.306037 0.000000
1.000000 0.297557 0.000000
0.000000 0.396331 0.000000
0.000000 0.409459 0.000000
0.000000 0.422749 0.000000
0.000000 0.436342 0.000000
0.015602 0.442315 0.000000
0.042974 0.442471 0.000000
0.070639 0.442661 0.000000
0.099825 0.445584 0.000000
0.129458 0.448827 0.000000
0.159918 0.452233 0.000000
0.189010 0.453351 0.000000
0.218542 0.454001 0.000412
0.249062 0.454878 0.001351
0.282302 0.458938 0.004432
0.316415 0.463131 0.007644
0.351573 0.464840 0.009862
0.388073 0.462136 0.010363
0.425651 0.459579 0.011140
0.460369 0.453455 0.008952
0.491089 0.442753 0.002752
0.522213 0.430922 0.000000
0.553541 0.417989 0.000000
0.588333 0.410416 0.000000
0.627192 0.402069 0.000000
0.671655 0.392638 0.000000
0.721334 0.383073 0.000000
0.776143 0.378022 0.000000
0.835480 0.372872 0.000000
0.899183 0.367957 0.000000
0.966857 0.362492 0.000000
1.000000 0.353115 0.000000
1.000000 0.341171 0.000000
1.000000 0.331692 0.000000
0.000000 0.425507 0.000231
0.000000 0.438780 0.000000
0.000000 0.452162 0.000000
0.000000 0.465791 0.000000
0.009837 0.474786 0.000000
0.037209 0.475020 0.000000
0.064863 0.475285 0.000000
0.093576 0.477103 0.000000
0.123387 0.480500 0.000000
0.154026 0.484054 0.000000
0.184877 0.486843 0.000738
0.214302 0.487315 0.001272
0.244547 0.487802 0.001816
0.276318 0.489485 0.003222
0.310393 0.493650 0.006433
0.345313 0.497931 0.009756
0.381461 0.498921 0.011810
0.419043 0.496364 0.012594
0.457673 0.493939 0.013634
0.493334 0.487883 0.011555
0.524215 0.476578 0.004730
0.555185 0.464042 0.000000
0.586683 0.450102 0.000000
0.624899 0.440717 0.000000
0.669173 0.431137 0.000000
0.718703 0.420755 0.000000
0.772776 0.410211 0.000000
0.831874 0.404797 0.000000
0.895537 0.399855 0.000000
0.963234 0.394434 0.000000
1.000000 0.387398 0.000000
1.000000 0.376904 0.000000
1.000000 0.366498 0.000000
0.000000 0.456280 0.001387
0.000000 0.469423 0.000000
0.000000 0.482428 0.000000
0.000000 0.495856 0.000000
0.003956 0.507921 0.000000
0.031324 0.508222 0.000000
0.058965 0.508550 0.000000
0.087021 0.509136 0.000000
0.116988 0.512668 0.000000
0.147780 0.516349 0.000000
0.179532 0.520029 0.000854
0.210059 0.521436 0.002367
0.240186 0.521799 0.002703
0.271108 0.522163 0.003037
0.304169 0.524726 0.005045
0.339030 0.528958 0.008344
0.374705 0.533283 0.011733
0.411866 0.533544 0.013626
0.450479 0.531096 0.014653
0.490058 0.528729 0.015860
0.526162 0.522395 0.013396
0.557046 0.510314 0.005854
0.588469 0.497433 0.000000
0.623279 0.481670 0.000000
0.666507 0.470337 0.000000
0.716045 0.460022 0.000000
0.770024 0.448573 0.000000
0.828099 0.437293 0.000000
0.891707 0.432303 0.000000
0.959417 0.426916 0.000000
1.000000 0.419914 0.000000
1.000000 0.411470 0.000000
1.000000 0.401926 0.000000
0.000000 0.487844 0.002663
0.000000 0.501308 0.000000
0.000000 0.514380 0.000000
0.000000 0.527578 0.000000
0.000000 0.541221 0.000000
0.025435 0.542209 0.000000
0.052944 0.542444 0.000000
0.080839 0.542830 0.000000
0.110266 0.545317 0.000000
0.141190 0.549108 0.000000
0.173070 0.553047 0.000038
0.205783 0.556328 0.003654
0.235792 0.556565 0.003790
0.266586 0.556793 0.003911
0.298153 0.557011 0.004013
0.332530 0.560515 0.006741
0.368124 0.564769 0.010082
0.404499 0.569092 0.013487
0.442818 0.568693 0.015354
0.482249 0.566210 0.016412
0.522172 0.563493 0.017162
0.558887 0.556986 0.014512
0.590219 0.544400 0.006644
0.624946 0.529839 0.000000
0.664401 0.511621 0.000000
0.713241 0.499988 0.000000
0.767241 0.488565 0.000000
0.825081 0.475843 0.000000
0.887674 0.465275 0.000000
0.955386 0.459909 0.000000
1.000000 0.452927 0.000000
1.000000 0.444477 0.000000
1.000000 0.436331 0.000000
0.000000 0.520099 0.004005
0.000000 0.533666 0.001116
0.000000 0.547005 0.000000
0.000000 0.560247 0.000000
0.000000 0.573675 0.000000
0.019797 0.577279 0.000000
0.047102 0.577329 0.000000
0.074755 0.577489 0.000000
0.103227 0.578439 0.000000
0.134261 0.582318 0.000000
0.166246 0.586345 0.000000
0.199166 0.589974 0.002765
0.231341 0.592071 0.005024
0.262029 0.592193 0.004978
0.293489 0.592310 0.004925
0.325916 0.592740 0.005135
0.361598 0.597069 0.008635
0.398103 0.601433 0.012194
0.435408 0.605820 0.015797
0.474455 0.604426 0.017154
0.514224 0.601581 0.017749
0.554475 0.598499 0.018040
0.591842 0.591798 0.015180
0.626470 0.577568 0.006279
0.666079 0.560738 0.000000
0.710514 0.541079 0.000000
0.764243 0.529166 0.000000
0.822084 0.516442 0.000000
0.884244 0.503500 0.000000
0.951123 0.493376 0.000000
1.000000 0.486404 0.000000
1.000000 0.477935 0.000000
1.000000 0.469601 0.000000
0.000000 0.552648 0.005101
0.000000 0.566686 0.002491
0.000000 0.580329 0.000000
0.000000 0.593600 0.000000
0.000000 0.606900 0.000000
0.014116 0.613149 0.000000
0.041227 0.613021 0.000000
0.068667 0.612982 0.000000
0.096487 0.613038 0.000000
0.126985 0.616029 0.000000
0.159054 0.620115 0.000000
0.192051 0.624055 0.001407
0.225952 0.627629 0.005315
0.257448 0.628484 0.006145
0.288918 0.628651 0.006195
0.321144 0.628802 0.006232
0.354984 0.630254 0.007357
0.391438 0.634481 0.010829
0.428676 0.638718 0.014332
0.466677 0.642948 0.017851
0.506214 0.640413 0.018462
0.546297 0.637185 0.018583
0.586924 0.633706 0.018401
0.627749 0.625636 0.014582
0.667619 0.609694 0.004882
0.711967 0.590859 0.000000
0.760973 0.570371 0.000000
0.818823 0.557640 0.000000
0.880856 0.544449 0.000000
0.947079 0.530838 0.000000
1.000000 0.520369 0.000000
1.000000 0.511870 0.000000
1.000000 0.503343 0.000000
0.000000 0.587913 0.005673
0.000000 0.601978 0.003132
0.000000 0.616158 0.000559
0.000000 0.630064 0.000000
0.000000 0.643787 0.000000
0.007857 0.653051 0.000000
0.034767 0.652733 0.000000
0.061987 0.652486 0.000000
0.089566 0.652313 0.000000
0.118677 0.653269 0.000000
0.150814 0.657394 0.000000
0.183868 0.661636 0.000000
0.217818 0.665285 0.003594
0.252096 0.668495 0.007044
0.283558 0.668695 0.007180
0.315770 0.668874 0.007297
0.348715 0.669027 0.007389
0.383742 0.671121 0.009105
0.420889 0.675180 0.012483
0.458780 0.679218 0.015858
0.497393 0.683220 0.019218
0.537250 0.680049 0.019239
0.577676 0.676392 0.018853
0.622570 0.672317 0.018399
0.668915 0.662840 0.014006
0.713141 0.645028 0.003008
0.761424 0.623848 0.000000
0.814874 0.602990 0.000000
0.876690 0.589447 0.000000
0.942690 0.575486 0.000000
1.000000 0.560428 0.000000
1.000000 0.549294 0.000000
1.000000 0.540553 0.000000
0.000000 0.627980 0.006265
0.000000 0.642050 0.003778
0.000000 0.656226 0.001257
0.000000 0.670263 0.000000
0.000000 0.684112 0.000000
0.000000 0.697606 0.000000
0.026956 0.697451 0.000000
0.054224 0.697219 0.000000
0.081722 0.696970 0.000000
0.109887 0.696697 0.000000
0.141135 0.699542 0.000000
0.174224 0.703783 0.000000
0.208198 0.707842 0.001400
0.243039 0.711496 0.005275
0.277088 0.713856 0.007778
0.309261 0.714039 0.007952
0.342159 0.714190 0.008095
0.375767 0.714301 0.008202
0.411650 0.716556 0.010096
0.449397 0.720362 0.013291
0.487789 0.724069 0.016386
0.526674 0.727598 0.019254
0.566725 0.724507 0.018940
0.611467 0.720268 0.018338
0.662614 0.715575 0.017877
0.713763 0.704609 0.012611
0.761897 0.685035 0.000308
0.813803 0.661396 0.000000
0.871368 0.639958 0.000000
0.937104 0.625586 0.000000
1.000000 0.609973 0.000000
1.000000 0.594046 0.000000
1.000000 0.582535 0.000000
0.000000 0.672398 0.006933
0.000000 0.686464 0.004418
0.000000 0.700622 0.001895
0.000000 0.714754 0.000000
0.000000 0.728614 0.000000
0.000000 0.742193 0.000000
0.017766 0.746723 0.000000
0.045104 0.746454 0.000000
0.072673 0.746164 0.000000
0.100912 0.745843 0.000000
0.130245 0.745934 0.000000
0.163077 0.749949 0.000000
0.196829 0.754077 0.000000
0.231490 0.757942 0.001900
0.267036 0.761532 0.005703
0.301014 0.763191 0.007464
0.333845 0.763275 0.007561
0.367379 0.763309 0.007609
0.401599 0.763285 0.007600
0.437906 0.765203 0.009154
0.475891 0.768536 0.011841
0.514479 0.771800 0.014454
0.553716 0.774985 0.016980
0.598011 0.772617 0.017130
0.648922 0.767673 0.016438
0.705732 0.762268 0.015858
0.761146 0.749786 0.009571
0.812664 0.727462 0.000000
0.868327 0.702555 0.000000
0.930073 0.680317 0.000000
0.998145 0.664106 0.000000
1.000000 0.647819 0.000000
1.000000 0.631969 0.000000
0.000000 0.720707 0.007647
0.000000 0.734741 0.005102
0.000000 0.748860 0.002537
0.000000 0.763057 0.000000
0.000000 0.776845 0.000000
0.000000 0.790506 0.000000
0.007441 0.800266 0.000000
0.034787 0.799957 0.000000
0.062398 0.799602 0.000000
0.090682 0.799208 0.000000
0.119758 0.798770 0.000000
0.150838 0.800206 0.000000
0.184235 0.803968 0.000000
0.218507 0.807802 0.000000
0.253632 0.811466 0.001167
0.289591 0.814729 0.004646
0.323616 0.815755 0.005746
0.357088 0.815694 0.005694
0.391234 0.815566 0.005573
0.426039 0.815361 0.005377
0.462600 0.816755 0.006454
0.500849 0.819712 0.008772
0.539726 0.822568 0.010980
0.582712 0.825539 0.013237
0.632670 0.823436 0.013540
0.689145 0.817687 0.012588
0.750499 0.810981 0.011089
0.809489 0.796751 0.003468
0.864846 0.772176 0.000000
