luts/Neutral A7s3 Sl2sg3c.cube
TITLE "Generated by Resolve"
LUT_3D_SIZE 9
0.021561 0.0204929 0.0209354
0.062501 0.0162356 0.0246433
0.25362 0.0166781 0.0618296
0.449409 0.0170596 0.118746
0.658839 0.028748 0.200061
0.887633 0.0546731 0.316213
0.987167 0.146242 0.441733
0.987228 0.290486 0.563668
0.987243 0.415976 0.663905
0.0153964 0.0684367 0.0255894
0.0565347 0.0629282 0.0200198
0.236072 0.03093 0.0394751
0.44184 0.020325 0.0953994
0.658442 0.034287 0.181552
0.884169 0.0605173 0.292638
0.986664 0.139803 0.418006
0.987228 0.266911 0.532494
0.987411 0.373114 0.619837
0 0.277089 0.0635996
0.0363622 0.270558 0.00244144
0.242863 0.268406 0.0208743
0.498695 0.203784 0.0919051
0.6589 0.142107 0.105364
0.894575 0.0529793 0.206577
0.98613 0.137377 0.387762
0.987305 0.28394 0.503258
0.987198 0.387396 0.601785
0 0.485039 0.137636
0.0152132 0.484382 0.0911116
0.169757 0.488655 0.0355077
0.454978 0.487922 0.0576181
0.714107 0.462745 0.161028
0.887282 0.40061 0.212284
1 0.258366 0.208896
0.986587 0.303517 0.433829
0.987182 0.391241 0.586267
0.0420233 0.694606 0.265843
0.0557717 0.694453 0.230823
0.0881056 0.696956 0.137591
0.43154 0.696681 0.111467
0.661952 0.70135 0.154879
0.889632 0.681041 0.269184
0.978454 0.658228 0.303471
0.993744 0.56463 0.308995
0.998932 0.468147 0.404562
0.126879 0.885252 0.400122
0.135622 0.88484 0.373938
0.161364 0.884352 0.317372
0.324666 0.892958 0.230488
0.643748 0.889616 0.247227
0.842802 0.886519 0.299428
0.978149 0.858793 0.452934
0.980102 0.847913 0.442435
0.974853 0.800214 0.424933
0.24062 0.983352 0.499931
0.24123 0.983612 0.481147
0.261982 0.983795 0.458579
0.382589 0.98674 0.430869
0.613657 0.98323 0.459174
0.814725 0.985931 0.491157
0.956008 0.975937 0.545251
1 0.958663 0.646113
1 0.956573 0.619257
0.452003 0.987152 0.61886
0.444434 0.987015 0.6047
0.456382 0.987137 0.598321
0.528206 0.987671 0.608682
0.64506 0.988251 0.624155
0.809781 0.986389 0.653483
0.931243 0.989975 0.682872
0.997909 0.986587 0.734813
0.999359 0.989303 0.819013
0.666697 0.989624 0.771435
0.64892 0.989349 0.752834
0.653391 0.989395 0.750057
0.673426 0.989639 0.751034
0.734295 0.990662 0.768933
0.837522 0.990402 0.793271
0.92401 0.992096 0.816464
0.981933 0.990646 0.841535
0.995819 0.991806 0.881056
0.0152132 0.0133669 0.0516365
0.0612192 0.0139467 0.0516365
0.251621 0.00982681 0.135271
0.446754 0.00965896 0.174365
0.648676 0.0209506 0.246098
0.874723 0.0378576 0.356741
0.987335 0.145022 0.471107
0.98732 0.290089 0.585992
0.987198 0.42269 0.681971
0.0161746 0.0602731 0.0545815
0.0554513 0.0542153 0.0547494
0.273198 0.0305333 0.0742199
0.448402 0.0168765 0.118257
0.659113 0.0295415 0.200595
0.885069 0.0555123 0.315007
0.98703 0.14464 0.439368
0.987121 0.283284 0.557382
0.987213 0.402594 0.652338
0 0.273304 0.137255
0 0.275776 0.0653697
0.240192 0.264958 0.0222171
0.492348 0.197208 0.0976425
0.680659 0.113375 0.123674
0.91078 0.0776074 0.251362
0.986206 0.161334 0.392523
0.987274 0.299229 0.532464
0.987137 0.415717 0.639307
0 0.481117 0.190967
0 0.485054 0.138354
0.103166 0.489509 0.0310369
0.453864 0.48658 0.0575265
0.716838 0.455024 0.171252
0.897475 0.380911 0.224567
1 0.216068 0.232654
0.987106 0.312184 0.483513
0.986969 0.448341 0.605707
0.0414435 0.690425 0.30544
0.0433661 0.694209 0.266194
0.0775616 0.696681 0.180209
0.404501 0.697871 0.116716
0.661341 0.700694 0.154742
0.893629 0.67718 0.280201
0.980545 0.648539 0.316014
1 0.52903 0.330434
0.988342 0.503151 0.511009
0.12813 0.882292 0.430289
0.12842 0.885039 0.40061
0.14992 0.886 0.354498
0.260273 0.894575 0.22739
0.63798 0.88957 0.247745
0.842664 0.886397 0.299855
0.979385 0.856443 0.459754
0.979812 0.843015 0.447745
0.97322 0.773419 0.439231
0.241672 0.982193 0.5187
0.241505 0.983276 0.500206
0.25008 0.984237 0.475212
0.356313 0.986542 0.434287
0.599344 0.983703 0.462333
0.811688 0.985992 0.49247
0.955932 0.975891 0.545327
1 0.957839 0.648829
1 0.954498 0.618814
0.45951 0.987274 0.632166
0.454276 0.987167 0.620111
0.462409 0.987228 0.6112
0.523064 0.98761 0.614893
0.639353 0.988663 0.628519
0.806424 0.986465 0.65594
0.930037 0.989914 0.683803
0.997879 0.986587 0.734783
0.999359 0.989303 0.819196
0.674678 0.989822 0.781903
0.668437 0.989654 0.772747
0.672068 0.989731 0.770199
0.683375 0.989899 0.764706
0.740032 0.990768 0.780224
0.836957 0.990631 0.798138
0.922927 0.99202 0.816434
0.981537 0.990631 0.841337
0.995819 0.991806 0.881086
0.0238956 0.0127871 0.205417
0.118105 0.00816358 0.211963
0.25333 0.00859083 0.223651
0.453208 0.00637827 0.282399
0.657847 0.023209 0.341909
0.875898 0.0337987 0.413886
0.987213 0.134234 0.499031
0.987442 0.28278 0.606729
0.987152 0.418692 0.695048
0.00903334 0.046067 0.186542
0.0292668 0.0154421 0.23682
0.2692 0.0101015 0.237644
0.447364 0.00683604 0.257298
0.653162 0.0197604 0.299199
0.866728 0.0284123 0.371572
0.987427 0.138537 0.47689
0.98735 0.274617 0.58349
0.987335 0.397604 0.669123
0 0.251453 0.230625
0.0019379 0.252628 0.232349
0.253635 0.25182 0.253574
0.505882 0.18732 0.241108
0.713558 0.0987716 0.251316
0.886488 0.0491951 0.313939
0.987167 0.160281 0.449699
0.987274 0.317403 0.582101
0.986816 0.460365 0.697505
0 0.472862 0.284749
0 0.475303 0.255848
0.0539101 0.475853 0.165713
0.454948 0.479133 0.173693
0.695766 0.437018 0.221622
0.923919 0.334981 0.270069
0.984878 0.228824 0.342397
0.98735 0.349416 0.519905
0.986435 0.484047 0.667964
0.0468605 0.683711 0.371069
0.0465248 0.686198 0.340154
0.0645914 0.688777 0.273304
0.321767 0.695262 0.147326
0.655802 0.693828 0.166384
0.89218 0.663828 0.331289
0.986328 0.624201 0.361776
1 0.500069 0.393561
0.986816 0.512459 0.611017
0.133791 0.876219 0.464576
0.131273 0.878782 0.443549
0.136156 0.884215 0.403052
0.20528 0.888609 0.270283
0.62388 0.88777 0.25304
0.841672 0.885435 0.301701
0.97937 0.850797 0.481819
0.980346 0.835233 0.475502
0.97525 0.754284 0.481254
0.243717 0.979385 0.541268
0.241352 0.980941 0.526406
0.246281 0.982849 0.50132
0.312383 0.986297 0.449256
0.573434 0.984878 0.469474
0.805997 0.98558 0.496574
0.955413 0.97554 0.545281
1 0.955932 0.658015
1 0.951324 0.631525
0.460136 0.987259 0.644404
0.45565 0.987259 0.634531
0.465888 0.987289 0.62649
0.505867 0.987427 0.617365
0.628931 0.988602 0.631144
0.799451 0.986481 0.658061
0.92845 0.989822 0.684642
0.997696 0.986542 0.733928
0.999252 0.98938 0.821042
0.674876 0.989853 0.786801
0.66865 0.989685 0.778683
0.675792 0.989822 0.778637
0.684047 0.989944 0.77142
0.735637 0.990723 0.781857
0.832349 0.990753 0.799191
0.921218 0.99202 0.817349
0.980865 0.990646 0.841489
0.995819 0.991806 0.881178
0.0337377 0.014435 0.366476
0.128557 0.00140383 0.388724
0.27892 0 0.3935
0.454551 0.0065156 0.414664
0.665553 0.0222019 0.475761
0.879667 0.0383459 0.542016
0.987121 0.0825666 0.573907
0.987671 0.251789 0.649912
0.987396 0.409552 0.723445
0 0.0328985 0.375845
0.0403143 0.0136721 0.399313
0.265446 0 0.418219
0.455009 0.0065919 0.415076
0.661845 0.0218509 0.464347
0.87538 0.0383001 0.51487
0.987106 0.0877699 0.553887
0.987625 0.244068 0.631281
0.987472 0.387671 0.702159
0 0.223163 0.381399
0 0.212863 0.401694
0.200977 0.178073 0.465339
0.500053 0.110597 0.459709
0.680476 0.0298466 0.448936
0.877775 0.0387884 0.467414
0.987366 0.110094 0.526375
0.987396 0.287556 0.630442
0.986877 0.452705 0.727672
0.00271611 0.448203 0.421118
0.00584421 0.449241 0.42237
0.0443885 0.442344 0.418006
0.455406 0.454582 0.456107
0.70251 0.401816 0.446433
0.929946 0.305348 0.432349
0.987243 0.159319 0.45359
0.987274 0.345312 0.603738
0.985901 0.521202 0.743801
0.0463111 0.67039 0.482338
0.0487984 0.671778 0.470893
0.0702068 0.671885 0.438468
0.292714 0.679347 0.396277
0.645823 0.670863 0.407889
0.870924 0.637995 0.431235
0.996658 0.561578 0.459861
0.988083 0.478325 0.501198
0.985641 0.527001 0.716869
0.136049 0.864591 0.543099
0.137743 0.865629 0.528649
0.145296 0.869276 0.500145
0.185687 0.871885 0.41622
0.566888 0.882078 0.404501
0.833417 0.872419 0.41146
0.978454 0.837354 0.52752
0.980133 0.812436 0.534279
0.974899 0.705562 0.569497
0.249195 0.972396 0.587732
0.248371 0.973327 0.577478
0.250889 0.975723 0.560769
0.263462 0.982116 0.506767
0.503075 0.987213 0.485298
0.790722 0.984573 0.508431
0.95433 0.97467 0.545846
1 0.951888 0.676234
1 0.942107 0.662821
0.463691 0.986374 0.673182
0.459098 0.986618 0.665644
0.468742 0.987289 0.659266
0.492546 0.987503 0.641398
0.597833 0.988388 0.640238
0.776806 0.986618 0.665003
0.924544 0.989593 0.687205
0.99736 0.986465 0.731579
0.999008 0.989548 0.825452
0.67657 0.989242 0.800488
0.669566 0.989273 0.792859
0.676783 0.989715 0.792691
0.693797 0.990112 0.791959
0.725093 0.990692 0.787518
0.818936 0.991257 0.802106
0.916976 0.992065 0.819699
0.979248 0.990662 0.8421
0.995804 0.991821 0.881483
0.0572213 0.0165713 0.525567
0.1458 0 0.5505
0.297505 0 0.561776
0.47068 0 0.572122
0.66273 0.0241245 0.609918
0.88983 0.0365301 0.666285
0.987335 0.0619059 0.716518
0.98851 0.182254 0.737377
0.987778 0.359762 0.781521
0.0241093 0.0267796 0.553857
0.0692607 0.0160372 0.55964
0.270619 0 0.588754
0.464561 0 0.57789
0.661875 0.0240787 0.608911
0.884916 0.0361028 0.657816
0.987442 0.0611276 0.705074
0.98854 0.170809 0.724788
0.987976 0.332219 0.766629
0 0.173266 0.550027
0 0.159075 0.564614
0.134325 0.0868391 0.633753
0.465507 0.0218357 0.638117
0.693248 0.0313573 0.634668
0.888029 0.0361028 0.649058
0.987427 0.063035 0.686809
0.988403 0.213092 0.722698
0.987366 0.41265 0.77966
0 0.428107 0.561852
0 0.424094 0.570169
0 0.408316 0.600229
0.409705 0.394522 0.654215
0.69659 0.330175 0.650813
0.918486 0.185382 0.64947
0.98706 0.0681315 0.629313
0.9879 0.255085 0.695445
0.986282 0.495064 0.792615
0.0501564 0.642573 0.61294
0.0526284 0.642969 0.613367
0.0707866 0.641413 0.612909
0.263767 0.642039 0.619165
0.63238 0.631601 0.633448
0.871305 0.595773 0.63209
0.986755 0.52192 0.608896
0.987259 0.397055 0.630304
0.984756 0.576989 0.788525
0.129061 0.844785 0.657038
0.130663 0.84535 0.651469
0.13933 0.847456 0.640269
0.185382 0.844633 0.598184
0.545327 0.851392 0.607843
0.811673 0.837568 0.612909
0.962112 0.812573 0.626291
0.980896 0.759213 0.636088
0.985779 0.663554 0.693431
0.24332 0.960922 0.678386
0.244282 0.961273 0.671962
0.250813 0.962402 0.659968
0.271839 0.96669 0.625406
0.493385 0.97528 0.612741
0.767025 0.971069 0.631266
0.946426 0.96437 0.63946
1 0.943465 0.71548
1 0.924346 0.720516
0.469001 0.984268 0.723568
0.467292 0.984329 0.718746
0.479591 0.984848 0.71574
0.503105 0.986206 0.706462
0.5402 0.9879 0.668879
0.729839 0.988037 0.677989
0.915389 0.989212 0.699077
0.996933 0.986465 0.731655
0.998505 0.989883 0.834577
0.677089 0.988022 0.824903
0.672084 0.987945 0.820386
0.680476 0.988296 0.8215
0.6981 0.98912 0.821851
0.719158 0.990677 0.810666
0.792264 0.991699 0.809049
0.90901 0.991852 0.824369
0.978073 0.991745 0.844465
0.995758 0.991852 0.882155
0.0787823 0.0249485 0.687724
0.192584 0 0.720409
0.325261 0 0.730724
0.481727 0 0.719829
0.664424 0 0.749859
0.886488 0.0378119 0.807614
0.984497 0.0584726 0.840238
0.984771 0.0838026 0.85919
0.985458 0.26305 0.875746
0.0427558 0.0367895 0.719005
0.0891432 0.0251164 0.715007
0.273991 0 0.747555
0.477775 0 0.743023
0.657755 0 0.748531
0.882216 0.0375067 0.804074
0.984543 0.0575723 0.834623
0.984802 0.0819562 0.854536
0.985824 0.233936 0.866682
0 0.131533 0.716976
0 0.119417 0.731517
0.0947127 0.0319982 0.788739
0.44361 0 0.804334
0.687022 0.0238651 0.803189
0.890806 0.0387732 0.811627
0.984634 0.0591592 0.836225
0.985214 0.0868696 0.849714
0.98613 0.337713 0.875395
0 0.396643 0.718563
0 0.387198 0.726299
0 0.364569 0.760723
0.353491 0.323507 0.827649
0.670024 0.240833 0.843275
0.900847 0.0910811 0.819135
0.985138 0.0649729 0.826139
0.986328 0.134463 0.839384
0.986145 0.433722 0.872709
0 0.621759 0.737453
0 0.618921 0.741634
0 0.614313 0.754177
0.129442 0.608011 0.79588
0.602213 0.594003 0.821927
0.865888 0.550271 0.820066
0.987015 0.446647 0.823514
0.987518 0.27219 0.809293
0.985565 0.519692 0.859281
0.124117 0.814923 0.782681
0.125689 0.815 0.782818
0.133989 0.81561 0.78381
0.171725 0.809918 0.778744
0.530999 0.814145 0.79382
0.795865 0.795666 0.796963
0.959594 0.768109 0.799023
0.984543 0.705547 0.776516
0.984207 0.623026 0.803098
0.228626 0.943221 0.798825
0.229557 0.943496 0.796002
0.235615 0.944305 0.790722
0.250004 0.946029 0.776562
0.48716 0.952392 0.768917
0.74255 0.949859 0.78677
0.929488 0.941863 0.79472
0.995056 0.927275 0.800595
0.989471 0.903044 0.836851
0.438849 0.983719 0.810025
0.440131 0.983734 0.807157
0.458228 0.983871 0.805707
0.496452 0.984268 0.800687
0.556481 0.985229 0.783215
0.71986 0.990616 0.792966
0.906096 0.991424 0.805997
0.991165 0.989731 0.819699
0.997269 0.989578 0.858366
0.673793 0.987594 0.861173
0.671626 0.987549 0.858793
0.682307 0.987686 0.860334
0.703212 0.988296 0.86331
0.72987 0.989013 0.861601
0.750744 0.991196 0.831312
0.889891 0.991272 0.833951
0.975799 0.993729 0.852201
0.995636 0.991943 0.884153
0.109819 0.0345769 0.842603
0.186252 0.0105592 0.864439
0.317281 0 0.879591
0.493294 0 0.87718
0.649226 0 0.862242
0.869612 0.029221 0.908934
0.982483 0.0556954 0.948501
0.983444 0.0782025 0.945739
0.984207 0.140032 0.946731
0.0701152 0.046891 0.860471
0.0887465 0.0418097 0.854231
0.258854 0 0.882399
0.480339 0 0.889143
0.656168 0 0.875761
0.866194 0.0289921 0.907576
0.982467 0.0551919 0.945357
0.983261 0.0767529 0.943206
0.984024 0.107515 0.938689
0 0.146822 0.851728
0 0.137346 0.863401
0.0624704 0.0560769 0.913848
0.414862 0 0.923339
0.67689 0 0.930236
0.8963 0.0357061 0.936385
0.982559 0.0570382 0.952789
0.98352 0.0809949 0.94612
0.984085 0.218296 0.958938
0 0.373938 0.833432
0 0.363928 0.840208
0 0.338903 0.873137
0.281483 0.277958 0.952026
0.626612 0.195224 0.960494
0.871366 0.0637369 0.936645
0.983017 0.0674601 0.952117
0.983474 0.0847334 0.94609
0.984298 0.338308 0.962203
0 0.612299 0.842176
0 0.607889 0.847471
0 0.600351 0.862242
0.121599 0.582849 0.912215
0.568597 0.570077 0.940429
0.847379 0.519615 0.953307
0.984024 0.404791 0.953323
0.984436 0.18088 0.943175
0.98378 0.447745 0.952239
0.00366217 0.790738 0.873365
0.00411994 0.789456 0.875883
0.0236667 0.788785 0.882277
0.103471 0.784527 0.895857
0.475761 0.785504 0.920607
0.773022 0.768597 0.927779
0.955352 0.735821 0.926925
0.982513 0.661128 0.92697
0.983063 0.551888 0.922789
0.216266 0.923873 0.899062
0.217395 0.923858 0.899062
0.223178 0.924132 0.899489
0.237186 0.924254 0.899901
0.458503 0.927443 0.907576
0.732815 0.925826 0.914809
0.917357 0.917266 0.917937
0.989578 0.903029 0.919814
0.989242 0.883757 0.932219
0.386206 0.983337 0.901884
0.38967 0.983383 0.901091
0.412619 0.983551 0.901289
0.458885 0.984192 0.90161
0.528115 0.985107 0.899687
0.723735 0.988891 0.905989
0.894453 0.989075 0.916701
0.982132 0.98587 0.921874
0.993469 0.983581 0.921248
0.652537 0.987305 0.916335
0.652964 0.987305 0.915419
0.667567 0.987564 0.915892
0.695857 0.988235 0.916442
0.730907 0.989013 0.916732
0.765866 0.989899 0.907744
0.877089 0.993118 0.914397
0.969589 0.994141 0.923445
0.994339 0.992889 0.935546
0.124147 0.0448768 0.946517
0.133196 0.0423133 0.947311
0.280476 0 0.960693
0.484596 0 0.964965
0.664866 0 0.958587
0.841566 0 0.961639
0.982422 0.0513466 0.982422
0.983185 0.0713512 0.983185
0.983642 0.0893568 0.983642
0.0845808 0.0553597 0.946044
0.10309 0.0506752 0.944595
0.226246 0.00788891 0.958389
0.463523 0 0.965347
0.669917 0 0.964309
0.834485 0 0.957153
0.982406 0.0514839 0.982406
0.983124 0.0704356 0.983124
0.983688 0.0870222 0.983688
0 0.155062 0.927428
0 0.151446 0.932723
0 0.116228 0.969009
0.360937 0 0.975448
0.650324 0 0.976135
0.897383 0.0259098 0.979049
0.982574 0.0534371 0.982574
0.983352 0.0737926 0.983352
0.983886 0.0959487 0.983902
0 0.373358 0.892164
0 0.364263 0.897887
0 0.339147 0.929839
0.151385 0.27718 0.968978
0.574563 0.192294 0.979873
0.842496 0.0627146 0.980591
0.983261 0.0716869 0.983261
0.983444 0.0770428 0.983444
0.984131 0.203677 0.984131
0 0.608896 0.899825
0 0.603876 0.905791
0 0.594553 0.922438
0.0563973 0.566674 0.960998
0.524788 0.564614 0.970428
0.810513 0.522362 0.982238
0.983963 0.419059 0.983963
0.984222 0.129213 0.984222
0.984207 0.333425 0.984207
0 0.786542 0.925658
0 0.784756 0.928603
0 0.781826 0.933761
0.0150454 0.774563 0.946731
0.453849 0.774838 0.969299
0.749798 0.759701 0.979904
0.944625 0.725078 0.982528
0.981094 0.647761 0.981094
0.982757 0.509636 0.982757
0.173526 0.912291 0.950454
0.175555 0.911757 0.951537
0.189197 0.911177 0.95407
0.226108 0.908232 0.958083
0.430076 0.910475 0.970565
0.709514 0.907073 0.978241
0.904814 0.90425 0.978653
0.988693 0.88632 0.978866
0.986862 0.838483 0.976928
0.337728 0.974411 0.959487
0.339727 0.97467 0.959808
0.362295 0.975738 0.961578
0.423331 0.976547 0.963623
0.510155 0.977386 0.965988
0.708812 0.979065 0.971237
0.887907 0.979629 0.975677
0.976837 0.976806 0.977005
0.993378 0.979446 0.983383
0.624308 0.985916 0.962844
0.625956 0.985977 0.9626
0.642359 0.986435 0.963546
0.673426 0.987228 0.964813
0.712001 0.988235 0.967071
0.750698 0.989349 0.966461
0.882078 0.992569 0.970291
0.967391 0.994003 0.97528
0.993622 0.993423 0.979843
0.113909 0.0517433 0.972503
0.110948 0.0525521 0.972457
0.231357 0.00784314 0.975158
0.457374 0 0.975433
0.671778 0 0.976165
0.843519 0 0.977386
0.981674 0.0390784 0.981674
0.982925 0.0630045 0.982925
0.98352 0.0819409 0.983536
0.076524 0.061265 0.971939
0.0959335 0.0567636 0.97232
0.174746 0.0309758 0.973938
0.434379 0 0.975464
0.669352 0 0.97612
0.838315 0 0.97731
0.981643 0.0386969 0.981643
0.982925 0.063035 0.982925
0.98349 0.0802777 0.98349
0 0.161013 0.955947
0 0.157641 0.96025
0 0.150393 0.967132
0.27097 0 0.975814
0.612192 0 0.975967
0.883406 0.0204166 0.978607
0.981567 0.0375982 0.981567
0.982956 0.0640726 0.982956
0.983764 0.0866255 0.983764
0 0.377066 0.918975
0 0.373053 0.921401
0 0.362188 0.949599
0 0.318944 0.959747
0.512993 0.228351 0.979431
0.805737 0.0999161 0.981445
0.983154 0.0711528 0.983139
0.983154 0.0659648 0.983154
0.983856 0.0933547 0.983856
0 0.613184 0.923186
0 0.608103 0.928954
0 0.60238 0.945235
0 0.580056 0.961013
0.420768 0.569848 0.971313
0.750484 0.543648 0.98201
0.97348 0.45626 0.983352
0.98436 0.176593 0.98436
0.983932 0.101152 0.983948
0 0.788647 0.946029
0 0.787106 0.94934
0 0.785199 0.954986
0 0.775143 0.962753
0.37464 0.772641 0.968673
0.712734 0.765499 0.979248
0.920363 0.738064 0.98291
0.981216 0.668482 0.981216
0.982971 0.49691 0.982971
0.0759594 0.91043 0.970108
0.0777295 0.909957 0.971252
0.102907 0.909606 0.973678
0.181247 0.905776 0.976577
0.422004 0.904463 0.978531
0.701564 0.904005 0.985229
0.888365 0.901793 0.988556
0.985534 0.883925 0.988479
0.986313 0.830503 0.986313
0.307057 0.966827 0.979446
0.308721 0.966857 0.980026
0.325826 0.968536 0.981765
0.392935 0.970779 0.982376
0.537743 0.970886 0.983215
0.697795 0.972305 0.987015
0.87422 0.973632 0.991714
0.971374 0.972763 0.992264
0.992203 0.964706 0.992203
0.601419 0.984665 0.984665
0.603616 0.984695 0.984756
0.619944 0.984939 0.985656
0.650446 0.985672 0.986496
0.693538 0.986923 0.987686
0.738781 0.988266 0.988922
0.872541 0.992264 0.992599
0.966125 0.993667 0.993744
0.993469 0.993469 0.993469
