luts/Neutral A7s3 Sl2sg3c.cube
TITLE "Generated by Resolve"
LUT_3D_SIZE 5
0.021561 0.0204929 0.0209354
0.25362 0.0166781 0.0618296
0.658839 0.028748 0.200061
0.987167 0.146242 0.441733
0.987243 0.415976 0.663905
0 0.277089 0.0635996
0.242863 0.268406 0.0208743
0.6589 0.142107 0.105364
0.98613 0.137377 0.387762
0.987198 0.387396 0.601785
0.0420233 0.694606 0.265843
0.0881056 0.696956 0.137591
0.661952 0.70135 0.154879
0.978454 0.658228 0.303471
0.998932 0.468147 0.404562
0.24062 0.983352 0.499931
0.261982 0.983795 0.458579
0.613657 0.98323 0.459174
0.956008 0.975937 0.545251
1 0.956573 0.619257
0.666697 0.989624 0.771435
0.653391 0.989395 0.750057
0.734295 0.990662 0.768933
0.92401 0.992096 0.816464
0.995819 0.991806 0.881056
0.0238956 0.0127871 0.205417
0.25333 0.00859083 0.223651
0.657847 0.023209 0.341909
0.987213 0.134234 0.499031
0.987152 0.418692 0.695048
0 0.251453 0.230625
0.253635 0.25182 0.253574
0.713558 0.0987716 0.251316
0.987167 0.160281 0.449699
0.986816 0.460365 0.697505
0.0468605 0.683711 0.371069
0.0645914 0.688777 0.273304
0.655802 0.693828 0.166384
0.986328 0.624201 0.361776
0.986816 0.512459 0.611017
0.243717 0.979385 0.541268
0.246281 0.982849 0.50132
0.573434 0.984878 0.469474
0.955413 0.97554 0.545281
1 0.951324 0.631525
0.674876 0.989853 0.786801
0.675792 0.989822 0.778637
0.735637 0.990723 0.781857
0.921218 0.99202 0.817349
0.995819 0.991806 0.881178
0.0572213 0.0165713 0.525567
0.297505 0 0.561776
0.66273 0.0241245 0.609918
0.987335 0.0619059 0.716518
0.987778 0.359762 0.781521
0 0.173266 0.550027
0.134325 0.0868391 0.633753
0.693248 0.0313573 0.634668
0.987427 0.063035 0.686809
0.987366 0.41265 0.77966
0.0501564 0.642573 0.61294
0.0707866 0.641413 0.612909
0.63238 0.631601 0.633448
0.986755 0.52192 0.608896
0.984756 0.576989 0.788525
0.24332 0.960922 0.678386
0.250813 0.962402 0.659968
0.493385 0.97528 0.612741
0.946426 0.96437 0.63946
1 0.924346 0.720516
0.677089 0.988022 0.824903
0.680476 0.988296 0.8215
0.719158 0.990677 0.810666
0.90901 0.991852 0.824369
0.995758 0.991852 0.882155
0.109819 0.0345769 0.842603
0.317281 0 0.879591
0.649226 0 0.862242
0.982483 0.0556954 0.948501
0.984207 0.140032 0.946731
0 0.146822 0.851728
0.0624704 0.0560769 0.913848
0.67689 0 0.930236
0.982559 0.0570382 0.952789
0.984085 0.218296 0.958938
0 0.612299 0.842176
0 0.600351 0.862242
0.568597 0.570077 0.940429
0.984024 0.404791 0.953323
0.98378 0.447745 0.952239
0.216266 0.923873 0.899062
0.223178 0.924132 0.899489
0.458503 0.927443 0.907576
0.917357 0.917266 0.917937
0.989242 0.883757 0.932219
0.652537 0.987305 0.916335
0.667567 0.987564 0.915892
0.730907 0.989013 0.916732
0.877089 0.993118 0.914397
0.994339 0.992889 0.935546
0.113909 0.0517433 0.972503
0.231357 0.00784314 0.975158
0.671778 0 0.976165
0.981674 0.0390784 0.981674
0.98352 0.0819409 0.983536
0 0.161013 0.955947
0 0.150393 0.967132
0.612192 0 0.975967
0.981567 0.0375982 0.981567
0.983764 0.0866255 0.983764
0 0.613184 0.923186
0 0.60238 0.945235
0.420768 0.569848 0.971313
0.97348 0.45626 0.983352
0.983932 0.101152 0.983948
0.0759594 0.91043 0.970108
0.102907 0.909606 0.973678
0.422004 0.904463 0.978531
0.888365 0.901793 0.988556
0.986313 0.830503 0.986313
0.601419 0.984665 0.984665
0.619944 0.984939 0.985656
0.693538 0.986923 0.987686
0.872541 0.992264 0.992599
0.993469 0.993469 0.993469
