luts/Neutral A7s3 Sl2sg3c.cube
TITLE "Generated by Resolve"
LUT_3D_SIZE 33
0.021561 0.0204929 0.0209354
0.021561 0.0204929 0.0209354
0.021561 0.0204929 0.0209354
0.0229801 0.0209354 0.0205844
0.062501 0.0162356 0.0246433
0.112779 0.017319 0.0328679
0.158358 0.018143 0.0424048
0.205936 0.0176852 0.0518959
0.25362 0.0166781 0.0618296
0.302953 0.0158389 0.0726329
0.35172 0.0180362 0.0830549
0.399863 0.0155947 0.0999924
0.449409 0.0170596 0.118746
0.499916 0.0204013 0.138079
0.551919 0.0240635 0.157473
0.605112 0.0276341 0.177859
0.658839 0.028748 0.200061
0.714595 0.0313573 0.225269
0.773358 0.0357671 0.253498
0.832929 0.0438392 0.28397
0.887633 0.0546731 0.316213
0.936049 0.0673533 0.349279
0.975021 0.0855116 0.382422
0.986618 0.112551 0.412024
0.987167 0.146242 0.441733
0.987274 0.181415 0.471977
0.987366 0.216861 0.502419
0.987152 0.252125 0.532662
0.987228 0.290486 0.563668
0.987411 0.327504 0.593118
0.987381 0.361089 0.619486
0.98732 0.390158 0.643168
0.987243 0.415976 0.663905
0.021561 0.0204929 0.0209354
0.021561 0.0204929 0.0209354
0.021561 0.0204929 0.0209354
0.0226749 0.0210117 0.0205386
0.0585184 0.016968 0.0239109
0.108827 0.0171054 0.0318761
0.155322 0.0182498 0.0416724
0.203449 0.0178378 0.0512245
0.252033 0.0167697 0.0613107
0.302052 0.0158541 0.072221
0.35172 0.0180362 0.0830549
0.399863 0.0155947 0.0999924
0.449409 0.0170596 0.118746
0.499916 0.0204013 0.138079
0.551919 0.0240635 0.157473
0.605112 0.0276341 0.177859
0.658839 0.028748 0.200061
0.714229 0.0314031 0.224857
0.771878 0.035874 0.252079
0.830564 0.0438544 0.281498
0.884855 0.05449 0.312749
0.933288 0.0668956 0.345098
0.972763 0.0846571 0.377142
0.986603 0.110094 0.4065
0.986938 0.142718 0.435218
0.987228 0.176654 0.464851
0.987213 0.210803 0.494057
0.987366 0.244633 0.523369
0.987137 0.2804 0.55198
0.987274 0.314824 0.580102
0.987381 0.346197 0.605066
0.987442 0.373419 0.627161
0.987152 0.396521 0.645869
0.021561 0.0204929 0.0209354
0.021561 0.0204929 0.0209354
0.021561 0.0204929 0.0209354
0.0219577 0.0211185 0.0204929
0.0463111 0.0205081 0.021973
0.0911116 0.0181735 0.0281529
0.138399 0.018967 0.037705
0.188159 0.0186923 0.047425
0.238926 0.0175174 0.0575113
0.290867 0.0163272 0.0680858
0.343893 0.0155642 0.0832837
0.393912 0.016556 0.0962692
0.4448 0.0168917 0.115312
0.497017 0.0201724 0.135973
0.5505 0.0241855 0.15642
0.603098 0.0278325 0.176135
0.656229 0.0291447 0.197604
0.71104 0.0316014 0.222034
0.768582 0.0359808 0.249149
0.827787 0.0438697 0.278416
0.882017 0.0543374 0.309377
0.930953 0.0666056 0.34165
0.970382 0.0834363 0.3738
0.986526 0.107637 0.403128
0.986877 0.139635 0.431235
0.987243 0.173083 0.460227
0.987381 0.206241 0.489128
0.987243 0.238666 0.517082
0.98703 0.271702 0.54464
0.987198 0.305318 0.571328
0.987259 0.335119 0.595453
0.987366 0.361059 0.616419
0.987381 0.383017 0.634241
0.0205081 0.0231632 0.0205234
0.0208286 0.0230869 0.0205692
0.0215915 0.0229496 0.0205844
0.0228122 0.0228275 0.0205844
0.0347906 0.0242466 0.021088
0.0712139 0.0224765 0.0244602
0.122484 0.0222934 0.033402
0.172 0.0195468 0.0431525
0.225971 0.0187381 0.0536965
0.279774 0.0171054 0.0644694
0.334661 0.0157168 0.076936
0.388174 0.0145876 0.097261
0.438788 0.0172885 0.11075
0.492134 0.0201877 0.131868
0.546105 0.0241703 0.152728
0.599115 0.0280766 0.172656
0.653361 0.0296635 0.1944
0.708125 0.0320897 0.218677
0.765835 0.0364538 0.245777
0.824796 0.0440223 0.275074
0.879118 0.0542611 0.305913
0.928313 0.0663615 0.337865
0.968185 0.0826429 0.369787
0.98645 0.105257 0.399527
0.986969 0.136812 0.427558
0.987198 0.169253 0.455955
0.987228 0.201541 0.484031
0.987335 0.233188 0.511482
0.987228 0.264103 0.537575
0.987091 0.296193 0.563058
0.987259 0.325154 0.586053
0.987381 0.349813 0.606287
0.987305 0.370581 0.623163
0.0153964 0.0684367 0.0255894
0.0161288 0.0667277 0.0244144
0.0226902 0.0623941 0.0192264
0.0344854 0.0571756 0.0196231
0.0565347 0.0629282 0.0200198
0.09691 0.0593271 0.0274968
0.137392 0.0513619 0.0315557
0.182376 0.0425269 0.0341802
0.236072 0.03093 0.0394751
0.292515 0.0276036 0.0543221
0.3449 0.0239109 0.0645914
0.391821 0.0200198 0.0753643
0.44184 0.020325 0.0953994
0.500511 0.0212863 0.120058
0.553887 0.0258946 0.145144
0.606363 0.0292515 0.16701
0.658442 0.034287 0.181552
0.713848 0.0378119 0.20528
0.771756 0.043061 0.232013
0.830121 0.0509957 0.261631
0.884169 0.0605173 0.292638
0.931868 0.0717327 0.324926
0.971099 0.0876631 0.358068
0.986236 0.108995 0.388968
0.986664 0.139803 0.418006
0.987167 0.172259 0.447639
0.987305 0.204242 0.476967
0.987228 0.235355 0.505089
0.987228 0.266911 0.532494
0.987167 0.299641 0.558114
0.987381 0.327916 0.582193
0.987274 0.352377 0.60238
0.987411 0.373114 0.619837
0.0108797 0.123522 0.0301213
0.011368 0.122545 0.0290074
0.01561 0.116442 0.0213931
0.0304723 0.111086 0.0179751
0.066804 0.114229 0.0193942
0.104616 0.115663 0.0203403
0.153704 0.113481 0.0248875
0.210697 0.0965896 0.0405432
0.249287 0.0865339 0.0441291
0.29424 0.0756237 0.0449989
0.343267 0.0601663 0.0462654
0.395148 0.0419471 0.0506752
0.449607 0.0310216 0.0665446
0.50428 0.0252079 0.0918593
0.551308 0.0204013 0.11133
0.605173 0.0304417 0.140597
0.669505 0.0357671 0.171862
0.723217 0.0374609 0.198306
0.779553 0.0400549 0.22797
0.835935 0.056611 0.248356
0.888411 0.0658427 0.27953
0.935637 0.0771649 0.312657
0.973205 0.0920424 0.347127
0.986023 0.112306 0.378958
0.986633 0.143084 0.409598
0.986938 0.174609 0.440238
0.987243 0.206592 0.470771
0.987198 0.237537 0.499809
0.987243 0.269734 0.527718
0.987228 0.302327 0.553826
0.987305 0.33077 0.578012
0.987274 0.354757 0.599145
0.987366 0.375418 0.616785
0.00390631 0.174609 0.0369573
0.00445563 0.174243 0.0355688
0.00901808 0.168856 0.0247349
0.0227512 0.163561 0.0116121
0.0661784 0.166247 0.0171511
0.109468 0.167224 0.0158236
0.148577 0.165042 0.0194553
0.20235 0.163195 0.0197147
0.273121 0.14255 0.0435035
0.327184 0.120439 0.0547646
0.36112 0.11426 0.0555428
0.403204 0.100649 0.057435
0.449302 0.0803998 0.0604257
0.497566 0.0567941 0.0656138
0.553384 0.0394141 0.0826734
0.608881 0.0352636 0.112276
0.659068 0.0287938 0.137011
0.718151 0.0383154 0.171618
0.790753 0.0489662 0.209827
0.845045 0.0542306 0.24303
0.894072 0.0601816 0.278798
0.939513 0.0822461 0.299413
0.97615 0.0971695 0.333959
0.985672 0.116655 0.366415
0.986419 0.147173 0.398749
0.986801 0.178149 0.431067
0.987137 0.209415 0.462882
0.987305 0.24036 0.493156
0.987198 0.272709 0.521996
0.987259 0.305455 0.548974
0.987137 0.334112 0.573098
0.987259 0.358053 0.594797
0.987152 0.378225 0.612955
0 0.225727 0.0481727
0 0.225498 0.0461891
0.00172427 0.220905 0.0312047
0.00727855 0.216327 0.010956
0.0540475 0.218891 0.0105898
0.110842 0.218601 0.0151217
0.144213 0.219257 0.0132601
0.194507 0.215869 0.0194553
0.253498 0.214466 0.0149844
0.332723 0.193851 0.048127
0.391577 0.16965 0.0659648
0.431479 0.155337 0.0713512
0.466224 0.146181 0.0724193
0.508141 0.129397 0.075227
0.553933 0.107118 0.0803998
0.601328 0.0809796 0.0882887
0.658427 0.0540017 0.102846
0.716655 0.0458686 0.137087
0.772549 0.0361639 0.166003
0.842603 0.0541085 0.2094
0.905882 0.0709697 0.254749
0.946166 0.0780194 0.29366
0.97908 0.0886854 0.334081
0.985306 0.121889 0.350545
0.986038 0.151644 0.384375
0.986679 0.183001 0.418082
0.986954 0.213748 0.451469
0.987243 0.244541 0.48333
0.987259 0.277684 0.513817
0.987243 0.309499 0.542046
0.987305 0.33817 0.567315
0.987213 0.362173 0.589441
0.987259 0.382086 0.60827
0 0.277089 0.0635996
0 0.277073 0.0617533
0 0.273152 0.0435798
0.000488289 0.269642 0.0260624
0.0363622 0.270558 0.00244144
0.0952468 0.272358 0.0115969
0.142046 0.272312 0.0143587
0.184085 0.27277 0.0134737
0.242863 0.268406 0.0208743
0.307576 0.26772 0.010544
0.385565 0.249287 0.0507362
0.44947 0.225895 0.0770581
0.498695 0.203784 0.0919051
0.529702 0.196307 0.0935683
0.569207 0.182391 0.0952773
0.612787 0.164996 0.099443
0.6589 0.142107 0.105364
0.709804 0.110185 0.113832
0.770871 0.0697795 0.128954
0.834638 0.0549477 0.169299
0.894575 0.0529793 0.206577
0.949096 0.0887007 0.258106
0.982864 0.10042 0.30518
0.985046 0.113512 0.345907
0.98613 0.137377 0.387762
0.986282 0.187579 0.40235
0.986847 0.218936 0.437369
0.98706 0.249531 0.470726
0.987305 0.28394 0.503258
0.987305 0.315557 0.532738
0.987366 0.343511 0.559487
0.987289 0.367514 0.582238
0.987198 0.387396 0.601785
0 0.330114 0.0798199
0 0.330129 0.0787671
0 0.327504 0.0627756
0 0.324544 0.0423285
0.0214694 0.323156 0.002121
0.0664073 0.326711 0.00590524
0.125368 0.327947 0.014847
0.179248 0.32755 0.0178225
0.227085 0.328008 0.0164034
0.294423 0.323583 0.0243534
0.361715 0.324376 0.00418097
0.434089 0.310384 0.0508278
0.503487 0.288258 0.0882277
0.5561 0.268681 0.108736
0.593454 0.255024 0.117662
0.630274 0.242496 0.121889
0.671855 0.226932 0.123964
0.718181 0.204334 0.12813
0.766598 0.174517 0.133364
0.825925 0.133715 0.142123
0.886183 0.0848402 0.159548
0.937392 0.0622721 0.2
0.984833 0.0960403 0.25481
0.983993 0.12813 0.305028
0.985534 0.148501 0.356909
0.986297 0.174945 0.402472
0.986954 0.202625 0.444678
0.987015 0.256367 0.455817
0.987182 0.290929 0.489952
0.98735 0.32256 0.521263
0.987366 0.34995 0.549096
0.98735 0.373587 0.573297
0.987121 0.393469 0.593759
0 0.381659 0.0964828
0 0.381659 0.0964828
0 0.380377 0.0831311
0 0.377905 0.062211
0.00610361 0.377676 0.0293889
0.0347906 0.377417 0.00363165
0.0941024 0.381003 0.0124971
0.160708 0.381537 0.0223087
0.222324 0.380529 0.0223697
0.272786 0.382177 0.0200809
0.347799 0.377966 0.0306249
0.414908 0.380865 0
0.484916 0.369985 0.0532692
0.555871 0.352605 0.100969
0.61091 0.33608 0.126482
0.653361 0.323262 0.140093
0.687388 0.31313 0.147112
0.731914 0.292119 0.154238
0.778622 0.270542 0.155505
0.827939 0.24152 0.157733
0.876646 0.202197 0.161257
0.931594 0.15407 0.168353
0.978317 0.0988022 0.190478
0.989487 0.111406 0.241306
0.98407 0.168521 0.306828
0.985595 0.188281 0.365515
0.986465 0.213565 0.415427
0.98703 0.240085 0.459953
0.987335 0.269535 0.499397
0.987366 0.329809 0.507393
0.987488 0.357473 0.536812
0.987442 0.380865 0.562081
0.987335 0.400977 0.584039
0 0.433204 0.115419
0 0.433204 0.115419
0 0.432471 0.104875
0 0.430518 0.0857557
0.00808728 0.431785 0.0617533
0.0198215 0.430747 0.027924
0.0551461 0.431342 0.0174868
0.127077 0.435233 0.0246891
0.20415 0.43447 0.030045
0.27158 0.432883 0.0247044
0.322576 0.437263 0.0279088
0.401007 0.432868 0.0408789
0.468513 0.436301 0.00502022
0.536492 0.427985 0.059556
0.606546 0.414466 0.1149
0.663264 0.400381 0.143297
0.709957 0.387854 0.16054
0.742626 0.381323 0.167712
0.788678 0.359915 0.1794
0.837827 0.333944 0.18468
0.883574 0.307424 0.18468
0.926574 0.273732 0.185168
0.969772 0.230213 0.188067
1 0.172381 0.19144
0.996231 0.133761 0.221942
0.988861 0.188418 0.296849
0.985367 0.231281 0.36614
0.986557 0.254597 0.425681
0.987182 0.283467 0.473548
0.987243 0.311269 0.514092
0.987381 0.336767 0.549111
0.987564 0.388998 0.548775
0.987366 0.409064 0.572122
0 0.485039 0.137636
0 0.485039 0.137636
0 0.485069 0.129274
0.00222782 0.483467 0.112627
0.0152132 0.484382 0.0911116
0.0231022 0.485222 0.0686198
0.0301671 0.484291 0.0319219
0.0863203 0.486702 0.027985
0.169757 0.488655 0.0355077
0.255436 0.486702 0.0386511
0.320226 0.486824 0.0308843
0.374609 0.492683 0.0422675
0.454978 0.487922 0.0576181
0.521233 0.491585 0.0155795
0.587518 0.485725 0.0661936
0.655268 0.475898 0.128786
0.714107 0.462745 0.161028
0.763973 0.450614 0.181353
0.798657 0.443961 0.189883
0.841291 0.427924 0.20087
0.887282 0.40061 0.212284
0.931075 0.371771 0.214374
0.967605 0.341405 0.212253
0.999573 0.301701 0.211002
1 0.258366 0.208896
1 0.189059 0.208057
0.997223 0.211704 0.279591
0.985428 0.283009 0.368811
0.986587 0.303517 0.433829
0.987198 0.328496 0.483833
0.987503 0.35201 0.524544
0.987427 0.372915 0.55848
0.987182 0.391241 0.586267
0.00187686 0.537408 0.165225
0.00187686 0.537408 0.165225
0.00427253 0.537942 0.158801
0.0138857 0.536645 0.143694
0.0232853 0.536889 0.121416
0.0275425 0.538293 0.106905
0.0345922 0.538857 0.078584
0.0580301 0.538552 0.041001
0.12932 0.541405 0.0417334
0.223285 0.541512 0.0513008
0.313573 0.539284 0.0510872
0.371542 0.542565 0.0449226
0.427985 0.548333 0.0632944
0.508186 0.542168 0.0777752
0.573556 0.545892 0.0324254
0.637476 0.542031 0.0734569
0.704616 0.533074 0.146365
0.764385 0.52163 0.181781
0.815381 0.510094 0.204425
0.849912 0.503532 0.214145
0.88426 0.492439 0.222492
0.925536 0.470634 0.233509
0.966461 0.438102 0.244144
0.997604 0.408255 0.243244
1 0.373938 0.23743
1 0.334569 0.232303
1 0.282155 0.228672
1 0.25922 0.270604
0.994446 0.31252 0.35729
0.986694 0.354757 0.430503
0.987442 0.371923 0.488365
0.987579 0.390921 0.529473
0.987427 0.408011 0.562509
0.0196231 0.590143 0.196612
0.0196231 0.590143 0.196612
0.0202335 0.590616 0.19266
0.0238041 0.590066 0.179202
0.0297246 0.590188 0.158343
0.035523 0.590661 0.140429
0.0417029 0.592248 0.123888
0.0530251 0.592828 0.0855726
0.092546 0.592401 0.0518349
0.186358 0.595087 0.0624857
0.286152 0.594156 0.0713664
0.37821 0.591608 0.0636759
0.423651 0.598077 0.0636149
0.483589 0.602991 0.0849928
0.560601 0.595972 0.10016
0.624537 0.598657 0.057496
0.687831 0.59649 0.0923629
0.756695 0.586404 0.170031
0.81236 0.577859 0.207492
0.858305 0.568017 0.230304
0.89131 0.561593 0.240894
0.919417 0.554131 0.246571
0.953231 0.536828 0.256123
0.986282 0.511635 0.2654
1 0.479591 0.270588
1 0.44419 0.268589
1 0.408118 0.261784
1 0.36672 0.256413
1 0.320745 0.268925
1 0.35108 0.350469
0.991775 0.392157 0.420844
0.987625 0.4168 0.478355
0.987839 0.429786 0.527352
0.0290379 0.64268 0.23061
0.0290379 0.64268 0.23061
0.0303044 0.643442 0.224521
0.0349432 0.642664 0.211124
0.0413214 0.642756 0.194095
0.0479286 0.642939 0.176196
0.0550851 0.643778 0.158129
0.0639353 0.644984 0.132265
0.0764477 0.645319 0.0815442
0.146517 0.647715 0.0739605
0.260105 0.647334 0.0887312
0.359899 0.645319 0.092195
0.434073 0.645747 0.0797436
0.477119 0.653452 0.0877241
0.538155 0.656962 0.109621
0.612009 0.649149 0.125673
0.674952 0.650675 0.0927291
0.737179 0.64889 0.121141
0.806348 0.637675 0.19968
0.853834 0.630915 0.237278
0.894606 0.622553 0.259068
0.923583 0.617319 0.269184
0.944228 0.613565 0.271977
0.971222 0.599786 0.280064
0.9906 0.580499 0.285725
0.994629 0.556176 0.28751
0.999557 0.524407 0.288792
1 0.481071 0.290959
1 0.443931 0.288182
1 0.40061 0.283818
1 0.396796 0.343038
0.996109 0.428458 0.414389
0.989303 0.456077 0.466239
0.0420233 0.694606 0.265843
0.0420233 0.694606 0.265843
0.044358 0.695537 0.256504
0.0492256 0.69456 0.245487
0.0557717 0.694453 0.230823
0.0626993 0.694484 0.214557
0.0697948 0.69485 0.195682
0.0773175 0.696178 0.175814
0.0881056 0.696956 0.137591
0.118853 0.696803 0.0924086
0.226795 0.69987 0.104555
0.337209 0.698421 0.115404
0.43154 0.696681 0.111467
0.487465 0.700725 0.105592
0.52929 0.707866 0.117937
0.591028 0.70985 0.138277
0.661952 0.70135 0.154879
0.723384 0.701289 0.1337
0.785824 0.699504 0.157366
0.849104 0.68716 0.231601
0.889632 0.681041 0.269184
0.923339 0.674693 0.290455
0.947311 0.670069 0.299748
0.962173 0.668193 0.299199
0.978454 0.658228 0.303471
0.98085 0.644022 0.30425
0.984115 0.623636 0.305806
0.988251 0.598077 0.307088
0.993744 0.56463 0.308995
1 0.525658 0.312917
1 0.481743 0.31635
1 0.446067 0.322774
0.998932 0.468147 0.404562
0.05832 0.745785 0.30135
0.0587167 0.745922 0.299825
0.0615854 0.746609 0.290303
0.0661021 0.745708 0.280842
0.0724498 0.745708 0.268299
0.0784314 0.745724 0.253986
0.0853132 0.745739 0.235859
0.0932937 0.746166 0.213825
0.101411 0.747539 0.190311
0.113573 0.747967 0.138918
0.183185 0.751339 0.121157
0.309606 0.750881 0.136339
0.412772 0.749813 0.14229
0.49575 0.749096 0.134676
0.539376 0.755489 0.137682
0.580453 0.761929 0.152193
0.641779 0.762371 0.170153
0.710735 0.753262 0.18764
0.77084 0.750546 0.175097
0.829801 0.748241 0.193912
0.885664 0.734829 0.2654
0.91986 0.728069 0.305837
0.943908 0.72398 0.330541
0.963073 0.719905 0.336568
0.971206 0.719417 0.329412
0.972015 0.711833 0.327825
0.973587 0.700084 0.327077
0.975952 0.68278 0.328023
0.979187 0.661723 0.328679
0.983307 0.635248 0.330343
0.988678 0.602243 0.33344
0.993896 0.571176 0.337972
1 0.532525 0.343786
0.0793622 0.79765 0.336751
0.0797436 0.797864 0.332616
0.080705 0.798169 0.324529
0.0849928 0.797314 0.316747
0.0905776 0.797284 0.306157
0.0957961 0.797253 0.294774
0.102068 0.797086 0.278202
0.109865 0.796902 0.256016
0.118654 0.797467 0.231479
0.128527 0.798718 0.201816
0.153201 0.800549 0.14609
0.270207 0.803815 0.158633
0.391241 0.801831 0.171374
0.481758 0.800687 0.173251
0.549325 0.801633 0.166949
0.589578 0.808011 0.174517
0.629618 0.813397 0.189731
0.691066 0.812985 0.20618
0.758083 0.803937 0.222309
0.815 0.798581 0.21651
0.867842 0.796323 0.230808
0.915282 0.781918 0.314672
0.942916 0.775311 0.353429
0.962142 0.770642 0.374304
0.971008 0.767788 0.378851
0.970581 0.767468 0.365087
0.970062 0.761181 0.358877
0.969451 0.751217 0.353872
0.969833 0.736461 0.354955
0.972244 0.717876 0.354116
0.975387 0.69633 0.354803
0.979141 0.670344 0.356741
0.9832 0.644663 0.361059
0.101976 0.844587 0.36939
0.10248 0.844755 0.363775
0.103227 0.845029 0.35671
0.106966 0.844221 0.349935
0.112001 0.844114 0.341238
0.116716 0.844053 0.331731
0.122316 0.843961 0.319005
0.130129 0.843793 0.298833
0.139116 0.843793 0.273762
0.148836 0.844434 0.24715
0.160647 0.845228 0.206775
0.231632 0.85127 0.185885
0.363027 0.849744 0.200732
0.466011 0.847395 0.208774
0.547005 0.845869 0.206882
0.599557 0.848798 0.205158
0.636851 0.854139 0.215396
0.676265 0.858396 0.230732
0.737224 0.856809 0.243397
0.802518 0.847822 0.259312
0.853895 0.841856 0.26276
0.90013 0.838621 0.302434
0.940276 0.826398 0.369619
0.962249 0.819898 0.402731
0.975906 0.815854 0.419409
0.975631 0.812238 0.420142
0.975158 0.812512 0.405798
0.974578 0.807477 0.397498
0.973648 0.79855 0.391318
0.972656 0.785809 0.388418
0.971435 0.770001 0.387488
0.970169 0.752117 0.387198
0.972274 0.729519 0.38909
0.126879 0.885252 0.400122
0.127504 0.885512 0.392645
0.127855 0.885695 0.386618
0.13109 0.884978 0.381064
0.135622 0.88484 0.373938
0.140139 0.884749 0.366064
0.145388 0.884657 0.356069
0.152499 0.88452 0.340063
0.161364 0.884352 0.317372
0.17142 0.884337 0.288975
0.181842 0.884932 0.259648
0.215488 0.891081 0.225971
0.324666 0.892958 0.230488
0.442374 0.889693 0.242573
0.532296 0.88687 0.246311
0.600443 0.885832 0.243809
0.643748 0.889616 0.247227
0.680308 0.893935 0.257862
0.72047 0.897841 0.27277
0.782483 0.895857 0.28249
0.842802 0.886519 0.299428
0.88922 0.880705 0.335897
0.928069 0.875898 0.373373
0.962081 0.864668 0.424598
0.978149 0.858793 0.452934
0.981888 0.854215 0.464698
0.981598 0.851545 0.464942
0.981048 0.852232 0.451301
0.980102 0.847913 0.442435
0.979019 0.840681 0.435203
0.977768 0.829786 0.430716
0.976272 0.816205 0.427405
0.974853 0.800214 0.424933
0.153796 0.919936 0.428092
0.15433 0.920104 0.421088
0.154696 0.920317 0.414557
0.15729 0.919814 0.409506
0.161288 0.919615 0.40354
0.165408 0.919463 0.397131
0.170153 0.919356 0.388739
0.176532 0.919234 0.376089
0.184573 0.919081 0.357656
0.194171 0.918914 0.332311
0.210315 0.920272 0.304799
0.237156 0.924605 0.286244
0.291524 0.929366 0.263218
0.411856 0.926619 0.275868
0.511116 0.922469 0.283528
0.588693 0.919432 0.284688
0.643061 0.919738 0.283818
0.68426 0.923888 0.29073
0.721614 0.927855 0.301411
0.76553 0.931167 0.315465
0.826352 0.929519 0.332845
0.877775 0.918837 0.366873
0.918883 0.913146 0.400717
0.951476 0.908171 0.434195
0.980072 0.897932 0.477867
0.989395 0.892226 0.502434
0.989212 0.887724 0.511589
0.988647 0.885435 0.510872
0.988022 0.886763 0.496193
0.987167 0.883375 0.487785
0.985672 0.877012 0.479576
0.984115 0.86743 0.474983
0.982361 0.855802 0.470069
0.182788 0.947311 0.454505
0.183108 0.947433 0.448157
0.183322 0.947524 0.442161
0.184634 0.947387 0.436179
0.188373 0.947204 0.431174
0.191974 0.947082 0.42562
0.196048 0.946975 0.418662
0.201602 0.946868 0.408392
0.208759 0.946685 0.393805
0.217426 0.946502 0.372656
0.238804 0.948699 0.352483
0.266957 0.952544 0.332067
0.304829 0.955718 0.321721
0.386755 0.956466 0.329778
0.488243 0.951812 0.338628
0.569711 0.948241 0.343832
0.637247 0.946258 0.346319
0.684398 0.948577 0.350317
0.725811 0.952529 0.35993
0.765194 0.955612 0.372076
0.810819 0.956634 0.385351
0.863981 0.954253 0.399527
0.907423 0.94313 0.430014
0.943236 0.938598 0.461311
0.970779 0.934005 0.491875
0.992187 0.925475 0.531533
0.996078 0.919539 0.550591
0.99678 0.915465 0.558892
0.996643 0.913893 0.557092
0.995315 0.915923 0.541878
0.994659 0.913039 0.533043
0.993744 0.907774 0.524224
0.991836 0.899458 0.519203
0.211566 0.968658 0.478065
0.21178 0.968643 0.472709
0.211902 0.968704 0.466972
0.211948 0.968719 0.461891
0.214633 0.968704 0.457481
0.21767 0.968597 0.453056
0.221363 0.96846 0.44741
0.226383 0.968292 0.438911
0.232486 0.96817 0.427146
0.243549 0.968612 0.412543
0.268482 0.971054 0.398245
0.295567 0.974166 0.379797
0.345922 0.975631 0.377356
0.396841 0.976394 0.386786
0.47361 0.974227 0.394171
0.553384 0.970764 0.400397
0.623041 0.96878 0.405447
0.681682 0.968719 0.409476
0.726467 0.971283 0.41735
0.769482 0.973236 0.427848
0.811109 0.974472 0.440162
0.853498 0.974517 0.449882
0.898695 0.973236 0.461997
0.934218 0.962676 0.489448
0.963989 0.958648 0.518303
0.985718 0.95436 0.546532
0.998962 0.946395 0.582696
0.999725 0.941421 0.598856
1 0.938476 0.605844
0.999847 0.938018 0.601938
0.999054 0.939712 0.586999
0.998444 0.937407 0.577951
0.997665 0.93254 0.569924
0.24062 0.983352 0.499931
0.240635 0.983337 0.494896
0.240558 0.983291 0.490272
0.240467 0.983307 0.485222
0.24123 0.983612 0.481147
0.243961 0.983505 0.477287
0.247044 0.983429 0.472694
0.251484 0.983291 0.465644
0.261982 0.983795 0.458579
0.279606 0.985031 0.451362
0.300175 0.986221 0.440604
0.328328 0.986404 0.427039
0.382589 0.98674 0.430869
0.43061 0.986755 0.436255
0.474311 0.986938 0.446387
0.545083 0.98471 0.453544
0.613657 0.98323 0.459174
0.675914 0.982986 0.464378
0.730358 0.984588 0.470039
0.770581 0.985519 0.48043
0.814725 0.985931 0.491157
0.853941 0.98555 0.502693
0.888945 0.986267 0.508492
0.927214 0.985748 0.519066
0.956008 0.975937 0.545251
0.980133 0.972564 0.573495
0.996277 0.968704 0.600259
1 0.962432 0.631434
1 0.958663 0.646113
1 0.956695 0.651713
1 0.957565 0.643427
1 0.958419 0.629633
1 0.956573 0.619257
0.265278 0.986236 0.517143
0.265278 0.986221 0.5131
0.265141 0.986191 0.508431
0.264881 0.986175 0.50399
0.266209 0.986175 0.500755
0.267735 0.98616 0.497581
0.27509 0.986236 0.495674
0.284428 0.98616 0.492531
0.296147 0.986252 0.488441
0.309972 0.986404 0.482261
0.326101 0.986511 0.473686
0.369924 0.986679 0.47602
0.415244 0.986755 0.478264
0.459373 0.986969 0.481682
0.500282 0.987228 0.488014
0.544289 0.98674 0.497993
0.604685 0.985428 0.504494
0.665949 0.984649 0.510079
0.723125 0.984543 0.515343
0.769238 0.985412 0.523552
0.809964 0.986084 0.534401
0.850996 0.986343 0.545617
0.884703 0.987243 0.552834
0.91516 0.988708 0.558663
0.947265 0.98999 0.57023
0.974044 0.983932 0.598978
0.991775 0.981292 0.625299
1 0.978195 0.651743
1 0.97351 0.678889
1 0.971405 0.691752
1 0.970459 0.695277
1 0.971801 0.68191
1 0.971374 0.670405
0.310796 0.986435 0.542611
0.310201 0.986404 0.53846
0.309621 0.986389 0.534569
0.309087 0.986358 0.530297
0.309941 0.986374 0.527459
0.310918 0.986374 0.524407
0.312688 0.986374 0.521111
0.320165 0.98645 0.518669
0.32929 0.986526 0.51519
0.352224 0.986694 0.515953
0.381964 0.98677 0.518669
0.414771 0.986877 0.52134
0.450706 0.987015 0.523857
0.488701 0.987243 0.526513
0.526543 0.987488 0.530434
0.565072 0.987488 0.538033
0.606653 0.986587 0.548257
0.660929 0.98555 0.554437
0.716747 0.985016 0.55996
0.768307 0.985367 0.565972
0.808957 0.985916 0.575174
0.846815 0.986206 0.586069
0.882353 0.986648 0.595468
0.911467 0.988296 0.599863
0.936599 0.989685 0.605051
0.959304 0.985046 0.619852
0.985946 0.984237 0.645655
0.998596 0.984588 0.673686
1 0.984924 0.700664
1 0.98201 0.72517
1 0.980789 0.736355
1 0.980682 0.735485
1 0.981781 0.718853
0.373266 0.986664 0.575784
0.371389 0.986786 0.571481
0.369116 0.98677 0.567208
0.366781 0.986755 0.562707
0.36878 0.98674 0.560876
